{
  "type": "map",
  "version": "1.10",
  "tiledversion": "1.10.2",
  "orientation": "orthogonal",
  "renderorder": "right-down",
  "infinite": false,
  "width": 160,
  "height": 16,
  "tilewidth": 16,
  "tileheight": 16,
  "backgroundcolor": "#101923",
  "nextlayerid": 9,
  "nextobjectid": 17,
  "layers": [
    {
      "id": 1,
      "name": "Background",
      "type": "tilelayer",
      "width": 160,
      "height": 16,
      "x": 0,
      "y": 0,
      "visible": false,
      "opacity": 1,
      "data": [
        0,
        0,
        0,
        0,
        0,
        0,
        0,
        0,
        0,
        0,
        0,
        0,
        0,
        0,
        0,
        0,
        0,
        0,
        0,
        0,
        0,
        0,
        0,
        0,
        0,
        0,
        0,
        0,
        0,
        0,
        0,
        0,
        0,
        0,
        0,
        0,
        0,
        0,
        0,
        0,
        0,
        0,
        0,
        0,
        0,
        0,
        0,
        0,
        0,
        0,
        0,
        0,
        0,
        0,
        0,
        0,
        0,
        0,
        0,
        0,
        0,
        0,
        0,
        0,
        0,
        0,
        0,
        0,
        0,
        0,
        0,
        0,
        0,
        0,
        0,
        0,
        0,
        0,
        0,
        0,
        0,
        0,
        0,
        0,
        0,
        0,
        0,
        0,
        0,
        0,
        0,
        0,
        0,
        0,
        0,
        0,
        0,
        0,
        0,
        0,
        0,
        0,
        0,
        0,
        0,
        0,
        0,
        0,
        0,
        0,
        0,
        0,
        0,
        0,
        0,
        0,
        0,
        0,
        0,
        0,
        0,
        0,
        0,
        0,
        0,
        0,
        0,
        0,
        0,
        0,
        0,
        0,
        0,
        0,
        0,
        0,
        0,
        0,
        0,
        0,
        0,
        0,
        0,
        0,
        0,
        0,
        0,
        0,
        0,
        0,
        0,
        0,
        0,
        0,
        0,
        0,
        0,
        0,
        0,
        0,
        0,
        0,
        0,
        0,
        0,
        0,
        0,
        0,
        0,
        0,
        0,
        0,
        0,
        0,
        0,
        0,
        0,
        0,
        0,
        0,
        0,
        0,
        0,
        0,
        0,
        0,
        0,
        0,
        0,
        0,
        0,
        0,
        0,
        0,
        0,
        0,
        0,
        0,
        0,
        0,
        0,
        0,
        0,
        0,
        0,
        0,
        0,
        0,
        0,
        0,
        0,
        0,
        0,
        0,
        0,
        0,
        0,
        0,
        0,
        0,
        0,
        0,
        0,
        0,
        0,
        0,
        0,
        0,
        0,
        0,
        0,
        0,
        0,
        0,
        0,
        0,
        0,
        0,
        0,
        0,
        0,
        0,
        0,
        0,
        0,
        0,
        0,
        0,
        0,
        0,
        0,
        0,
        0,
        0,
        0,
        0,
        0,
        0,
        0,
        0,
        0,
        0,
        0,
        0,
        0,
        0,
        0,
        0,
        0,
        0,
        0,
        0,
        0,
        0,
        0,
        0,
        0,
        0,
        0,
        0,
        0,
        0,
        0,
        0,
        0,
        0,
        0,
        0,
        0,
        0,
        0,
        0,
        0,
        0,
        0,
        0,
        0,
        0,
        0,
        0,
        0,
        0,
        0,
        0,
        0,
        0,
        0,
        0,
        0,
        0,
        0,
        0,
        0,
        0,
        0,
        0,
        0,
        0,
        0,
        0,
        0,
        0,
        0,
        0,
        0,
        0,
        0,
        0,
        0,
        0,
        0,
        0,
        0,
        0,
        0,
        0,
        0,
        0,
        0,
        0,
        0,
        0,
        0,
        0,
        0,
        0,
        0,
        0,
        0,
        0,
        0,
        0,
        0,
        0,
        0,
        0,
        0,
        0,
        0,
        0,
        0,
        0,
        0,
        0,
        0,
        0,
        0,
        0,
        0,
        0,
        0,
        0,
        0,
        0,
        59,
        60,
        59,
        0,
        0,
        0,
        0,
        0,
        0,
        60,
        59,
        60,
        0,
        0,
        0,
        0,
        0,
        0,
        59,
        60,
        59,
        0,
        0,
        0,
        0,
        0,
        0,
        60,
        59,
        60,
        0,
        0,
        0,
        0,
        0,
        0,
        59,
        60,
        59,
        0,
        0,
        0,
        0,
        0,
        0,
        60,
        59,
        60,
        0,
        0,
        0,
        0,
        0,
        0,
        59,
        60,
        59,
        0,
        0,
        0,
        0,
        0,
        0,
        60,
        59,
        60,
        0,
        0,
        0,
        0,
        0,
        0,
        59,
        60,
        59,
        0,
        0,
        0,
        0,
        0,
        0,
        60,
        59,
        60,
        0,
        0,
        0,
        0,
        0,
        0,
        59,
        60,
        0,
        0,
        0,
        0,
        0,
        0,
        0,
        0,
        0,
        0,
        0,
        0,
        0,
        0,
        0,
        0,
        0,
        0,
        0,
        0,
        0,
        0,
        0,
        0,
        0,
        0,
        0,
        0,
        0,
        0,
        0,
        0,
        0,
        0,
        0,
        0,
        0,
        0,
        0,
        0,
        0,
        0,
        0,
        0,
        0,
        0,
        0,
        0,
        0,
        0,
        0,
        0,
        0,
        0,
        0,
        0,
        0,
        0,
        0,
        0,
        0,
        0,
        0,
        0,
        0,
        0,
        0,
        0,
        59,
        60,
        59,
        0,
        0,
        0,
        0,
        0,
        0,
        60,
        59,
        60,
        0,
        0,
        0,
        0,
        0,
        0,
        59,
        60,
        59,
        0,
        0,
        0,
        0,
        0,
        0,
        60,
        59,
        60,
        0,
        0,
        0,
        0,
        0,
        0,
        59,
        60,
        59,
        0,
        0,
        0,
        0,
        0,
        0,
        60,
        59,
        60,
        0,
        0,
        0,
        0,
        0,
        0,
        59,
        60,
        59,
        0,
        0,
        0,
        0,
        0,
        0,
        60,
        59,
        60,
        0,
        0,
        0,
        0,
        0,
        0,
        59,
        60,
        59,
        0,
        0,
        0,
        0,
        0,
        0,
        60,
        59,
        60,
        0,
        0,
        0,
        0,
        0,
        0,
        59,
        60,
        0,
        0,
        0,
        0,
        0,
        0,
        0,
        0,
        0,
        0,
        0,
        0,
        0,
        0,
        0,
        0,
        0,
        0,
        0,
        0,
        0,
        0,
        0,
        0,
        0,
        0,
        0,
        0,
        0,
        0,
        0,
        0,
        0,
        0,
        0,
        0,
        0,
        0,
        0,
        0,
        0,
        0,
        0,
        0,
        0,
        0,
        0,
        0,
        0,
        0,
        0,
        0,
        0,
        0,
        0,
        0,
        0,
        0,
        0,
        0,
        0,
        0,
        0,
        0,
        0,
        0,
        0,
        0,
        59,
        60,
        59,
        0,
        0,
        0,
        0,
        0,
        0,
        60,
        59,
        60,
        0,
        0,
        0,
        0,
        0,
        0,
        59,
        60,
        59,
        0,
        0,
        0,
        0,
        0,
        0,
        60,
        59,
        60,
        0,
        0,
        0,
        0,
        0,
        0,
        59,
        60,
        59,
        0,
        0,
        0,
        0,
        0,
        0,
        60,
        59,
        60,
        0,
        0,
        0,
        0,
        0,
        0,
        59,
        60,
        59,
        0,
        0,
        0,
        0,
        0,
        0,
        60,
        59,
        60,
        0,
        0,
        0,
        0,
        0,
        0,
        59,
        60,
        59,
        0,
        0,
        0,
        0,
        0,
        0,
        60,
        59,
        60,
        0,
        0,
        0,
        0,
        0,
        0,
        59,
        60,
        0,
        0,
        0,
        0,
        0,
        0,
        0,
        0,
        0,
        0,
        0,
        0,
        0,
        0,
        0,
        0,
        0,
        0,
        0,
        0,
        0,
        0,
        0,
        0,
        0,
        0,
        0,
        0,
        0,
        0,
        0,
        0,
        0,
        0,
        0,
        0,
        0,
        0,
        0,
        0,
        0,
        0,
        0,
        0,
        0,
        0,
        0,
        0,
        0,
        0,
        0,
        0,
        0,
        0,
        0,
        0,
        0,
        0,
        0,
        0,
        0,
        0,
        0,
        0,
        0,
        0,
        0,
        0,
        59,
        60,
        59,
        0,
        0,
        0,
        0,
        0,
        0,
        60,
        59,
        60,
        0,
        0,
        0,
        0,
        0,
        0,
        59,
        60,
        59,
        0,
        0,
        0,
        0,
        0,
        0,
        60,
        59,
        60,
        0,
        0,
        0,
        0,
        0,
        0,
        59,
        60,
        59,
        0,
        0,
        0,
        0,
        0,
        0,
        60,
        59,
        60,
        0,
        0,
        0,
        0,
        0,
        0,
        59,
        60,
        59,
        0,
        0,
        0,
        0,
        0,
        0,
        60,
        59,
        60,
        0,
        0,
        0,
        0,
        0,
        0,
        59,
        60,
        59,
        0,
        0,
        0,
        0,
        0,
        0,
        60,
        59,
        60,
        0,
        0,
        0,
        0,
        0,
        0,
        59,
        60,
        0,
        0,
        0,
        0,
        0,
        0,
        5,
        5,
        5,
        5,
        5,
        5,
        5,
        5,
        0,
        0,
        0,
        0,
        0,
        0,
        0,
        0,
        0,
        65,
        65,
        65,
        65,
        65,
        0,
        0,
        0,
        0,
        0,
        0,
        0,
        0,
        0,
        0,
        0,
        0,
        0,
        0,
        0,
        0,
        0,
        65,
        65,
        65,
        65,
        65,
        0,
        0,
        0,
        0,
        0,
        0,
        0,
        0,
        0,
        0,
        0,
        0,
        0,
        0,
        0,
        0,
        0,
        0,
        59,
        60,
        59,
        0,
        0,
        0,
        0,
        0,
        0,
        60,
        59,
        60,
        0,
        0,
        0,
        0,
        0,
        0,
        59,
        60,
        59,
        0,
        0,
        0,
        0,
        0,
        0,
        60,
        59,
        60,
        0,
        0,
        0,
        0,
        0,
        0,
        59,
        60,
        59,
        0,
        0,
        0,
        0,
        0,
        0,
        60,
        59,
        60,
        0,
        0,
        0,
        0,
        0,
        0,
        59,
        60,
        59,
        0,
        0,
        0,
        0,
        0,
        0,
        60,
        59,
        60,
        0,
        0,
        0,
        0,
        0,
        0,
        59,
        60,
        59,
        0,
        0,
        0,
        0,
        0,
        0,
        60,
        59,
        60,
        0,
        0,
        0,
        0,
        0,
        0,
        59,
        60,
        0,
        0,
        0,
        0,
        0,
        0,
        13,
        13,
        13,
        13,
        13,
        13,
        13,
        13,
        0,
        0,
        0,
        0,
        0,
        0,
        65,
        65,
        65,
        65,
        65,
        65,
        65,
        65,
        65,
        65,
        65,
        0,
        0,
        0,
        0,
        0,
        0,
        0,
        0,
        0,
        0,
        0,
        65,
        65,
        65,
        65,
        65,
        65,
        65,
        65,
        65,
        65,
        65,
        0,
        0,
        0,
        0,
        0,
        0,
        0,
        0,
        0,
        0,
        0,
        0,
        0,
        0,
        0,
        59,
        60,
        59,
        0,
        0,
        0,
        0,
        0,
        0,
        60,
        59,
        60,
        0,
        0,
        0,
        0,
        0,
        0,
        59,
        60,
        59,
        0,
        0,
        0,
        0,
        0,
        0,
        60,
        59,
        60,
        0,
        0,
        0,
        0,
        0,
        0,
        59,
        60,
        59,
        0,
        0,
        0,
        0,
        0,
        0,
        60,
        59,
        60,
        0,
        0,
        0,
        0,
        0,
        0,
        59,
        60,
        59,
        0,
        0,
        0,
        0,
        0,
        0,
        60,
        59,
        60,
        0,
        0,
        0,
        0,
        0,
        0,
        59,
        60,
        59,
        0,
        0,
        0,
        0,
        0,
        0,
        60,
        59,
        60,
        0,
        0,
        0,
        0,
        0,
        0,
        59,
        60,
        0,
        0,
        0,
        0,
        0,
        0,
        13,
        13,
        13,
        13,
        13,
        13,
        13,
        13,
        0,
        0,
        0,
        65,
        65,
        65,
        65,
        65,
        65,
        65,
        65,
        65,
        65,
        65,
        65,
        65,
        65,
        65,
        65,
        65,
        0,
        0,
        0,
        0,
        0,
        65,
        65,
        65,
        65,
        65,
        65,
        65,
        65,
        65,
        65,
        65,
        65,
        65,
        65,
        65,
        65,
        65,
        0,
        0,
        0,
        0,
        0,
        65,
        0,
        0,
        0,
        0,
        0,
        0,
        59,
        60,
        59,
        0,
        0,
        0,
        0,
        0,
        0,
        0,
        0,
        0,
        0,
        0,
        0,
        0,
        0,
        0,
        59,
        60,
        59,
        0,
        0,
        0,
        0,
        0,
        0,
        60,
        59,
        60,
        0,
        0,
        0,
        0,
        0,
        0,
        59,
        60,
        59,
        0,
        0,
        0,
        0,
        0,
        0,
        0,
        0,
        0,
        0,
        0,
        0,
        0,
        0,
        0,
        59,
        60,
        59,
        0,
        0,
        0,
        0,
        0,
        0,
        60,
        59,
        60,
        0,
        0,
        0,
        0,
        0,
        0,
        59,
        60,
        59,
        0,
        0,
        0,
        0,
        0,
        0,
        0,
        0,
        0,
        0,
        0,
        0,
        0,
        0,
        0,
        59,
        60,
        0,
        0,
        0,
        0,
        0,
        0,
        13,
        13,
        13,
        13,
        13,
        13,
        13,
        13,
        65,
        65,
        65,
        65,
        65,
        65,
        65,
        65,
        65,
        65,
        65,
        65,
        65,
        65,
        65,
        65,
        65,
        65,
        65,
        65,
        65,
        65,
        65,
        65,
        65,
        65,
        65,
        65,
        65,
        65,
        65,
        65,
        65,
        65,
        65,
        65,
        65,
        65,
        65,
        65,
        65,
        65,
        65,
        65,
        65,
        65,
        65,
        65,
        0,
        0,
        0,
        0,
        0,
        0,
        59,
        60,
        59,
        0,
        0,
        0,
        0,
        0,
        0,
        0,
        0,
        0,
        0,
        0,
        0,
        0,
        0,
        0,
        59,
        60,
        59,
        0,
        0,
        0,
        0,
        0,
        0,
        60,
        59,
        60,
        0,
        0,
        0,
        0,
        0,
        0,
        59,
        60,
        59,
        0,
        0,
        0,
        0,
        0,
        0,
        0,
        0,
        0,
        0,
        0,
        0,
        0,
        0,
        0,
        59,
        60,
        59,
        0,
        0,
        0,
        0,
        0,
        0,
        60,
        59,
        60,
        0,
        0,
        0,
        0,
        0,
        0,
        59,
        60,
        59,
        0,
        0,
        0,
        0,
        0,
        0,
        0,
        0,
        0,
        0,
        0,
        0,
        0,
        0,
        0,
        59,
        60,
        0,
        0,
        0,
        0,
        0,
        0,
        13,
        13,
        13,
        13,
        13,
        13,
        13,
        13,
        65,
        65,
        65,
        65,
        65,
        65,
        65,
        65,
        65,
        65,
        65,
        65,
        65,
        65,
        65,
        65,
        65,
        65,
        65,
        65,
        65,
        65,
        65,
        65,
        65,
        65,
        65,
        65,
        65,
        65,
        65,
        65,
        65,
        65,
        65,
        65,
        65,
        65,
        65,
        65,
        65,
        65,
        65,
        65,
        65,
        65,
        65,
        65,
        0,
        0,
        0,
        0,
        0,
        0,
        0,
        0,
        0,
        0,
        0,
        0,
        0,
        0,
        0,
        0,
        0,
        0,
        0,
        0,
        0,
        0,
        0,
        0,
        0,
        0,
        0,
        0,
        0,
        0,
        0,
        0,
        0,
        60,
        59,
        60,
        0,
        0,
        0,
        0,
        0,
        0,
        0,
        0,
        0,
        0,
        0,
        0,
        0,
        0,
        0,
        0,
        0,
        0,
        0,
        0,
        0,
        0,
        0,
        0,
        0,
        0,
        0,
        0,
        0,
        0,
        0,
        0,
        0,
        60,
        59,
        60,
        0,
        0,
        0,
        0,
        0,
        0,
        0,
        0,
        0,
        0,
        0,
        0,
        0,
        0,
        0,
        0,
        0,
        0,
        0,
        0,
        0,
        0,
        0,
        0,
        0,
        0,
        0,
        0,
        0,
        0,
        0,
        0,
        13,
        13,
        13,
        13,
        13,
        13,
        13,
        13,
        65,
        65,
        65,
        65,
        65,
        65,
        65,
        65,
        65,
        65,
        65,
        65,
        65,
        65,
        65,
        65,
        65,
        65,
        65,
        65,
        65,
        65,
        65,
        65,
        65,
        65,
        65,
        65,
        65,
        65,
        65,
        65,
        65,
        65,
        65,
        65,
        65,
        65,
        65,
        65,
        65,
        65,
        65,
        65,
        65,
        65,
        65,
        65,
        0,
        0,
        0,
        0,
        0,
        0,
        0,
        0,
        0,
        0,
        0,
        0,
        0,
        0,
        0,
        0,
        0,
        0,
        0,
        0,
        0,
        0,
        0,
        0,
        0,
        0,
        0,
        0,
        0,
        0,
        0,
        0,
        0,
        60,
        59,
        60,
        0,
        0,
        0,
        0,
        0,
        0,
        0,
        0,
        0,
        0,
        0,
        0,
        0,
        0,
        0,
        0,
        0,
        0,
        0,
        0,
        0,
        0,
        0,
        0,
        0,
        0,
        0,
        0,
        0,
        0,
        0,
        0,
        0,
        60,
        59,
        60,
        0,
        0,
        0,
        0,
        0,
        0,
        0,
        0,
        0,
        0,
        0,
        0,
        0,
        0,
        0,
        0,
        0,
        0,
        0,
        0,
        0,
        0,
        0,
        0,
        0,
        0,
        0,
        0,
        0,
        0,
        0,
        0,
        13,
        13,
        13,
        13,
        13,
        13,
        13,
        13,
        0,
        0,
        0,
        0,
        0,
        0,
        0,
        0,
        0,
        0,
        0,
        0,
        0,
        0,
        0,
        0,
        0,
        0,
        0,
        0,
        0,
        0,
        0,
        0,
        0,
        0,
        0,
        0,
        0,
        0,
        0,
        0,
        0,
        0,
        0,
        0,
        0,
        0,
        0,
        0,
        0,
        0,
        0,
        0,
        0,
        0,
        0,
        0,
        0,
        0,
        0,
        0,
        0,
        0,
        0,
        0,
        0,
        0,
        0,
        0,
        0,
        0,
        0,
        0,
        0,
        0,
        0,
        0,
        0,
        0,
        0,
        0,
        0,
        0,
        0,
        0,
        0,
        0,
        0,
        0,
        0,
        0,
        0,
        0,
        0,
        0,
        0,
        0,
        0,
        0,
        0,
        0,
        0,
        0,
        0,
        0,
        0,
        0,
        0,
        0,
        0,
        0,
        0,
        0,
        0,
        0,
        0,
        0,
        0,
        0,
        0,
        0,
        0,
        0,
        0,
        0,
        0,
        0,
        0,
        0,
        0,
        0,
        0,
        0,
        0,
        0,
        0,
        0,
        0,
        0,
        0,
        0,
        0,
        0,
        0,
        0,
        0,
        0,
        0,
        0,
        0,
        0,
        0,
        0,
        0,
        0,
        0,
        0,
        0,
        0,
        0,
        0,
        0,
        0,
        0,
        0,
        0,
        0,
        0,
        0,
        0,
        0,
        0,
        0,
        0,
        0,
        0,
        0,
        0,
        0,
        0,
        0,
        0,
        0,
        0,
        0,
        0,
        0,
        0,
        0,
        0,
        0,
        0,
        0,
        57,
        57,
        57,
        57,
        57,
        57,
        0,
        0,
        0,
        0,
        0,
        0,
        0,
        0,
        57,
        57,
        57,
        57,
        57,
        57,
        0,
        0,
        0,
        0,
        0,
        0,
        0,
        0,
        0,
        0,
        0,
        0,
        0,
        0,
        0,
        0,
        0,
        0,
        0,
        0,
        0,
        0,
        0,
        0,
        0,
        0,
        0,
        0,
        0,
        0,
        0,
        0,
        0,
        0,
        0,
        0,
        0,
        0,
        0,
        0,
        0,
        0,
        0,
        0,
        0,
        0,
        0,
        0,
        0,
        0,
        0,
        0,
        0,
        0,
        0,
        0,
        0,
        0,
        0,
        0,
        0,
        0,
        0,
        0,
        0,
        0,
        0,
        0,
        0,
        0,
        0,
        0,
        0,
        0,
        0,
        0,
        0,
        0,
        0,
        0,
        0,
        0,
        0,
        0,
        0,
        0,
        0,
        0,
        0,
        0,
        0,
        0,
        0,
        0,
        0,
        0,
        0,
        0,
        0,
        0,
        0,
        0,
        0,
        0,
        0,
        0,
        0,
        0,
        0,
        0,
        0,
        0,
        0,
        0,
        0,
        0,
        0,
        0,
        0,
        0,
        0,
        0,
        0,
        0,
        0,
        0,
        0,
        0,
        0,
        0,
        0,
        0,
        0,
        0,
        0,
        0,
        0,
        0,
        0,
        0,
        0,
        0,
        0,
        0,
        0,
        0,
        0,
        0,
        0,
        0,
        0,
        0,
        0,
        0,
        0,
        0,
        0,
        0,
        0,
        0,
        0,
        0,
        0,
        0,
        0,
        0,
        0,
        0,
        0,
        0,
        0,
        0,
        0,
        0,
        0,
        0,
        0,
        0,
        0,
        0,
        0,
        0,
        0,
        0,
        0,
        0,
        0,
        0,
        0,
        0,
        0,
        0,
        0,
        0,
        0,
        0,
        0,
        0,
        0,
        0,
        0,
        0,
        0,
        0,
        0,
        0,
        0,
        0,
        0,
        0,
        0,
        0,
        0,
        0,
        0,
        0,
        0,
        0,
        0,
        0,
        0,
        0,
        0,
        0,
        0,
        0,
        0,
        0,
        0,
        0,
        0,
        0,
        0,
        0,
        0,
        0,
        0,
        0,
        0,
        0,
        0,
        0,
        0,
        0,
        0,
        0,
        0,
        0,
        0,
        0,
        0,
        0,
        0,
        0,
        0,
        0,
        0,
        0,
        0,
        0,
        0,
        0,
        0,
        0,
        0,
        0,
        0,
        0,
        0,
        0,
        0,
        0,
        0,
        0,
        0,
        0,
        0,
        0,
        0,
        0,
        0,
        0,
        0,
        0,
        0,
        0,
        0,
        0,
        0,
        0,
        0,
        0,
        0,
        0,
        0,
        0,
        0,
        0,
        0,
        0,
        0,
        0,
        0,
        0,
        0,
        0,
        0,
        0,
        0,
        0,
        0,
        0,
        0,
        0,
        0,
        0,
        0,
        0,
        0,
        0,
        0,
        0,
        0,
        0,
        0,
        0,
        0,
        0,
        0,
        0,
        0,
        0,
        0,
        0,
        0,
        0,
        0,
        0,
        0,
        0,
        0,
        0,
        0,
        0,
        0,
        0,
        0,
        0,
        0,
        0,
        0,
        0,
        0,
        0,
        0,
        0,
        0,
        0,
        0,
        0,
        0,
        0,
        0,
        0,
        0,
        0,
        0,
        0,
        0,
        0,
        0,
        0,
        0,
        0,
        0,
        0,
        0,
        0,
        0,
        0,
        0,
        0,
        0,
        0,
        0,
        0,
        0,
        0,
        0,
        0,
        0,
        0,
        0,
        0,
        0,
        0,
        0,
        0,
        0,
        0,
        0,
        0,
        0,
        0,
        0,
        0,
        0,
        0,
        0,
        0,
        0,
        0,
        0,
        0,
        0,
        0,
        0,
        0,
        0,
        0,
        0,
        0,
        0,
        0,
        0,
        0,
        0,
        0,
        0,
        0,
        0,
        0,
        0,
        0,
        0,
        0
      ]
    },
    {
      "id": 2,
      "name": "Terrain",
      "type": "tilelayer",
      "width": 160,
      "height": 16,
      "x": 0,
      "y": 0,
      "visible": false,
      "opacity": 1,
      "data": [
        0,
        0,
        0,
        0,
        0,
        0,
        0,
        0,
        0,
        0,
        0,
        0,
        0,
        0,
        0,
        0,
        0,
        0,
        0,
        0,
        0,
        0,
        0,
        0,
        0,
        0,
        0,
        0,
        0,
        0,
        0,
        0,
        0,
        0,
        0,
        0,
        0,
        0,
        0,
        0,
        0,
        0,
        0,
        0,
        0,
        0,
        0,
        0,
        0,
        0,
        0,
        0,
        0,
        0,
        0,
        0,
        0,
        0,
        0,
        0,
        0,
        0,
        0,
        0,
        0,
        0,
        0,
        0,
        0,
        0,
        0,
        0,
        0,
        0,
        0,
        0,
        0,
        0,
        0,
        0,
        0,
        0,
        0,
        0,
        0,
        0,
        0,
        0,
        0,
        0,
        0,
        0,
        0,
        0,
        0,
        0,
        0,
        0,
        0,
        0,
        0,
        0,
        0,
        0,
        0,
        0,
        0,
        0,
        0,
        0,
        0,
        0,
        0,
        0,
        0,
        0,
        0,
        0,
        0,
        0,
        0,
        0,
        0,
        0,
        0,
        0,
        0,
        0,
        0,
        0,
        0,
        0,
        0,
        0,
        0,
        0,
        0,
        0,
        0,
        0,
        0,
        0,
        0,
        0,
        0,
        0,
        0,
        0,
        0,
        0,
        0,
        0,
        0,
        0,
        0,
        0,
        0,
        0,
        0,
        0,
        0,
        0,
        0,
        0,
        0,
        0,
        0,
        0,
        0,
        0,
        0,
        0,
        0,
        0,
        0,
        0,
        0,
        0,
        0,
        0,
        0,
        0,
        0,
        0,
        0,
        0,
        0,
        0,
        0,
        0,
        0,
        0,
        0,
        0,
        0,
        0,
        0,
        0,
        0,
        0,
        0,
        0,
        0,
        0,
        0,
        0,
        0,
        0,
        0,
        0,
        0,
        0,
        0,
        0,
        0,
        0,
        0,
        0,
        0,
        0,
        0,
        0,
        0,
        0,
        0,
        0,
        0,
        0,
        0,
        0,
        0,
        0,
        0,
        0,
        0,
        0,
        0,
        0,
        0,
        0,
        0,
        0,
        0,
        0,
        0,
        0,
        0,
        0,
        0,
        0,
        0,
        0,
        0,
        0,
        0,
        0,
        0,
        0,
        0,
        0,
        0,
        0,
        0,
        0,
        0,
        0,
        0,
        0,
        0,
        0,
        0,
        0,
        0,
        0,
        0,
        0,
        0,
        0,
        0,
        0,
        0,
        0,
        0,
        0,
        0,
        0,
        0,
        0,
        0,
        0,
        0,
        0,
        0,
        0,
        0,
        0,
        0,
        0,
        0,
        0,
        0,
        0,
        0,
        0,
        0,
        0,
        0,
        0,
        0,
        0,
        0,
        0,
        0,
        0,
        0,
        0,
        0,
        0,
        0,
        0,
        0,
        0,
        0,
        0,
        0,
        0,
        0,
        0,
        0,
        0,
        0,
        0,
        0,
        0,
        0,
        0,
        0,
        0,
        0,
        0,
        0,
        0,
        0,
        0,
        0,
        0,
        0,
        0,
        0,
        0,
        0,
        0,
        0,
        0,
        0,
        0,
        0,
        0,
        0,
        0,
        0,
        0,
        0,
        0,
        0,
        0,
        0,
        0,
        0,
        0,
        0,
        0,
        0,
        0,
        0,
        0,
        0,
        0,
        0,
        0,
        0,
        0,
        0,
        0,
        0,
        0,
        0,
        0,
        0,
        0,
        0,
        0,
        0,
        0,
        0,
        0,
        0,
        0,
        0,
        0,
        0,
        0,
        0,
        0,
        0,
        0,
        0,
        0,
        0,
        0,
        0,
        0,
        0,
        0,
        0,
        0,
        0,
        0,
        0,
        0,
        0,
        0,
        0,
        0,
        0,
        0,
        0,
        0,
        0,
        0,
        0,
        0,
        0,
        0,
        0,
        0,
        0,
        0,
        0,
        0,
        0,
        0,
        0,
        0,
        0,
        0,
        0,
        0,
        0,
        0,
        0,
        0,
        0,
        0,
        0,
        0,
        0,
        0,
        0,
        0,
        0,
        0,
        0,
        0,
        0,
        0,
        0,
        0,
        0,
        0,
        0,
        0,
        0,
        0,
        0,
        0,
        0,
        0,
        0,
        0,
        0,
        0,
        0,
        0,
        0,
        0,
        0,
        0,
        0,
        0,
        0,
        0,
        0,
        0,
        0,
        0,
        0,
        0,
        0,
        0,
        0,
        0,
        0,
        0,
        0,
        0,
        0,
        0,
        0,
        0,
        0,
        0,
        0,
        0,
        0,
        0,
        0,
        0,
        0,
        0,
        0,
        0,
        0,
        0,
        0,
        0,
        0,
        0,
        0,
        0,
        0,
        0,
        0,
        0,
        0,
        0,
        0,
        0,
        0,
        0,
        0,
        0,
        0,
        0,
        0,
        0,
        0,
        0,
        0,
        0,
        0,
        0,
        0,
        0,
        0,
        0,
        0,
        0,
        0,
        0,
        0,
        0,
        0,
        0,
        0,
        0,
        0,
        0,
        0,
        0,
        0,
        0,
        0,
        0,
        0,
        0,
        0,
        0,
        0,
        0,
        0,
        0,
        0,
        0,
        0,
        0,
        0,
        0,
        0,
        0,
        0,
        0,
        0,
        0,
        0,
        0,
        0,
        0,
        0,
        0,
        0,
        0,
        0,
        0,
        0,
        0,
        0,
        0,
        0,
        0,
        0,
        0,
        0,
        0,
        0,
        0,
        0,
        0,
        0,
        0,
        0,
        0,
        0,
        0,
        0,
        0,
        0,
        0,
        0,
        0,
        0,
        0,
        0,
        0,
        0,
        0,
        0,
        0,
        0,
        0,
        0,
        0,
        0,
        0,
        0,
        0,
        0,
        0,
        0,
        0,
        0,
        0,
        0,
        0,
        0,
        0,
        0,
        0,
        0,
        0,
        0,
        0,
        0,
        0,
        0,
        0,
        0,
        0,
        0,
        0,
        0,
        0,
        0,
        0,
        0,
        0,
        0,
        0,
        0,
        0,
        0,
        0,
        0,
        0,
        0,
        0,
        0,
        0,
        0,
        0,
        0,
        0,
        0,
        0,
        0,
        0,
        0,
        0,
        0,
        0,
        0,
        0,
        0,
        0,
        0,
        0,
        0,
        0,
        0,
        0,
        0,
        0,
        0,
        0,
        0,
        0,
        0,
        0,
        0,
        0,
        0,
        0,
        0,
        0,
        0,
        0,
        0,
        0,
        0,
        0,
        0,
        0,
        0,
        0,
        0,
        0,
        0,
        0,
        0,
        0,
        0,
        0,
        0,
        0,
        0,
        0,
        0,
        0,
        0,
        0,
        0,
        0,
        0,
        0,
        0,
        0,
        0,
        0,
        0,
        0,
        0,
        0,
        0,
        0,
        0,
        0,
        0,
        0,
        0,
        0,
        0,
        0,
        0,
        0,
        0,
        0,
        0,
        0,
        0,
        0,
        0,
        0,
        0,
        0,
        0,
        0,
        0,
        0,
        0,
        0,
        0,
        0,
        0,
        0,
        0,
        0,
        0,
        0,
        0,
        0,
        0,
        0,
        0,
        0,
        0,
        0,
        0,
        0,
        0,
        0,
        0,
        0,
        0,
        0,
        0,
        0,
        0,
        0,
        0,
        0,
        0,
        0,
        0,
        0,
        0,
        0,
        0,
        0,
        0,
        0,
        0,
        0,
        0,
        0,
        0,
        0,
        0,
        0,
        0,
        0,
        0,
        0,
        0,
        0,
        0,
        0,
        0,
        0,
        0,
        0,
        0,
        0,
        0,
        0,
        0,
        0,
        0,
        0,
        0,
        0,
        0,
        0,
        0,
        0,
        0,
        0,
        0,
        0,
        0,
        0,
        0,
        0,
        0,
        0,
        0,
        0,
        0,
        0,
        0,
        0,
        0,
        0,
        0,
        0,
        0,
        0,
        0,
        0,
        0,
        0,
        0,
        0,
        0,
        0,
        0,
        0,
        0,
        0,
        0,
        0,
        0,
        0,
        0,
        0,
        0,
        0,
        0,
        0,
        0,
        0,
        0,
        0,
        0,
        0,
        0,
        0,
        0,
        0,
        0,
        0,
        0,
        0,
        0,
        0,
        0,
        0,
        0,
        0,
        0,
        0,
        0,
        0,
        0,
        0,
        0,
        0,
        0,
        0,
        0,
        0,
        0,
        0,
        0,
        0,
        0,
        0,
        0,
        0,
        0,
        0,
        0,
        0,
        0,
        0,
        0,
        0,
        0,
        0,
        0,
        0,
        0,
        0,
        0,
        0,
        0,
        0,
        0,
        0,
        0,
        0,
        0,
        0,
        0,
        0,
        0,
        0,
        0,
        0,
        0,
        0,
        0,
        0,
        0,
        0,
        0,
        0,
        0,
        0,
        0,
        0,
        0,
        0,
        0,
        0,
        0,
        0,
        0,
        0,
        0,
        0,
        0,
        0,
        0,
        0,
        0,
        0,
        0,
        0,
        0,
        0,
        0,
        0,
        0,
        0,
        0,
        0,
        0,
        0,
        0,
        0,
        0,
        0,
        0,
        0,
        0,
        0,
        0,
        0,
        0,
        0,
        0,
        0,
        0,
        0,
        0,
        0,
        0,
        0,
        0,
        0,
        0,
        0,
        0,
        0,
        0,
        0,
        0,
        0,
        0,
        0,
        0,
        0,
        0,
        0,
        0,
        0,
        0,
        0,
        0,
        0,
        0,
        0,
        0,
        0,
        0,
        0,
        0,
        0,
        0,
        0,
        0,
        0,
        0,
        0,
        0,
        0,
        0,
        0,
        0,
        0,
        0,
        0,
        0,
        0,
        0,
        0,
        0,
        0,
        0,
        0,
        0,
        0,
        0,
        0,
        0,
        0,
        0,
        0,
        0,
        0,
        0,
        0,
        0,
        0,
        0,
        0,
        0,
        0,
        0,
        0,
        0,
        0,
        0,
        0,
        0,
        0,
        0,
        0,
        0,
        0,
        0,
        0,
        0,
        0,
        0,
        0,
        0,
        0,
        0,
        0,
        0,
        0,
        0,
        0,
        0,
        0,
        0,
        0,
        0,
        0,
        0,
        0,
        0,
        0,
        0,
        0,
        0,
        0,
        0,
        0,
        0,
        0,
        0,
        0,
        0,
        0,
        0,
        0,
        0,
        0,
        0,
        0,
        0,
        0,
        0,
        0,
        0,
        0,
        0,
        0,
        0,
        0,
        0,
        0,
        0,
        0,
        0,
        0,
        0,
        0,
        0,
        0,
        0,
        0,
        0,
        0,
        0,
        0,
        0,
        0,
        0,
        0,
        0,
        0,
        0,
        0,
        0,
        0,
        0,
        0,
        0,
        0,
        0,
        0,
        0,
        0,
        0,
        0,
        0,
        0,
        0,
        0,
        0,
        0,
        0,
        0,
        0,
        0,
        0,
        0,
        0,
        0,
        0,
        0,
        0,
        0,
        0,
        0,
        0,
        0,
        0,
        0,
        0,
        0,
        0,
        0,
        0,
        0,
        0,
        0,
        0,
        0,
        0,
        0,
        0,
        0,
        0,
        0,
        0,
        0,
        0,
        0,
        0,
        0,
        0,
        0,
        0,
        0,
        0,
        0,
        0,
        0,
        0,
        0,
        0,
        0,
        0,
        0,
        0,
        0,
        0,
        0,
        0,
        0,
        0,
        0,
        0,
        0,
        0,
        0,
        0,
        0,
        0,
        0,
        0,
        0,
        0,
        0,
        0,
        0,
        0,
        0,
        0,
        0,
        0,
        0,
        0,
        0,
        0,
        0,
        0,
        0,
        0,
        0,
        0,
        0,
        0,
        0,
        0,
        0,
        0,
        0,
        0,
        0,
        0,
        0,
        0,
        0,
        0,
        0,
        0,
        0,
        0,
        0,
        0,
        0,
        0,
        0,
        0,
        0,
        0,
        0,
        0,
        0,
        0,
        0,
        0,
        0,
        0,
        0,
        0,
        0,
        51,
        52,
        49,
        50,
        51,
        52,
        49,
        50,
        0,
        0,
        0,
        0,
        0,
        0,
        0,
        0,
        0,
        0,
        0,
        0,
        0,
        0,
        0,
        0,
        0,
        0,
        0,
        0,
        0,
        0,
        0,
        0,
        0,
        0,
        49,
        50,
        51,
        52,
        49,
        50,
        51,
        52,
        0,
        0,
        0,
        0,
        0,
        0,
        0,
        0,
        0,
        0,
        0,
        0,
        0,
        0,
        0,
        0,
        0,
        0,
        0,
        0,
        0,
        0,
        0,
        0,
        0,
        0,
        51,
        52,
        49,
        50,
        51,
        52,
        49,
        50,
        0,
        0,
        0,
        0,
        0,
        0,
        0,
        0,
        0,
        0,
        0,
        0,
        0,
        0,
        0,
        0,
        0,
        0,
        0,
        0,
        0,
        0,
        0,
        0,
        0,
        0,
        0,
        0,
        0,
        0,
        0,
        0,
        0,
        0,
        0,
        0,
        0,
        0,
        0,
        0,
        0,
        0,
        0,
        0,
        0,
        0,
        0,
        0,
        0,
        0,
        0,
        0,
        0,
        0,
        0,
        0,
        0,
        0,
        0,
        0,
        0,
        0,
        0,
        0,
        0,
        0,
        0,
        0,
        0,
        0,
        0,
        0,
        0,
        0,
        0,
        0,
        0,
        0,
        0,
        0,
        0,
        0,
        0,
        0,
        56,
        53,
        54,
        55,
        56,
        53,
        54,
        55,
        0,
        0,
        0,
        0,
        0,
        0,
        0,
        0,
        0,
        0,
        0,
        0,
        0,
        0,
        0,
        0,
        0,
        0,
        0,
        0,
        0,
        0,
        0,
        0,
        0,
        0,
        54,
        55,
        56,
        53,
        54,
        55,
        56,
        53,
        0,
        0,
        0,
        0,
        0,
        0,
        0,
        0,
        0,
        0,
        0,
        0,
        0,
        0,
        0,
        0,
        0,
        0,
        0,
        0,
        0,
        0,
        0,
        0,
        0,
        0,
        56,
        53,
        54,
        55,
        56,
        53,
        54,
        55,
        0,
        0,
        0,
        0,
        0,
        0,
        0,
        0,
        0,
        0,
        0,
        0,
        0,
        0,
        0,
        0,
        0,
        0,
        0,
        0,
        0,
        0,
        0,
        0,
        0,
        0,
        0,
        0,
        0,
        0,
        0,
        0,
        0,
        0,
        0,
        0,
        0,
        0,
        0,
        0,
        0,
        0,
        0,
        0,
        0,
        0,
        0,
        0,
        0,
        0,
        0,
        0,
        0,
        0,
        0,
        0,
        0,
        0,
        0,
        0,
        0,
        0,
        0,
        0,
        0,
        0,
        0,
        0,
        0,
        0,
        0,
        0,
        0,
        0,
        0,
        0,
        51,
        52,
        49,
        50,
        51,
        52,
        49,
        50,
        53,
        54,
        55,
        56,
        53,
        54,
        55,
        56,
        51,
        52,
        49,
        50,
        51,
        52,
        49,
        50,
        0,
        0,
        0,
        0,
        0,
        0,
        0,
        0,
        0,
        0,
        49,
        50,
        51,
        52,
        49,
        50,
        51,
        52,
        55,
        56,
        53,
        54,
        55,
        56,
        53,
        54,
        49,
        50,
        51,
        52,
        49,
        50,
        51,
        52,
        0,
        0,
        0,
        0,
        0,
        0,
        0,
        0,
        0,
        0,
        51,
        52,
        49,
        50,
        51,
        52,
        49,
        50,
        53,
        54,
        55,
        56,
        53,
        54,
        55,
        56,
        51,
        52,
        49,
        50,
        51,
        52,
        49,
        50,
        0,
        0,
        0,
        0,
        0,
        0,
        0,
        0,
        0,
        0,
        0,
        0,
        0,
        0,
        0,
        0,
        0,
        0,
        0,
        0,
        0,
        0,
        0,
        0,
        0,
        0,
        0,
        0,
        0,
        0,
        0,
        0,
        0,
        0,
        0,
        0,
        0,
        0,
        0,
        0,
        0,
        0,
        0,
        0,
        0,
        0,
        0,
        0,
        0,
        0,
        0,
        0,
        0,
        0,
        0,
        0,
        0,
        0,
        0,
        0,
        0,
        0,
        0,
        0,
        0,
        0,
        0,
        0,
        54,
        55,
        56,
        53,
        54,
        55,
        56,
        53,
        54,
        55,
        56,
        53,
        54,
        55,
        56,
        53,
        54,
        55,
        56,
        53,
        54,
        55,
        56,
        53,
        0,
        0,
        0,
        0,
        0,
        0,
        0,
        0,
        0,
        0,
        56,
        53,
        54,
        55,
        56,
        53,
        54,
        55,
        56,
        53,
        54,
        55,
        56,
        53,
        54,
        55,
        56,
        53,
        54,
        55,
        56,
        53,
        54,
        55,
        0,
        0,
        0,
        0,
        0,
        0,
        0,
        0,
        0,
        0,
        54,
        55,
        56,
        53,
        54,
        55,
        56,
        53,
        54,
        55,
        56,
        53,
        54,
        55,
        56,
        53,
        54,
        55,
        56,
        53,
        54,
        55,
        56,
        53,
        0,
        0,
        0,
        0,
        0,
        0,
        0,
        0,
        0,
        0,
        0,
        0,
        0,
        0,
        49,
        50,
        51,
        52,
        49,
        50,
        51,
        52,
        49,
        50,
        51,
        52,
        49,
        50,
        51,
        52,
        49,
        50,
        51,
        52,
        49,
        50,
        51,
        52,
        0,
        0,
        0,
        0,
        0,
        0,
        51,
        52,
        49,
        50,
        51,
        52,
        49,
        50,
        0,
        0,
        0,
        0,
        0,
        0,
        49,
        50,
        51,
        52,
        49,
        50,
        51,
        52,
        49,
        50,
        55,
        56,
        53,
        54,
        55,
        56,
        53,
        54,
        55,
        56,
        53,
        54,
        55,
        56,
        53,
        54,
        55,
        56,
        53,
        54,
        55,
        56,
        53,
        54,
        51,
        52,
        49,
        50,
        51,
        52,
        49,
        50,
        51,
        52,
        53,
        54,
        55,
        56,
        53,
        54,
        55,
        56,
        53,
        54,
        55,
        56,
        53,
        54,
        55,
        56,
        53,
        54,
        55,
        56,
        53,
        54,
        55,
        56,
        49,
        50,
        51,
        52,
        49,
        50,
        51,
        52,
        49,
        50,
        55,
        56,
        53,
        54,
        55,
        56,
        53,
        54,
        55,
        56,
        53,
        54,
        55,
        56,
        53,
        54,
        55,
        56,
        53,
        54,
        55,
        56,
        53,
        54,
        51,
        52,
        49,
        50,
        51,
        52,
        49,
        50,
        51,
        52,
        49,
        50,
        51,
        52,
        54,
        55,
        56,
        53,
        54,
        55,
        56,
        53,
        54,
        55,
        56,
        53,
        54,
        55,
        56,
        53,
        54,
        55,
        56,
        53,
        54,
        55,
        56,
        53,
        0,
        0,
        0,
        0,
        0,
        0,
        56,
        53,
        54,
        55,
        56,
        53,
        54,
        55,
        0,
        0,
        0,
        0,
        0,
        0,
        54,
        55,
        56,
        53,
        54,
        55,
        56,
        53,
        54,
        55,
        56,
        53,
        54,
        55,
        56,
        53,
        54,
        55,
        56,
        53,
        54,
        55,
        56,
        53,
        54,
        55,
        56,
        53,
        54,
        55,
        56,
        53,
        54,
        55,
        56,
        53,
        54,
        55,
        56,
        53,
        54,
        55,
        56,
        53,
        54,
        55,
        56,
        53,
        54,
        55,
        56,
        53,
        54,
        55,
        56,
        53,
        54,
        55,
        56,
        53,
        54,
        55,
        56,
        53,
        54,
        55,
        56,
        53,
        54,
        55,
        56,
        53,
        54,
        55,
        56,
        53,
        54,
        55,
        56,
        53,
        54,
        55,
        56,
        53,
        54,
        55,
        56,
        53,
        54,
        55,
        56,
        53,
        54,
        55,
        56,
        53,
        54,
        55,
        56,
        53,
        54,
        55,
        56,
        53,
        54,
        55,
        56,
        53,
        54,
        55,
        56,
        53,
        54,
        55,
        56,
        53,
        55,
        56,
        53,
        54,
        55,
        56,
        53,
        54,
        55,
        56,
        53,
        54,
        55,
        56,
        53,
        54,
        55,
        56,
        53,
        54,
        55,
        56,
        53,
        54,
        49,
        50,
        51,
        52,
        49,
        50,
        53,
        54,
        55,
        56,
        53,
        54,
        55,
        56,
        51,
        52,
        49,
        50,
        51,
        52,
        55,
        56,
        53,
        54,
        55,
        56,
        53,
        54,
        55,
        56,
        53,
        54,
        55,
        56,
        53,
        54,
        55,
        56,
        53,
        54,
        55,
        56,
        53,
        54,
        55,
        56,
        53,
        54,
        55,
        56,
        53,
        54,
        55,
        56,
        53,
        54,
        55,
        56,
        53,
        54,
        55,
        56,
        53,
        54,
        55,
        56,
        53,
        54,
        55,
        56,
        53,
        54,
        55,
        56,
        53,
        54,
        55,
        56,
        53,
        54,
        55,
        56,
        53,
        54,
        55,
        56,
        53,
        54,
        55,
        56,
        53,
        54,
        55,
        56,
        53,
        54,
        55,
        56,
        53,
        54,
        55,
        56,
        53,
        54,
        55,
        56,
        53,
        54,
        55,
        56,
        53,
        54,
        55,
        56,
        53,
        54,
        55,
        56,
        53,
        54,
        55,
        56,
        53,
        54,
        55,
        56,
        53,
        54,
        55,
        56,
        53,
        54,
        55,
        56,
        53,
        54,
        56,
        53,
        54,
        55,
        56,
        53,
        54,
        55,
        56,
        53,
        54,
        55,
        56,
        53,
        54,
        55,
        56,
        53,
        54,
        55,
        56,
        53,
        54,
        55,
        56,
        53,
        54,
        55,
        56,
        53,
        54,
        55,
        56,
        53,
        54,
        55,
        56,
        53,
        54,
        55,
        56,
        53,
        54,
        55,
        56,
        53,
        54,
        55,
        56,
        53,
        54,
        55,
        56,
        53,
        54,
        55,
        56,
        53,
        54,
        55,
        56,
        53,
        54,
        55,
        56,
        53,
        54,
        55,
        56,
        53,
        54,
        55,
        56,
        53,
        54,
        55,
        56,
        53,
        54,
        55,
        56,
        53,
        54,
        55,
        56,
        53,
        54,
        55,
        56,
        53,
        54,
        55,
        56,
        53,
        54,
        55,
        56,
        53,
        54,
        55,
        56,
        53,
        54,
        55,
        56,
        53,
        54,
        55,
        56,
        53,
        54,
        55,
        56,
        53,
        54,
        55,
        56,
        53,
        54,
        55,
        56,
        53,
        54,
        55,
        56,
        53,
        54,
        55,
        56,
        53,
        54,
        55,
        56,
        53,
        54,
        55,
        56,
        53,
        54,
        55,
        56,
        53,
        54,
        55,
        56,
        53,
        54,
        55,
        56,
        53,
        54,
        55,
        56,
        53,
        54,
        55,
        56,
        53,
        54,
        55
      ]
    },
    {
      "id": 3,
      "name": "Platforms",
      "type": "tilelayer",
      "width": 160,
      "height": 16,
      "x": 0,
      "y": 0,
      "visible": false,
      "opacity": 1,
      "data": [
        0,
        0,
        0,
        0,
        0,
        0,
        0,
        0,
        0,
        0,
        0,
        0,
        0,
        0,
        0,
        0,
        0,
        0,
        0,
        0,
        0,
        0,
        0,
        0,
        0,
        0,
        0,
        0,
        0,
        0,
        0,
        0,
        0,
        0,
        0,
        0,
        0,
        0,
        0,
        0,
        0,
        0,
        0,
        0,
        0,
        0,
        0,
        0,
        0,
        0,
        0,
        0,
        0,
        0,
        0,
        0,
        0,
        0,
        0,
        0,
        0,
        0,
        0,
        0,
        0,
        0,
        0,
        0,
        0,
        0,
        0,
        0,
        0,
        0,
        0,
        0,
        0,
        0,
        0,
        0,
        0,
        0,
        0,
        0,
        0,
        0,
        0,
        0,
        0,
        0,
        0,
        0,
        0,
        0,
        0,
        0,
        0,
        0,
        0,
        0,
        0,
        0,
        0,
        0,
        0,
        0,
        0,
        0,
        0,
        0,
        0,
        0,
        0,
        0,
        0,
        0,
        0,
        0,
        0,
        0,
        0,
        0,
        0,
        0,
        0,
        0,
        0,
        0,
        0,
        0,
        0,
        0,
        0,
        0,
        0,
        0,
        0,
        0,
        0,
        0,
        0,
        0,
        0,
        0,
        0,
        0,
        0,
        0,
        0,
        0,
        0,
        0,
        0,
        0,
        0,
        0,
        0,
        0,
        0,
        0,
        0,
        0,
        0,
        0,
        0,
        0,
        0,
        0,
        0,
        0,
        0,
        0,
        0,
        0,
        0,
        0,
        0,
        0,
        0,
        0,
        0,
        0,
        0,
        0,
        0,
        0,
        0,
        0,
        0,
        0,
        0,
        0,
        0,
        0,
        0,
        0,
        0,
        0,
        0,
        0,
        0,
        0,
        0,
        0,
        0,
        0,
        0,
        0,
        0,
        0,
        0,
        0,
        0,
        0,
        0,
        0,
        0,
        0,
        0,
        0,
        0,
        0,
        0,
        0,
        0,
        0,
        0,
        0,
        0,
        0,
        0,
        0,
        0,
        0,
        0,
        0,
        0,
        0,
        0,
        0,
        0,
        0,
        0,
        0,
        0,
        0,
        0,
        0,
        0,
        0,
        0,
        0,
        0,
        0,
        0,
        0,
        0,
        0,
        0,
        0,
        0,
        0,
        0,
        0,
        0,
        0,
        0,
        0,
        0,
        0,
        0,
        0,
        0,
        0,
        0,
        0,
        0,
        0,
        0,
        0,
        0,
        0,
        0,
        0,
        0,
        0,
        0,
        0,
        0,
        0,
        0,
        0,
        0,
        0,
        0,
        0,
        0,
        0,
        0,
        0,
        0,
        0,
        0,
        0,
        0,
        0,
        0,
        0,
        0,
        0,
        0,
        0,
        0,
        0,
        0,
        0,
        0,
        0,
        0,
        0,
        0,
        0,
        0,
        0,
        0,
        0,
        0,
        0,
        0,
        0,
        0,
        0,
        0,
        0,
        0,
        0,
        0,
        0,
        0,
        0,
        0,
        0,
        0,
        0,
        0,
        0,
        0,
        0,
        0,
        0,
        0,
        0,
        0,
        0,
        0,
        0,
        0,
        0,
        0,
        0,
        0,
        0,
        0,
        0,
        0,
        0,
        0,
        0,
        0,
        0,
        0,
        0,
        0,
        0,
        0,
        0,
        0,
        0,
        0,
        0,
        0,
        0,
        0,
        0,
        0,
        0,
        0,
        0,
        0,
        0,
        0,
        0,
        0,
        0,
        0,
        0,
        0,
        0,
        0,
        0,
        0,
        0,
        0,
        0,
        0,
        0,
        0,
        0,
        0,
        0,
        0,
        0,
        0,
        0,
        0,
        0,
        0,
        0,
        0,
        0,
        0,
        0,
        0,
        0,
        0,
        0,
        0,
        0,
        0,
        0,
        0,
        0,
        0,
        0,
        0,
        0,
        0,
        0,
        0,
        0,
        0,
        0,
        0,
        0,
        0,
        0,
        0,
        0,
        0,
        0,
        0,
        0,
        0,
        0,
        0,
        0,
        0,
        0,
        0,
        0,
        0,
        0,
        0,
        0,
        0,
        0,
        0,
        0,
        0,
        0,
        0,
        0,
        0,
        0,
        0,
        0,
        0,
        0,
        0,
        0,
        0,
        0,
        0,
        0,
        0,
        0,
        0,
        0,
        0,
        0,
        0,
        0,
        0,
        0,
        0,
        0,
        0,
        0,
        0,
        0,
        0,
        0,
        0,
        0,
        0,
        0,
        0,
        0,
        0,
        0,
        0,
        0,
        0,
        0,
        0,
        0,
        0,
        0,
        0,
        0,
        0,
        0,
        0,
        0,
        0,
        0,
        0,
        0,
        0,
        0,
        0,
        0,
        0,
        0,
        0,
        0,
        0,
        0,
        0,
        0,
        0,
        0,
        0,
        0,
        0,
        0,
        0,
        0,
        0,
        0,
        0,
        0,
        0,
        0,
        0,
        0,
        0,
        0,
        0,
        0,
        0,
        0,
        0,
        0,
        0,
        0,
        0,
        0,
        0,
        0,
        0,
        0,
        0,
        0,
        0,
        0,
        0,
        0,
        0,
        0,
        0,
        0,
        0,
        0,
        0,
        0,
        0,
        0,
        0,
        0,
        0,
        0,
        0,
        0,
        0,
        0,
        0,
        0,
        0,
        0,
        0,
        0,
        0,
        0,
        0,
        0,
        0,
        0,
        0,
        0,
        0,
        0,
        0,
        0,
        0,
        0,
        0,
        0,
        0,
        0,
        0,
        0,
        0,
        0,
        0,
        0,
        0,
        0,
        0,
        0,
        0,
        0,
        0,
        0,
        0,
        0,
        0,
        0,
        0,
        0,
        0,
        0,
        0,
        0,
        0,
        0,
        0,
        0,
        0,
        0,
        0,
        0,
        0,
        0,
        0,
        0,
        0,
        0,
        0,
        0,
        0,
        0,
        0,
        0,
        0,
        0,
        0,
        0,
        0,
        0,
        0,
        0,
        0,
        0,
        0,
        0,
        0,
        0,
        0,
        0,
        0,
        0,
        0,
        0,
        0,
        0,
        0,
        0,
        0,
        0,
        0,
        0,
        0,
        0,
        0,
        0,
        0,
        0,
        0,
        0,
        0,
        0,
        0,
        0,
        0,
        0,
        0,
        0,
        0,
        0,
        0,
        0,
        0,
        0,
        0,
        0,
        0,
        0,
        0,
        0,
        0,
        0,
        0,
        0,
        0,
        0,
        0,
        0,
        0,
        0,
        0,
        0,
        0,
        0,
        0,
        0,
        0,
        0,
        0,
        0,
        0,
        0,
        0,
        0,
        0,
        0,
        0,
        0,
        0,
        0,
        0,
        0,
        0,
        0,
        0,
        0,
        0,
        0,
        0,
        0,
        0,
        0,
        0,
        0,
        0,
        0,
        0,
        0,
        0,
        0,
        0,
        0,
        0,
        0,
        0,
        0,
        0,
        0,
        0,
        0,
        0,
        0,
        0,
        0,
        0,
        0,
        0,
        0,
        0,
        0,
        0,
        0,
        0,
        0,
        0,
        0,
        0,
        0,
        0,
        0,
        0,
        0,
        0,
        0,
        0,
        0,
        0,
        0,
        0,
        0,
        0,
        0,
        0,
        0,
        0,
        0,
        0,
        0,
        0,
        0,
        0,
        0,
        0,
        0,
        0,
        0,
        0,
        0,
        0,
        0,
        0,
        0,
        0,
        0,
        0,
        0,
        0,
        0,
        0,
        0,
        0,
        0,
        0,
        0,
        0,
        0,
        0,
        0,
        0,
        0,
        0,
        0,
        0,
        0,
        0,
        0,
        0,
        0,
        0,
        0,
        0,
        0,
        0,
        0,
        0,
        0,
        0,
        0,
        0,
        0,
        0,
        0,
        0,
        0,
        0,
        0,
        0,
        0,
        0,
        0,
        0,
        0,
        0,
        0,
        0,
        0,
        0,
        0,
        0,
        0,
        0,
        0,
        0,
        0,
        0,
        0,
        0,
        0,
        0,
        0,
        0,
        0,
        0,
        0,
        0,
        0,
        0,
        0,
        0,
        0,
        0,
        0,
        0,
        0,
        0,
        0,
        0,
        0,
        0,
        0,
        0,
        0,
        0,
        0,
        0,
        0,
        0,
        0,
        0,
        0,
        0,
        0,
        0,
        0,
        0,
        0,
        0,
        0,
        0,
        0,
        0,
        0,
        0,
        0,
        0,
        0,
        0,
        0,
        0,
        0,
        0,
        0,
        0,
        0,
        0,
        0,
        0,
        0,
        0,
        0,
        0,
        0,
        0,
        0,
        0,
        0,
        0,
        0,
        0,
        0,
        0,
        0,
        0,
        0,
        0,
        0,
        0,
        0,
        0,
        0,
        0,
        0,
        0,
        0,
        0,
        0,
        0,
        0,
        0,
        0,
        0,
        0,
        0,
        0,
        0,
        0,
        0,
        0,
        0,
        0,
        0,
        0,
        0,
        0,
        0,
        0,
        0,
        0,
        0,
        0,
        0,
        0,
        0,
        0,
        0,
        0,
        0,
        0,
        0,
        0,
        0,
        0,
        0,
        0,
        0,
        0,
        0,
        0,
        0,
        0,
        0,
        0,
        0,
        0,
        0,
        0,
        0,
        0,
        0,
        0,
        0,
        0,
        0,
        0,
        0,
        0,
        0,
        0,
        0,
        0,
        0,
        0,
        0,
        0,
        0,
        0,
        0,
        0,
        0,
        0,
        0,
        0,
        0,
        0,
        0,
        0,
        0,
        0,
        0,
        0,
        0,
        0,
        0,
        0,
        0,
        0,
        0,
        0,
        0,
        0,
        0,
        0,
        0,
        0,
        0,
        0,
        0,
        0,
        0,
        0,
        0,
        0,
        0,
        0,
        0,
        0,
        0,
        0,
        0,
        0,
        0,
        0,
        0,
        0,
        0,
        0,
        0,
        0,
        0,
        0,
        0,
        0,
        0,
        0,
        0,
        0,
        0,
        0,
        0,
        0,
        0,
        0,
        0,
        0,
        0,
        0,
        0,
        0,
        0,
        0,
        0,
        0,
        0,
        0,
        0,
        0,
        0,
        0,
        0,
        0,
        0,
        0,
        0,
        0,
        0,
        0,
        0,
        0,
        0,
        0,
        0,
        0,
        0,
        0,
        0,
        0,
        0,
        0,
        0,
        0,
        0,
        0,
        0,
        0,
        0,
        0,
        0,
        0,
        0,
        0,
        0,
        0,
        0,
        0,
        0,
        0,
        0,
        0,
        0,
        0,
        0,
        0,
        0,
        0,
        0,
        0,
        0,
        0,
        0,
        0,
        0,
        0,
        0,
        0,
        0,
        0,
        0,
        0,
        0,
        0,
        0,
        0,
        0,
        0,
        0,
        0,
        0,
        0,
        0,
        0,
        0,
        0,
        0,
        0,
        0,
        0,
        0,
        0,
        0,
        0,
        0,
        0,
        0,
        0,
        0,
        0,
        0,
        0,
        0,
        0,
        0,
        0,
        0,
        0,
        0,
        0,
        0,
        0,
        0,
        0,
        0,
        0,
        0,
        0,
        0,
        0,
        0,
        0,
        0,
        0,
        0,
        0,
        0,
        0,
        0,
        0,
        0,
        0,
        0,
        0,
        0,
        0,
        0,
        0,
        0,
        0,
        0,
        0,
        0,
        0,
        0,
        0,
        0,
        0,
        0,
        0,
        0,
        0,
        0,
        0,
        0,
        0,
        0,
        0,
        0,
        0,
        0,
        0,
        0,
        0,
        0,
        0,
        0,
        0,
        0,
        0,
        0,
        0,
        0,
        0,
        0,
        0,
        0,
        0,
        0,
        0,
        0,
        0,
        0,
        0,
        0,
        0,
        0,
        0,
        0,
        0,
        0,
        0,
        0,
        0,
        0,
        0,
        0,
        0,
        0,
        0,
        0,
        0,
        0,
        0,
        0,
        0,
        0,
        0,
        0,
        0,
        0,
        0,
        0,
        0,
        0,
        0,
        0,
        0,
        0,
        0,
        0,
        0,
        0,
        0,
        0,
        0,
        0,
        0,
        0,
        0,
        0,
        0,
        0,
        0,
        0,
        0,
        0,
        0,
        0,
        0,
        0,
        0,
        0,
        0,
        0,
        0,
        0,
        0,
        0,
        0,
        0,
        0,
        0,
        0,
        0,
        0,
        0,
        0,
        0,
        0,
        0,
        0,
        0,
        0,
        0,
        0,
        0,
        0,
        0,
        0,
        0,
        0,
        0,
        0,
        0,
        0,
        0,
        0,
        0,
        0,
        0,
        0,
        0,
        0,
        0,
        0,
        0,
        0,
        0,
        0,
        0,
        0,
        0,
        0,
        0,
        0,
        0,
        0,
        0,
        0,
        0,
        0,
        0,
        0,
        0,
        0,
        0,
        0,
        0,
        0,
        0,
        0,
        0,
        0,
        0,
        0,
        0,
        0,
        0,
        0,
        0,
        0,
        25,
        26,
        26,
        26,
        26,
        27,
        0,
        0,
        0,
        0,
        0,
        0,
        0,
        0,
        0,
        0,
        0,
        0,
        0,
        0,
        0,
        0,
        0,
        0,
        0,
        0,
        0,
        0,
        0,
        0,
        0,
        0,
        0,
        0,
        0,
        0,
        0,
        0,
        25,
        26,
        26,
        26,
        26,
        27,
        0,
        0,
        0,
        0,
        0,
        0,
        0,
        0,
        0,
        0,
        0,
        0,
        0,
        0,
        0,
        0,
        0,
        0,
        0,
        0,
        0,
        0,
        0,
        0,
        0,
        0,
        0,
        0,
        25,
        26,
        26,
        26,
        26,
        27,
        0,
        0,
        0,
        0,
        0,
        0,
        0,
        0,
        0,
        0,
        0,
        0,
        0,
        0,
        0,
        0,
        0,
        0,
        0,
        0,
        0,
        0,
        0,
        0,
        0,
        0,
        0,
        0,
        25,
        26,
        26,
        26,
        26,
        27,
        0,
        0,
        0,
        0,
        0,
        0,
        0,
        0,
        0,
        0,
        0,
        0,
        0,
        0,
        0,
        0,
        0,
        0,
        0,
        0,
        0,
        0,
        0,
        0,
        0,
        25,
        26,
        26,
        26,
        26,
        26,
        27,
        0,
        0,
        0,
        0,
        0,
        0,
        0,
        0,
        0,
        0,
        0,
        0,
        0,
        0,
        0,
        0,
        0,
        0,
        0,
        0,
        0,
        0,
        0,
        0,
        0,
        0,
        0,
        0,
        0,
        0,
        0,
        0,
        0,
        0,
        0,
        0,
        0,
        0,
        0,
        0,
        0,
        0,
        0,
        0,
        0,
        0,
        0,
        0,
        0,
        0,
        0,
        0,
        0,
        0,
        0,
        0,
        0,
        0,
        0,
        0,
        0,
        0,
        0,
        0,
        0,
        0,
        0,
        0,
        0,
        0,
        0,
        0,
        0,
        0,
        0,
        0,
        0,
        0,
        0,
        0,
        0,
        0,
        0,
        0,
        0,
        0,
        0,
        0,
        0,
        0,
        0,
        0,
        0,
        0,
        0,
        0,
        0,
        0,
        0,
        0,
        0,
        0,
        0,
        0,
        0,
        0,
        0,
        0,
        0,
        0,
        0,
        0,
        0,
        0,
        0,
        0,
        0,
        0,
        0,
        0,
        0,
        0,
        0,
        0,
        0,
        0,
        0,
        0,
        0,
        0,
        0,
        0,
        0,
        0,
        0,
        0,
        0,
        0,
        0,
        0,
        0,
        0,
        0,
        0,
        0,
        0,
        0,
        0,
        0,
        0,
        0,
        0,
        0,
        0,
        0,
        0,
        0,
        0,
        0,
        0,
        0,
        0,
        0,
        0,
        0,
        0,
        0,
        0,
        0,
        0,
        0,
        0,
        0,
        0,
        0,
        0,
        0,
        0,
        0,
        0,
        0,
        0,
        0,
        0,
        0,
        0,
        0,
        0,
        0,
        0,
        0,
        0,
        0,
        0,
        0,
        0,
        0,
        0,
        0,
        0,
        0,
        0,
        0,
        0,
        0,
        0,
        0,
        0,
        0,
        0,
        0,
        0,
        0,
        0,
        0,
        0,
        0,
        0,
        0,
        0,
        0,
        0,
        0,
        0,
        0,
        0,
        0,
        0,
        0,
        0,
        0,
        0,
        0,
        0,
        0,
        0,
        0,
        0,
        0,
        0,
        0,
        0,
        0,
        0,
        0,
        0,
        0,
        0,
        0,
        0,
        0,
        0,
        0,
        0,
        0,
        0,
        0,
        0,
        0,
        0,
        0,
        0,
        0,
        0,
        0,
        0,
        0,
        0,
        0,
        0,
        0,
        0,
        0,
        0,
        0,
        0,
        0,
        0,
        0,
        0,
        0,
        0,
        0,
        0,
        0,
        0,
        0,
        0,
        0,
        0,
        0,
        0,
        0,
        0,
        0,
        0,
        0,
        0,
        0,
        0,
        0,
        0,
        0,
        0,
        0,
        0,
        0,
        0,
        0,
        0,
        0,
        0,
        0,
        0,
        0,
        0,
        0,
        0,
        0,
        0,
        0,
        0,
        0,
        0,
        0,
        0,
        0,
        0,
        0,
        0,
        0,
        0,
        0,
        0,
        0,
        0,
        0,
        0,
        0,
        0,
        0,
        0,
        0,
        0,
        0,
        0,
        0,
        0,
        0,
        0,
        0,
        0,
        26,
        26,
        26,
        26,
        26,
        26,
        0,
        0,
        0,
        0,
        0,
        0,
        0,
        0,
        26,
        26,
        26,
        26,
        26,
        26,
        0,
        0,
        0,
        0,
        0,
        0,
        0,
        0,
        0,
        0,
        0,
        0,
        0,
        0,
        0,
        0,
        0,
        0,
        0,
        0,
        0,
        0,
        0,
        0,
        0,
        0,
        0,
        0,
        0,
        0,
        0,
        0,
        0,
        0,
        0,
        0,
        0,
        0,
        0,
        0,
        0,
        0,
        0,
        0,
        0,
        0,
        0,
        0,
        0,
        0,
        0,
        0,
        0,
        0,
        0,
        0,
        0,
        0,
        0,
        0,
        0,
        0,
        0,
        0,
        0,
        0,
        0,
        0,
        0,
        0,
        0,
        0,
        0,
        0,
        0,
        0,
        0,
        0,
        0,
        0,
        0,
        0,
        0,
        0,
        0,
        0,
        0,
        0,
        0,
        0,
        0,
        0,
        0,
        0,
        0,
        0,
        0,
        0,
        0,
        0,
        0,
        0,
        0,
        0,
        0,
        0,
        0,
        0,
        0,
        0,
        0,
        0,
        0,
        0,
        0,
        0,
        0,
        0,
        0,
        0,
        0,
        0,
        0,
        0,
        0,
        0,
        0,
        0,
        0,
        0,
        0,
        0,
        0,
        0,
        0,
        0,
        0,
        0,
        0,
        0,
        0,
        0,
        0,
        0,
        0,
        0,
        0,
        0,
        0,
        0,
        0,
        0,
        0,
        0,
        0,
        0,
        0,
        0,
        0,
        0,
        0,
        0,
        0,
        0,
        0,
        0,
        0,
        0,
        0,
        0,
        0,
        0,
        0,
        0,
        0,
        0,
        0,
        0,
        0,
        0,
        0,
        0,
        0,
        0,
        0,
        0,
        0,
        0,
        0,
        0,
        0,
        0,
        0,
        0,
        0,
        0,
        0,
        0,
        0,
        0,
        0,
        0,
        0,
        0,
        0,
        0,
        0,
        0,
        0,
        0,
        0,
        0,
        0,
        0,
        0,
        0,
        0,
        0,
        0,
        0,
        0,
        0,
        0,
        0,
        0,
        0,
        0,
        0,
        0,
        0,
        0,
        0,
        0,
        0,
        0,
        0,
        0,
        0,
        0,
        0,
        0,
        0,
        0,
        0,
        0,
        0,
        0,
        0,
        0,
        0,
        0,
        0,
        0,
        0,
        0,
        0,
        0,
        0,
        0,
        0,
        0,
        0,
        0,
        0,
        0,
        0,
        0,
        0,
        0,
        0,
        0,
        0,
        0,
        0,
        0,
        0,
        0,
        0,
        0,
        0,
        0,
        0,
        0,
        0,
        0,
        0,
        0,
        0,
        0,
        0,
        0,
        0,
        0,
        0,
        0,
        0,
        0,
        0,
        0,
        0,
        0,
        0,
        0,
        0,
        0,
        0,
        0,
        0,
        0,
        0,
        0,
        0,
        0,
        0,
        0,
        0,
        0,
        0,
        0,
        0,
        0,
        0,
        0,
        0,
        0,
        0,
        0,
        0,
        0,
        0,
        0,
        0,
        0,
        0,
        0,
        0,
        0,
        0,
        0,
        0,
        0,
        0,
        0,
        0,
        0,
        0,
        0,
        0,
        0,
        0,
        0,
        0,
        0,
        0,
        0,
        0,
        0,
        0,
        0,
        0,
        0,
        0,
        0,
        0,
        0,
        0,
        0,
        0,
        0,
        0,
        0,
        0,
        0,
        0,
        0,
        0,
        0,
        0,
        0,
        0,
        0,
        0,
        0,
        0,
        0,
        0,
        0,
        0,
        0,
        0,
        0,
        0,
        0,
        0,
        0,
        0,
        0,
        0,
        0,
        0,
        0,
        0,
        0,
        0,
        0,
        0,
        0,
        0,
        0,
        0,
        0,
        0,
        0,
        0,
        0,
        0,
        0,
        0,
        0,
        0,
        0,
        0,
        0,
        0,
        0,
        0,
        0,
        0,
        0,
        0,
        0,
        0,
        0,
        0,
        0,
        0,
        0,
        0,
        0,
        0,
        0,
        0,
        0,
        0,
        0,
        0,
        0,
        0,
        0,
        0,
        0,
        0,
        0,
        0,
        0,
        0,
        0,
        0,
        0,
        0,
        0,
        0,
        0,
        0,
        0,
        0,
        0,
        0,
        0,
        0,
        0,
        0,
        0,
        0,
        0,
        0,
        0,
        0,
        0,
        0,
        0,
        0,
        0,
        0,
        0,
        0,
        0,
        0,
        0,
        0,
        0,
        0,
        0,
        0,
        0,
        0,
        0,
        0,
        0,
        0,
        0,
        0,
        0,
        0,
        0,
        0,
        0,
        0,
        0,
        0,
        0,
        0,
        0,
        0,
        0,
        0,
        0,
        0,
        0,
        0,
        0,
        0,
        0,
        0,
        0,
        0,
        0,
        0,
        0,
        0,
        0,
        0,
        0,
        0,
        0,
        0,
        0,
        0,
        0,
        0,
        0,
        0,
        0,
        0,
        0,
        0,
        0,
        0,
        0,
        0,
        0,
        0,
        0,
        0,
        0,
        0,
        0,
        0,
        0,
        0,
        0,
        0,
        0,
        0,
        0,
        0,
        0,
        0,
        0,
        0,
        0,
        0,
        0,
        0,
        0,
        0,
        0,
        0,
        0,
        0,
        0,
        0,
        0,
        0,
        0,
        0,
        0,
        0,
        0,
        0,
        0,
        0,
        0,
        0,
        0,
        0
      ]
    },
    {
      "id": 4,
      "name": "Decorations",
      "type": "tilelayer",
      "width": 160,
      "height": 16,
      "x": 0,
      "y": 0,
      "visible": false,
      "opacity": 1,
      "data": [
        0,
        0,
        0,
        0,
        0,
        0,
        0,
        0,
        0,
        0,
        0,
        0,
        0,
        0,
        0,
        0,
        0,
        0,
        0,
        0,
        0,
        0,
        0,
        0,
        0,
        0,
        0,
        0,
        0,
        0,
        0,
        0,
        0,
        0,
        0,
        0,
        0,
        0,
        0,
        0,
        0,
        0,
        0,
        0,
        0,
        0,
        0,
        0,
        0,
        0,
        0,
        0,
        0,
        0,
        0,
        0,
        0,
        0,
        0,
        0,
        0,
        0,
        0,
        0,
        0,
        0,
        0,
        0,
        0,
        0,
        0,
        0,
        0,
        0,
        0,
        0,
        0,
        0,
        0,
        0,
        0,
        0,
        0,
        0,
        0,
        0,
        0,
        0,
        0,
        0,
        0,
        0,
        0,
        0,
        0,
        0,
        0,
        0,
        0,
        0,
        0,
        0,
        0,
        0,
        0,
        0,
        0,
        0,
        0,
        0,
        0,
        0,
        0,
        0,
        0,
        0,
        0,
        0,
        0,
        0,
        0,
        0,
        0,
        0,
        0,
        0,
        0,
        0,
        0,
        0,
        0,
        0,
        0,
        0,
        0,
        0,
        0,
        0,
        0,
        0,
        0,
        0,
        0,
        0,
        0,
        0,
        0,
        0,
        0,
        0,
        0,
        0,
        0,
        0,
        0,
        0,
        0,
        0,
        0,
        0,
        0,
        0,
        0,
        0,
        0,
        0,
        0,
        0,
        0,
        0,
        0,
        0,
        0,
        0,
        0,
        0,
        0,
        0,
        0,
        0,
        0,
        0,
        0,
        0,
        0,
        0,
        0,
        0,
        0,
        0,
        0,
        0,
        0,
        0,
        0,
        0,
        0,
        0,
        0,
        0,
        0,
        0,
        0,
        0,
        0,
        0,
        0,
        0,
        0,
        0,
        0,
        0,
        0,
        0,
        0,
        0,
        0,
        0,
        0,
        0,
        0,
        0,
        0,
        0,
        0,
        0,
        0,
        0,
        0,
        0,
        0,
        0,
        0,
        0,
        0,
        0,
        0,
        0,
        0,
        0,
        0,
        0,
        0,
        0,
        0,
        0,
        0,
        0,
        0,
        0,
        0,
        0,
        0,
        0,
        0,
        0,
        0,
        0,
        0,
        0,
        0,
        0,
        0,
        0,
        0,
        0,
        0,
        0,
        0,
        0,
        0,
        0,
        0,
        0,
        0,
        0,
        0,
        0,
        0,
        0,
        0,
        0,
        0,
        0,
        0,
        0,
        0,
        0,
        0,
        0,
        0,
        0,
        0,
        0,
        0,
        0,
        0,
        0,
        0,
        0,
        0,
        0,
        0,
        0,
        0,
        0,
        0,
        0,
        0,
        0,
        0,
        0,
        0,
        0,
        0,
        0,
        0,
        0,
        0,
        0,
        0,
        0,
        0,
        0,
        0,
        0,
        0,
        0,
        0,
        0,
        0,
        0,
        0,
        0,
        0,
        0,
        0,
        0,
        0,
        0,
        0,
        0,
        0,
        0,
        0,
        0,
        0,
        0,
        0,
        0,
        0,
        0,
        0,
        0,
        0,
        0,
        0,
        0,
        0,
        0,
        0,
        0,
        0,
        0,
        0,
        0,
        0,
        0,
        61,
        62,
        61,
        62,
        61,
        62,
        61,
        62,
        61,
        62,
        61,
        62,
        61,
        62,
        61,
        62,
        61,
        62,
        61,
        62,
        61,
        62,
        61,
        62,
        61,
        62,
        61,
        62,
        61,
        62,
        61,
        62,
        61,
        62,
        61,
        62,
        61,
        62,
        61,
        62,
        61,
        62,
        61,
        62,
        61,
        62,
        61,
        62,
        61,
        62,
        61,
        62,
        61,
        62,
        61,
        62,
        61,
        62,
        61,
        62,
        61,
        62,
        61,
        62,
        61,
        62,
        61,
        62,
        61,
        62,
        61,
        62,
        61,
        62,
        61,
        62,
        61,
        62,
        61,
        62,
        61,
        62,
        61,
        62,
        61,
        62,
        61,
        62,
        61,
        62,
        61,
        62,
        61,
        62,
        61,
        62,
        61,
        62,
        0,
        0,
        0,
        0,
        0,
        0,
        0,
        0,
        0,
        0,
        0,
        0,
        0,
        0,
        0,
        0,
        0,
        0,
        0,
        0,
        0,
        0,
        0,
        0,
        0,
        0,
        0,
        0,
        0,
        0,
        0,
        0,
        0,
        0,
        0,
        0,
        0,
        0,
        0,
        0,
        0,
        0,
        0,
        0,
        0,
        0,
        0,
        0,
        0,
        0,
        0,
        0,
        0,
        0,
        0,
        0,
        0,
        0,
        0,
        0,
        0,
        0,
        0,
        0,
        0,
        0,
        0,
        0,
        0,
        73,
        0,
        0,
        0,
        0,
        0,
        0,
        0,
        0,
        0,
        0,
        73,
        0,
        0,
        0,
        0,
        0,
        0,
        0,
        0,
        0,
        0,
        73,
        0,
        0,
        0,
        0,
        0,
        0,
        0,
        0,
        0,
        0,
        73,
        0,
        0,
        0,
        0,
        0,
        0,
        0,
        0,
        0,
        0,
        73,
        0,
        0,
        0,
        0,
        0,
        0,
        0,
        0,
        0,
        0,
        73,
        0,
        0,
        0,
        0,
        0,
        0,
        0,
        0,
        0,
        0,
        73,
        0,
        0,
        0,
        0,
        0,
        0,
        0,
        0,
        0,
        0,
        73,
        0,
        0,
        0,
        0,
        0,
        0,
        0,
        0,
        0,
        0,
        73,
        0,
        0,
        0,
        0,
        0,
        0,
        0,
        0,
        0,
        0,
        0,
        0,
        0,
        0,
        0,
        0,
        0,
        0,
        0,
        0,
        0,
        0,
        0,
        0,
        0,
        0,
        0,
        0,
        0,
        0,
        0,
        0,
        0,
        0,
        0,
        0,
        0,
        0,
        0,
        0,
        0,
        0,
        0,
        0,
        0,
        0,
        0,
        0,
        0,
        0,
        0,
        0,
        0,
        0,
        0,
        0,
        0,
        0,
        0,
        0,
        0,
        0,
        0,
        0,
        0,
        0,
        0,
        0,
        0,
        0,
        0,
        73,
        0,
        0,
        0,
        0,
        0,
        0,
        0,
        0,
        0,
        0,
        73,
        0,
        0,
        0,
        0,
        0,
        0,
        0,
        0,
        0,
        0,
        73,
        0,
        0,
        0,
        0,
        0,
        0,
        0,
        0,
        0,
        0,
        73,
        0,
        0,
        0,
        0,
        0,
        0,
        0,
        0,
        0,
        0,
        73,
        0,
        0,
        0,
        0,
        0,
        0,
        0,
        0,
        0,
        0,
        73,
        0,
        0,
        0,
        0,
        0,
        0,
        0,
        0,
        0,
        0,
        73,
        0,
        0,
        0,
        0,
        0,
        0,
        0,
        0,
        0,
        0,
        73,
        0,
        0,
        0,
        0,
        0,
        0,
        0,
        0,
        0,
        0,
        73,
        0,
        0,
        0,
        0,
        0,
        0,
        0,
        0,
        0,
        0,
        0,
        0,
        0,
        0,
        0,
        0,
        0,
        0,
        0,
        0,
        0,
        0,
        0,
        0,
        0,
        0,
        0,
        0,
        0,
        0,
        0,
        0,
        0,
        0,
        0,
        0,
        0,
        0,
        0,
        0,
        0,
        0,
        0,
        0,
        0,
        0,
        0,
        0,
        0,
        0,
        0,
        0,
        0,
        0,
        0,
        0,
        0,
        0,
        0,
        0,
        0,
        0,
        0,
        0,
        0,
        0,
        0,
        0,
        0,
        0,
        0,
        73,
        0,
        0,
        0,
        0,
        0,
        0,
        0,
        0,
        0,
        0,
        73,
        0,
        0,
        0,
        0,
        0,
        0,
        0,
        0,
        0,
        0,
        73,
        0,
        0,
        0,
        0,
        0,
        0,
        0,
        0,
        0,
        0,
        73,
        0,
        0,
        0,
        0,
        0,
        0,
        0,
        0,
        0,
        0,
        73,
        0,
        0,
        0,
        0,
        0,
        0,
        0,
        0,
        0,
        0,
        73,
        0,
        0,
        0,
        0,
        0,
        0,
        0,
        0,
        0,
        0,
        73,
        0,
        0,
        0,
        0,
        0,
        0,
        0,
        0,
        0,
        0,
        73,
        0,
        0,
        0,
        0,
        0,
        0,
        0,
        0,
        0,
        0,
        73,
        0,
        0,
        0,
        0,
        0,
        0,
        0,
        0,
        0,
        0,
        0,
        0,
        0,
        0,
        0,
        0,
        0,
        0,
        0,
        0,
        0,
        0,
        0,
        0,
        0,
        0,
        0,
        0,
        0,
        0,
        0,
        0,
        0,
        0,
        0,
        0,
        0,
        0,
        0,
        0,
        0,
        0,
        0,
        0,
        0,
        0,
        0,
        0,
        0,
        0,
        0,
        0,
        0,
        0,
        0,
        0,
        0,
        0,
        0,
        0,
        0,
        0,
        0,
        0,
        0,
        0,
        0,
        0,
        0,
        0,
        0,
        0,
        0,
        0,
        0,
        0,
        0,
        0,
        0,
        0,
        0,
        0,
        0,
        0,
        0,
        0,
        0,
        0,
        0,
        0,
        0,
        0,
        0,
        0,
        0,
        0,
        0,
        0,
        0,
        0,
        0,
        0,
        0,
        0,
        0,
        0,
        0,
        0,
        0,
        0,
        0,
        0,
        0,
        0,
        0,
        0,
        0,
        0,
        0,
        0,
        0,
        0,
        0,
        0,
        0,
        0,
        0,
        0,
        0,
        0,
        0,
        0,
        0,
        0,
        0,
        0,
        0,
        0,
        0,
        0,
        0,
        0,
        0,
        0,
        0,
        0,
        0,
        0,
        0,
        0,
        0,
        0,
        0,
        0,
        0,
        0,
        0,
        0,
        0,
        0,
        0,
        0,
        0,
        0,
        0,
        0,
        0,
        0,
        15,
        15,
        15,
        15,
        15,
        15,
        15,
        15,
        0,
        0,
        0,
        0,
        0,
        0,
        0,
        0,
        0,
        0,
        0,
        0,
        0,
        0,
        0,
        0,
        0,
        0,
        0,
        0,
        0,
        0,
        0,
        0,
        0,
        0,
        0,
        0,
        0,
        0,
        0,
        0,
        0,
        0,
        0,
        0,
        0,
        0,
        0,
        0,
        0,
        0,
        0,
        0,
        0,
        0,
        0,
        0,
        0,
        0,
        0,
        0,
        0,
        0,
        0,
        0,
        0,
        0,
        0,
        0,
        0,
        0,
        0,
        0,
        0,
        64,
        0,
        0,
        0,
        0,
        0,
        0,
        0,
        0,
        0,
        0,
        0,
        0,
        0,
        0,
        0,
        0,
        0,
        0,
        0,
        0,
        0,
        0,
        0,
        0,
        0,
        0,
        0,
        0,
        0,
        0,
        0,
        0,
        0,
        0,
        63,
        0,
        0,
        0,
        0,
        0,
        0,
        0,
        0,
        0,
        0,
        0,
        0,
        0,
        0,
        0,
        0,
        0,
        0,
        0,
        0,
        0,
        0,
        0,
        0,
        0,
        0,
        0,
        0,
        0,
        63,
        0,
        0,
        0,
        0,
        64,
        33,
        0,
        0,
        0,
        0,
        0,
        0,
        0,
        0,
        0,
        0,
        0,
        0,
        0,
        0,
        0,
        29,
        0,
        0,
        0,
        0,
        0,
        0,
        29,
        0,
        0,
        0,
        0,
        0,
        0,
        0,
        0,
        0,
        0,
        0,
        0,
        0,
        0,
        0,
        0,
        0,
        0,
        0,
        0,
        0,
        0,
        0,
        0,
        0,
        0,
        0,
        0,
        0,
        0,
        0,
        0,
        0,
        0,
        0,
        0,
        0,
        0,
        0,
        0,
        0,
        0,
        0,
        0,
        0,
        0,
        0,
        0,
        0,
        0,
        0,
        0,
        0,
        0,
        0,
        0,
        0,
        0,
        0,
        0,
        0,
        0,
        0,
        0,
        0,
        0,
        0,
        0,
        0,
        0,
        0,
        0,
        0,
        0,
        0,
        0,
        0,
        0,
        0,
        0,
        0,
        0,
        0,
        0,
        0,
        0,
        0,
        0,
        0,
        0,
        0,
        0,
        0,
        0,
        0,
        0,
        0,
        0,
        0,
        0,
        0,
        0,
        0,
        0,
        0,
        0,
        0,
        0,
        0,
        0,
        0,
        0,
        0,
        0,
        0,
        0,
        0,
        0,
        0,
        0,
        0,
        0,
        0,
        0,
        0,
        0,
        0,
        0,
        0,
        0,
        0,
        0,
        0,
        0,
        0,
        0,
        0,
        0,
        0,
        0,
        0,
        0,
        0,
        0,
        0,
        0,
        0,
        0,
        0,
        0,
        0,
        0,
        29,
        0,
        0,
        77,
        77,
        0,
        0,
        29,
        0,
        0,
        0,
        0,
        0,
        0,
        0,
        0,
        0,
        0,
        28,
        0,
        0,
        0,
        0,
        0,
        0,
        0,
        0,
        0,
        0,
        0,
        0,
        0,
        0,
        0,
        0,
        0,
        0,
        0,
        0,
        0,
        0,
        0,
        0,
        0,
        0,
        0,
        0,
        0,
        0,
        0,
        0,
        0,
        0,
        0,
        0,
        0,
        28,
        0,
        0,
        0,
        0,
        0,
        0,
        64,
        0,
        0,
        0,
        0,
        35,
        0,
        0,
        0,
        0,
        0,
        0,
        0,
        0,
        0,
        63,
        0,
        0,
        0,
        0,
        64,
        0,
        0,
        0,
        0,
        0,
        0,
        28,
        0,
        0,
        0,
        0,
        0,
        0,
        0,
        63,
        0,
        0,
        0,
        33,
        64,
        0,
        0,
        0,
        0,
        0,
        0,
        0,
        0,
        0,
        64,
        0,
        0,
        0,
        0,
        63,
        0,
        0,
        0,
        0,
        0,
        28,
        0,
        0,
        0,
        0,
        0,
        0,
        0,
        0,
        64,
        0,
        0,
        0,
        0,
        0,
        0,
        0,
        0,
        0,
        0,
        0,
        0,
        0,
        0,
        63,
        0,
        0,
        0,
        0,
        64,
        0,
        28,
        0,
        0,
        0,
        0,
        29,
        0,
        0,
        77,
        77,
        0,
        0,
        29,
        0,
        0,
        0,
        0,
        0,
        0,
        0,
        0,
        0,
        0,
        28,
        0,
        0,
        0,
        0,
        0,
        0,
        0,
        0,
        0,
        0,
        0,
        0,
        0,
        0,
        0,
        0,
        0,
        0,
        0,
        0,
        0,
        0,
        0,
        0,
        0,
        0,
        0,
        0,
        0,
        0,
        0,
        0,
        0,
        0,
        0,
        0,
        0,
        28,
        0,
        0,
        0,
        0,
        0,
        0,
        0,
        0,
        0,
        0,
        0,
        0,
        0,
        0,
        0,
        0,
        0,
        0,
        0,
        0,
        0,
        0,
        0,
        0,
        0,
        0,
        0,
        0,
        0,
        0,
        0,
        0,
        0,
        28,
        0,
        0,
        0,
        0,
        0,
        0,
        0,
        0,
        0,
        0,
        0,
        0,
        0,
        0,
        0,
        0,
        0,
        0,
        0,
        0,
        0,
        0,
        0,
        0,
        0,
        0,
        0,
        0,
        0,
        0,
        0,
        0,
        0,
        28,
        0,
        0,
        0,
        0,
        0,
        0,
        0,
        0,
        0,
        0,
        0,
        0,
        0,
        0,
        0,
        0,
        0,
        0,
        0,
        0,
        0,
        0,
        0,
        0,
        0,
        0,
        0,
        0,
        0,
        0,
        28,
        0,
        0,
        0,
        0,
        29,
        79,
        0,
        77,
        77,
        0,
        0,
        29,
        63,
        0,
        0,
        0,
        0,
        64,
        0,
        0,
        0,
        0,
        28,
        0,
        0,
        0,
        0,
        64,
        0,
        0,
        35,
        0,
        63,
        0,
        0,
        0,
        0,
        0,
        0,
        0,
        0,
        0,
        63,
        0,
        0,
        0,
        0,
        64,
        0,
        0,
        0,
        0,
        0,
        0,
        0,
        0,
        0,
        64,
        0,
        0,
        28,
        0,
        33,
        0,
        0,
        0,
        0,
        0,
        0,
        0,
        0,
        0,
        0,
        0,
        0,
        0,
        0,
        0,
        0,
        0,
        0,
        0,
        0,
        0,
        0,
        0,
        0,
        0,
        0,
        0,
        0,
        0,
        63,
        0,
        28,
        0,
        35,
        64,
        0,
        0,
        0,
        0,
        0,
        0,
        0,
        0,
        0,
        0,
        0,
        0,
        0,
        0,
        0,
        0,
        0,
        0,
        0,
        0,
        0,
        0,
        0,
        0,
        0,
        0,
        0,
        0,
        0,
        64,
        28,
        0,
        33,
        0,
        63,
        0,
        0,
        0,
        0,
        0,
        0,
        0,
        0,
        0,
        0,
        0,
        0,
        0,
        0,
        0,
        0,
        0,
        0,
        0,
        0,
        0,
        0,
        0,
        0,
        0,
        0,
        28,
        33,
        0,
        34,
        0,
        29,
        0,
        0,
        77,
        77,
        0,
        0,
        29,
        0,
        0,
        0,
        0,
        0,
        0,
        0,
        0,
        0,
        0,
        0,
        0,
        0,
        0,
        0,
        0,
        0,
        0,
        0,
        0,
        0,
        0,
        0,
        0,
        0,
        0,
        0,
        0,
        0,
        0,
        0,
        0,
        0,
        0,
        0,
        0,
        0,
        0,
        0,
        0,
        0,
        0,
        0,
        0,
        0,
        0,
        0,
        0,
        0,
        0,
        0,
        0,
        0,
        0,
        0,
        0,
        0,
        0,
        0,
        0,
        0,
        0,
        0,
        0,
        0,
        0,
        0,
        0,
        0,
        0,
        0,
        0,
        0,
        0,
        0,
        0,
        0,
        0,
        0,
        0,
        0,
        0,
        0,
        0,
        0,
        0,
        0,
        0,
        0,
        0,
        0,
        0,
        0,
        0,
        0,
        0,
        0,
        0,
        0,
        0,
        0,
        0,
        0,
        0,
        0,
        0,
        0,
        0,
        0,
        0,
        0,
        0,
        0,
        0,
        0,
        0,
        0,
        0,
        0,
        0,
        0,
        0,
        0,
        0,
        0,
        0,
        0,
        0,
        0,
        0,
        0,
        0,
        0,
        0,
        0,
        0,
        0,
        0,
        0,
        0,
        0,
        0,
        0,
        0,
        0,
        0,
        0,
        0,
        0,
        0,
        0,
        0,
        0,
        0,
        0,
        0,
        0,
        0,
        0,
        0,
        0,
        0,
        0,
        0,
        0,
        0,
        0,
        0,
        0,
        0,
        0,
        0,
        0,
        0,
        0,
        0,
        0,
        0,
        0,
        0,
        0,
        0,
        0,
        0,
        0,
        0,
        0,
        0,
        0,
        0,
        0,
        0,
        0,
        0,
        0,
        0,
        0,
        0,
        0,
        0,
        0,
        0,
        0,
        0,
        0,
        0,
        0,
        0,
        0,
        0,
        0,
        0,
        0,
        0,
        0,
        0,
        0,
        0,
        0,
        0,
        0,
        0,
        0,
        0,
        0,
        0,
        0,
        0,
        0,
        0,
        0,
        0,
        0,
        0,
        0,
        0,
        0,
        0,
        0,
        0,
        0,
        0,
        0,
        0,
        0,
        0,
        0,
        0,
        0,
        0,
        0,
        0,
        0,
        0,
        0,
        0,
        0,
        0,
        0,
        0,
        0,
        0,
        0,
        0,
        0,
        0,
        0,
        0,
        0,
        0,
        0,
        0,
        0,
        0,
        0,
        0,
        0,
        0,
        0,
        0,
        0,
        0,
        0,
        0,
        0,
        0,
        0,
        0,
        0,
        0,
        0,
        0,
        0,
        0,
        0,
        0,
        0,
        0,
        0,
        0,
        0,
        0,
        0,
        0,
        0,
        0,
        0,
        0,
        0,
        0,
        0,
        0,
        0,
        0,
        0,
        0,
        0,
        0,
        0,
        0,
        0,
        0,
        0,
        0,
        0,
        0,
        0,
        0,
        0,
        0,
        0,
        0,
        0,
        0,
        0,
        0,
        0,
        0,
        0,
        0,
        0,
        0,
        0,
        0,
        0,
        0,
        0,
        0,
        0,
        0,
        0,
        0,
        0,
        0,
        0,
        0,
        0,
        0,
        0,
        0,
        0,
        0,
        0,
        0,
        0,
        0,
        0,
        0,
        0,
        0,
        0,
        0,
        0,
        0,
        0,
        0,
        0,
        0,
        0,
        0,
        0,
        0,
        0,
        0,
        0,
        0,
        0,
        0,
        0,
        0,
        0,
        0,
        0,
        0,
        0,
        0,
        0,
        0,
        0,
        0,
        0,
        0,
        0,
        0,
        0,
        0,
        0,
        0,
        0,
        0,
        0,
        0,
        0,
        0,
        0,
        0,
        0,
        0,
        0,
        0,
        0,
        0,
        0,
        0,
        0,
        0,
        0,
        0,
        0,
        0,
        0,
        0,
        0,
        0,
        0,
        0,
        0,
        0,
        0,
        0,
        0,
        0,
        0,
        0,
        0,
        0,
        0,
        0,
        0,
        0,
        0,
        0,
        0,
        0,
        0,
        0,
        0,
        0,
        0,
        0,
        0,
        0,
        0,
        0,
        0,
        0,
        0,
        0,
        0,
        0,
        0,
        0,
        0,
        0,
        0,
        0,
        0,
        0,
        0,
        0,
        0,
        0,
        0,
        0,
        0,
        0,
        0,
        0,
        0,
        0,
        0,
        0,
        0,
        0,
        0,
        0,
        0,
        0,
        0,
        0,
        0,
        0,
        0,
        0,
        0,
        0,
        0,
        0,
        0,
        0,
        0,
        0,
        0,
        0,
        0,
        0,
        0,
        0,
        0,
        0,
        0,
        0,
        0,
        0,
        0,
        0,
        0,
        0,
        0,
        0,
        0,
        0,
        0,
        0,
        0,
        0,
        0,
        0,
        0,
        0,
        0,
        0,
        0,
        0,
        0,
        0,
        0,
        0,
        0,
        0,
        0,
        0,
        0,
        0,
        0,
        0,
        0,
        0,
        0,
        0,
        0,
        0,
        0,
        0,
        0,
        0,
        0,
        0,
        0,
        0,
        0,
        0,
        0,
        0,
        0,
        0,
        0,
        0,
        0,
        0,
        0,
        0,
        0,
        0,
        0,
        0,
        0,
        0,
        0,
        0,
        0,
        0,
        0,
        0,
        0,
        0,
        0,
        0,
        0,
        0,
        0,
        0,
        0,
        0,
        0,
        0,
        0,
        0,
        0,
        0,
        0,
        0,
        0,
        0,
        0,
        0,
        0,
        0,
        0,
        0,
        0,
        0,
        0,
        0,
        0,
        0,
        0,
        0,
        0,
        0,
        0,
        0,
        0,
        0,
        0,
        0,
        0,
        0,
        0,
        0
      ]
    },
    {
      "id": 5,
      "name": "Spawns",
      "type": "objectgroup",
      "x": 0,
      "y": 0,
      "opacity": 1,
      "visible": true,
      "draworder": "topdown",
      "objects": [
        {
          "name": "Player",
          "x": 48,
          "y": 178,
          "id": 1,
          "type": "",
          "point": true,
          "width": 0,
          "height": 0,
          "rotation": 0,
          "visible": true
        },
        {
          "name": "Zombie",
          "x": 200,
          "y": 178,
          "id": 2,
          "type": "",
          "point": true,
          "width": 0,
          "height": 0,
          "rotation": 0,
          "visible": true
        },
        {
          "name": "Zombie",
          "x": 328,
          "y": 178,
          "id": 3,
          "type": "",
          "point": true,
          "width": 0,
          "height": 0,
          "rotation": 0,
          "visible": true
        },
        {
          "name": "Zombie",
          "x": 520,
          "y": 178,
          "id": 4,
          "type": "",
          "point": true,
          "width": 0,
          "height": 0,
          "rotation": 0,
          "visible": true
        },
        {
          "name": "Zombie",
          "x": 776,
          "y": 178,
          "id": 5,
          "type": "",
          "point": true,
          "width": 0,
          "height": 0,
          "rotation": 0,
          "visible": true
        },
        {
          "name": "Zombie",
          "x": 936,
          "y": 146,
          "id": 6,
          "type": "",
          "point": true,
          "width": 0,
          "height": 0,
          "rotation": 0,
          "visible": true
        },
        {
          "name": "Zombie",
          "x": 1064,
          "y": 114,
          "id": 7,
          "type": "",
          "point": true,
          "width": 0,
          "height": 0,
          "rotation": 0,
          "visible": true
        },
        {
          "name": "Zombie",
          "x": 1320,
          "y": 178,
          "id": 8,
          "type": "",
          "point": true,
          "width": 0,
          "height": 0,
          "rotation": 0,
          "visible": true
        },
        {
          "name": "Zombie",
          "x": 1480,
          "y": 146,
          "id": 9,
          "type": "",
          "point": true,
          "width": 0,
          "height": 0,
          "rotation": 0,
          "visible": true
        },
        {
          "name": "Zombie",
          "x": 1608,
          "y": 114,
          "id": 10,
          "type": "",
          "point": true,
          "width": 0,
          "height": 0,
          "rotation": 0,
          "visible": true
        },
        {
          "name": "Zombie",
          "x": 1864,
          "y": 178,
          "id": 11,
          "type": "",
          "point": true,
          "width": 0,
          "height": 0,
          "rotation": 0,
          "visible": true
        },
        {
          "name": "Zombie",
          "x": 2024,
          "y": 146,
          "id": 12,
          "type": "",
          "point": true,
          "width": 0,
          "height": 0,
          "rotation": 0,
          "visible": true
        },
        {
          "name": "Zombie",
          "x": 2152,
          "y": 114,
          "id": 13,
          "type": "",
          "point": true,
          "width": 0,
          "height": 0,
          "rotation": 0,
          "visible": true
        },
        {
          "name": "Zombie",
          "x": 2280,
          "y": 146,
          "id": 14,
          "type": "",
          "point": true,
          "width": 0,
          "height": 0,
          "rotation": 0,
          "visible": true
        },
        {
          "name": "Zombie",
          "x": 2376,
          "y": 178,
          "id": 15,
          "type": "",
          "point": true,
          "width": 0,
          "height": 0,
          "rotation": 0,
          "visible": true
        },
        {
          "name": "Zombie",
          "x": 2472,
          "y": 178,
          "id": 16,
          "type": "",
          "point": true,
          "width": 0,
          "height": 0,
          "rotation": 0,
          "visible": true
        }
      ]
    },
    {
      "name": "Artwork",
      "data": [
        81,
        81,
        81,
        81,
        81,
        81,
        81,
        81,
        81,
        81,
        81,
        81,
        81,
        81,
        81,
        81,
        81,
        81,
        81,
        81,
        81,
        81,
        81,
        81,
        81,
        81,
        81,
        81,
        81,
        81,
        81,
        81,
        81,
        81,
        81,
        81,
        81,
        81,
        81,
        81,
        81,
        81,
        81,
        81,
        81,
        81,
        81,
        81,
        81,
        81,
        81,
        81,
        81,
        81,
        81,
        81,
        81,
        81,
        81,
        81,
        81,
        81,
        81,
        81,
        81,
        81,
        81,
        81,
        81,
        81,
        81,
        81,
        81,
        81,
        81,
        81,
        81,
        81,
        81,
        81,
        81,
        81,
        81,
        81,
        81,
        81,
        81,
        81,
        81,
        81,
        81,
        81,
        81,
        81,
        81,
        81,
        81,
        81,
        81,
        81,
        81,
        81,
        81,
        81,
        81,
        81,
        81,
        81,
        81,
        81,
        81,
        81,
        81,
        81,
        81,
        81,
        81,
        81,
        81,
        81,
        81,
        81,
        81,
        81,
        81,
        81,
        81,
        81,
        81,
        81,
        81,
        81,
        81,
        81,
        81,
        81,
        81,
        81,
        81,
        81,
        81,
        81,
        81,
        81,
        81,
        81,
        81,
        81,
        81,
        81,
        81,
        81,
        81,
        81,
        81,
        81,
        81,
        81,
        81,
        81,
        81,
        81,
        81,
        81,
        81,
        81,
        81,
        81,
        81,
        81,
        81,
        81,
        81,
        81,
        81,
        81,
        81,
        81,
        81,
        81,
        81,
        81,
        81,
        81,
        81,
        81,
        81,
        81,
        81,
        81,
        81,
        81,
        81,
        81,
        81,
        81,
        81,
        81,
        81,
        81,
        81,
        81,
        81,
        81,
        81,
        81,
        81,
        81,
        81,
        81,
        81,
        81,
        81,
        81,
        81,
        81,
        81,
        81,
        81,
        81,
        81,
        81,
        81,
        81,
        81,
        81,
        81,
        81,
        81,
        81,
        81,
        81,
        81,
        81,
        81,
        81,
        81,
        81,
        81,
        81,
        81,
        81,
        81,
        81,
        81,
        81,
        81,
        81,
        81,
        81,
        81,
        81,
        81,
        81,
        81,
        81,
        81,
        81,
        81,
        81,
        81,
        81,
        81,
        81,
        81,
        81,
        81,
        81,
        81,
        81,
        81,
        81,
        81,
        81,
        81,
        81,
        81,
        81,
        81,
        81,
        81,
        81,
        81,
        81,
        81,
        81,
        81,
        81,
        81,
        81,
        81,
        81,
        81,
        81,
        81,
        81,
        81,
        81,
        81,
        81,
        81,
        81,
        81,
        81,
        81,
        81,
        81,
        81,
        81,
        81,
        81,
        81,
        81,
        81,
        81,
        81,
        81,
        81,
        81,
        81,
        81,
        81,
        81,
        81,
        81,
        81,
        81,
        81,
        81,
        81,
        81,
        81,
        81,
        81,
        81,
        81,
        81,
        81,
        81,
        81,
        81,
        81,
        81,
        81,
        81,
        81,
        81,
        81,
        81,
        81,
        81,
        81,
        81,
        81,
        81,
        81,
        81,
        81,
        81,
        81,
        81,
        81,
        81,
        81,
        81,
        81,
        81,
        81,
        81,
        81,
        81,
        81,
        81,
        81,
        82,
        82,
        82,
        81,
        81,
        81,
        81,
        81,
        81,
        82,
        82,
        82,
        81,
        81,
        81,
        81,
        81,
        81,
        82,
        82,
        82,
        81,
        81,
        81,
        81,
        81,
        81,
        82,
        82,
        82,
        81,
        81,
        81,
        81,
        81,
        81,
        82,
        82,
        82,
        81,
        81,
        81,
        81,
        81,
        81,
        82,
        82,
        82,
        81,
        81,
        81,
        81,
        81,
        81,
        82,
        82,
        82,
        81,
        81,
        81,
        81,
        81,
        81,
        82,
        82,
        82,
        81,
        81,
        81,
        81,
        81,
        81,
        82,
        82,
        82,
        81,
        81,
        81,
        81,
        81,
        81,
        82,
        82,
        82,
        81,
        81,
        81,
        81,
        81,
        81,
        82,
        82,
        81,
        81,
        81,
        81,
        81,
        81,
        81,
        81,
        81,
        81,
        81,
        81,
        81,
        81,
        81,
        81,
        81,
        81,
        81,
        81,
        81,
        81,
        81,
        81,
        81,
        81,
        81,
        81,
        81,
        81,
        81,
        81,
        81,
        81,
        81,
        81,
        81,
        81,
        81,
        81,
        81,
        81,
        81,
        81,
        81,
        81,
        81,
        81,
        81,
        81,
        81,
        81,
        81,
        81,
        81,
        81,
        81,
        81,
        81,
        81,
        81,
        81,
        81,
        81,
        81,
        81,
        81,
        81,
        82,
        82,
        82,
        81,
        81,
        81,
        81,
        81,
        81,
        82,
        82,
        82,
        81,
        81,
        81,
        81,
        81,
        81,
        82,
        82,
        82,
        81,
        81,
        81,
        81,
        81,
        81,
        82,
        82,
        82,
        81,
        81,
        81,
        81,
        81,
        81,
        82,
        82,
        82,
        81,
        81,
        81,
        81,
        81,
        81,
        82,
        82,
        82,
        81,
        81,
        81,
        81,
        81,
        81,
        82,
        82,
        82,
        81,
        81,
        81,
        81,
        81,
        81,
        82,
        82,
        82,
        81,
        81,
        81,
        81,
        81,
        81,
        82,
        82,
        82,
        81,
        81,
        81,
        81,
        81,
        81,
        82,
        82,
        82,
        81,
        81,
        81,
        81,
        81,
        81,
        82,
        82,
        81,
        81,
        81,
        81,
        81,
        81,
        81,
        81,
        81,
        81,
        81,
        81,
        81,
        81,
        81,
        81,
        81,
        81,
        81,
        81,
        81,
        81,
        81,
        81,
        81,
        81,
        81,
        81,
        81,
        81,
        81,
        81,
        81,
        81,
        81,
        81,
        81,
        81,
        81,
        81,
        81,
        81,
        81,
        81,
        81,
        81,
        81,
        81,
        81,
        81,
        81,
        81,
        81,
        81,
        81,
        81,
        81,
        81,
        81,
        81,
        81,
        81,
        81,
        81,
        81,
        81,
        81,
        81,
        82,
        82,
        82,
        81,
        81,
        81,
        81,
        81,
        81,
        82,
        82,
        82,
        81,
        81,
        81,
        81,
        81,
        81,
        82,
        82,
        82,
        81,
        81,
        81,
        81,
        81,
        81,
        82,
        82,
        82,
        81,
        81,
        81,
        81,
        81,
        81,
        82,
        82,
        82,
        81,
        81,
        81,
        81,
        81,
        81,
        82,
        82,
        82,
        81,
        81,
        81,
        81,
        81,
        81,
        82,
        82,
        82,
        81,
        81,
        81,
        81,
        81,
        81,
        82,
        82,
        82,
        81,
        81,
        81,
        81,
        81,
        81,
        82,
        82,
        82,
        81,
        81,
        81,
        81,
        81,
        81,
        82,
        82,
        82,
        81,
        81,
        81,
        81,
        81,
        81,
        82,
        82,
        81,
        81,
        81,
        81,
        81,
        81,
        81,
        81,
        81,
        81,
        81,
        81,
        81,
        81,
        81,
        81,
        81,
        81,
        81,
        81,
        81,
        81,
        81,
        81,
        81,
        81,
        81,
        81,
        81,
        81,
        81,
        81,
        81,
        81,
        81,
        81,
        81,
        81,
        81,
        81,
        81,
        81,
        81,
        81,
        81,
        81,
        81,
        81,
        81,
        81,
        81,
        81,
        81,
        81,
        81,
        81,
        81,
        81,
        81,
        81,
        81,
        81,
        81,
        81,
        81,
        81,
        81,
        81,
        82,
        82,
        82,
        81,
        81,
        81,
        81,
        81,
        81,
        82,
        82,
        82,
        81,
        81,
        81,
        81,
        81,
        81,
        82,
        82,
        82,
        81,
        81,
        81,
        81,
        81,
        81,
        82,
        82,
        82,
        81,
        81,
        81,
        81,
        81,
        81,
        82,
        82,
        82,
        81,
        81,
        81,
        81,
        81,
        81,
        82,
        82,
        82,
        81,
        81,
        81,
        81,
        81,
        81,
        82,
        82,
        82,
        81,
        81,
        81,
        81,
        81,
        81,
        82,
        82,
        82,
        81,
        81,
        81,
        81,
        81,
        81,
        82,
        82,
        82,
        81,
        81,
        81,
        81,
        81,
        81,
        82,
        82,
        82,
        81,
        81,
        81,
        81,
        81,
        81,
        82,
        82,
        81,
        81,
        81,
        81,
        81,
        81,
        83,
        83,
        83,
        83,
        83,
        83,
        83,
        83,
        81,
        81,
        81,
        81,
        81,
        81,
        81,
        81,
        81,
        84,
        84,
        84,
        84,
        84,
        81,
        81,
        81,
        81,
        81,
        81,
        81,
        81,
        81,
        81,
        81,
        81,
        81,
        81,
        81,
        81,
        81,
        84,
        84,
        84,
        84,
        84,
        81,
        81,
        81,
        81,
        81,
        81,
        81,
        81,
        81,
        81,
        81,
        81,
        81,
        81,
        81,
        81,
        81,
        81,
        82,
        82,
        82,
        81,
        81,
        81,
        81,
        81,
        81,
        82,
        82,
        82,
        81,
        81,
        81,
        81,
        81,
        81,
        82,
        82,
        82,
        81,
        81,
        81,
        81,
        81,
        81,
        82,
        82,
        82,
        81,
        81,
        81,
        81,
        81,
        81,
        82,
        82,
        82,
        81,
        81,
        81,
        81,
        81,
        81,
        82,
        82,
        82,
        81,
        81,
        81,
        81,
        81,
        81,
        82,
        82,
        82,
        81,
        81,
        81,
        81,
        81,
        81,
        82,
        82,
        82,
        81,
        81,
        81,
        81,
        81,
        81,
        82,
        82,
        82,
        81,
        81,
        81,
        81,
        81,
        81,
        82,
        82,
        82,
        81,
        81,
        81,
        81,
        81,
        81,
        82,
        82,
        81,
        81,
        81,
        81,
        81,
        81,
        85,
        85,
        85,
        85,
        85,
        85,
        85,
        85,
        81,
        81,
        81,
        81,
        81,
        81,
        84,
        84,
        84,
        84,
        84,
        84,
        84,
        84,
        84,
        84,
        84,
        81,
        81,
        81,
        81,
        81,
        81,
        81,
        81,
        81,
        81,
        81,
        84,
        84,
        84,
        84,
        84,
        84,
        84,
        84,
        84,
        84,
        84,
        81,
        81,
        81,
        81,
        81,
        81,
        81,
        81,
        81,
        81,
        81,
        81,
        81,
        81,
        81,
        82,
        82,
        82,
        81,
        81,
        81,
        81,
        81,
        81,
        82,
        82,
        82,
        81,
        81,
        81,
        81,
        81,
        81,
        82,
        82,
        82,
        81,
        81,
        81,
        81,
        81,
        81,
        82,
        82,
        82,
        81,
        81,
        81,
        81,
        81,
        81,
        82,
        82,
        82,
        81,
        81,
        81,
        81,
        81,
        81,
        82,
        82,
        82,
        81,
        81,
        81,
        81,
        81,
        81,
        82,
        82,
        82,
        81,
        81,
        81,
        81,
        81,
        81,
        82,
        82,
        82,
        81,
        81,
        81,
        81,
        81,
        81,
        82,
        82,
        82,
        81,
        81,
        81,
        81,
        81,
        81,
        82,
        86,
        82,
        81,
        81,
        81,
        81,
        81,
        81,
        82,
        82,
        81,
        81,
        81,
        81,
        81,
        81,
        87,
        88,
        88,
        88,
        88,
        88,
        88,
        87,
        81,
        81,
        81,
        84,
        84,
        84,
        84,
        84,
        84,
        84,
        84,
        84,
        84,
        84,
        84,
        84,
        84,
        84,
        84,
        84,
        81,
        81,
        81,
        81,
        81,
        84,
        84,
        84,
        84,
        84,
        84,
        84,
        84,
        84,
        84,
        84,
        84,
        84,
        84,
        84,
        84,
        84,
        81,
        81,
        81,
        81,
        81,
        84,
        81,
        81,
        81,
        81,
        81,
        81,
        82,
        82,
        82,
        81,
        81,
        81,
        81,
        81,
        89,
        90,
        91,
        92,
        93,
        94,
        95,
        96,
        81,
        81,
        82,
        82,
        82,
        81,
        81,
        81,
        81,
        81,
        81,
        82,
        82,
        82,
        81,
        81,
        81,
        81,
        81,
        81,
        82,
        82,
        82,
        81,
        81,
        81,
        97,
        98,
        99,
        100,
        101,
        102,
        103,
        104,
        81,
        81,
        81,
        81,
        82,
        82,
        82,
        81,
        81,
        81,
        81,
        81,
        81,
        82,
        82,
        82,
        81,
        81,
        81,
        81,
        81,
        81,
        82,
        82,
        82,
        81,
        105,
        106,
        107,
        108,
        109,
        110,
        95,
        111,
        81,
        81,
        81,
        81,
        81,
        81,
        82,
        82,
        81,
        81,
        81,
        81,
        81,
        81,
        87,
        88,
        88,
        112,
        112,
        88,
        88,
        87,
        84,
        84,
        84,
        84,
        84,
        84,
        84,
        84,
        113,
        114,
        115,
        114,
        114,
        116,
        84,
        84,
        84,
        84,
        84,
        84,
        84,
        84,
        84,
        84,
        84,
        84,
        84,
        84,
        84,
        84,
        84,
        84,
        84,
        84,
        84,
        84,
        84,
        84,
        84,
        84,
        84,
        84,
        84,
        84,
        84,
        84,
        113,
        114,
        117,
        118,
        118,
        119,
        81,
        81,
        82,
        82,
        82,
        81,
        81,
        81,
        120,
        81,
        121,
        122,
        123,
        124,
        125,
        126,
        127,
        128,
        81,
        81,
        82,
        82,
        82,
        81,
        81,
        81,
        81,
        81,
        129,
        130,
        131,
        130,
        118,
        119,
        81,
        81,
        81,
        81,
        82,
        82,
        82,
        81,
        132,
        81,
        133,
        134,
        135,
        136,
        137,
        138,
        139,
        140,
        81,
        81,
        81,
        81,
        82,
        82,
        82,
        81,
        81,
        81,
        129,
        118,
        117,
        130,
        130,
        141,
        81,
        81,
        81,
        81,
        81,
        81,
        82,
        82,
        82,
        81,
        142,
        143,
        144,
        145,
        146,
        147,
        148,
        149,
        81,
        81,
        81,
        81,
        81,
        81,
        82,
        150,
        118,
        117,
        118,
        118,
        118,
        119,
        87,
        88,
        88,
        112,
        112,
        88,
        88,
        87,
        84,
        84,
        84,
        84,
        84,
        84,
        84,
        84,
        84,
        84,
        151,
        84,
        84,
        84,
        84,
        84,
        84,
        84,
        84,
        84,
        84,
        84,
        84,
        84,
        84,
        84,
        84,
        84,
        84,
        84,
        84,
        84,
        84,
        84,
        84,
        84,
        84,
        84,
        84,
        84,
        84,
        84,
        84,
        84,
        84,
        84,
        84,
        84,
        152,
        81,
        81,
        81,
        81,
        81,
        153,
        154,
        155,
        156,
        95,
        157,
        158,
        159,
        160,
        161,
        162,
        163,
        164,
        165,
        166,
        167,
        168,
        169,
        170,
        171,
        172,
        173,
        174,
        175,
        81,
        81,
        81,
        82,
        176,
        82,
        81,
        81,
        81,
        81,
        177,
        95,
        178,
        179,
        180,
        181,
        182,
        183,
        184,
        185,
        186,
        187,
        188,
        189,
        190,
        191,
        192,
        193,
        194,
        195,
        95,
        196,
        197,
        198,
        81,
        81,
        81,
        81,
        152,
        82,
        82,
        82,
        81,
        81,
        199,
        200,
        201,
        202,
        203,
        204,
        205,
        206,
        207,
        208,
        209,
        210,
        211,
        212,
        213,
        214,
        215,
        216,
        217,
        218,
        219,
        220,
        221,
        222,
        81,
        152,
        81,
        81,
        81,
        81,
        87,
        223,
        88,
        112,
        112,
        88,
        88,
        87,
        84,
        84,
        84,
        84,
        84,
        84,
        84,
        84,
        84,
        84,
        151,
        84,
        84,
        84,
        84,
        84,
        84,
        84,
        224,
        84,
        84,
        84,
        84,
        84,
        84,
        84,
        84,
        84,
        84,
        84,
        84,
        84,
        84,
        84,
        84,
        84,
        84,
        84,
        84,
        84,
        84,
        84,
        84,
        84,
        84,
        84,
        84,
        84,
        152,
        81,
        132,
        81,
        81,
        81,
        225,
        226,
        227,
        228,
        229,
        230,
        231,
        232,
        233,
        234,
        235,
        236,
        237,
        238,
        239,
        240,
        241,
        242,
        243,
        244,
        245,
        246,
        247,
        248,
        81,
        81,
        81,
        82,
        176,
        82,
        120,
        81,
        81,
        81,
        249,
        250,
        251,
        252,
        253,
        254,
        255,
        256,
        257,
        258,
        259,
        260,
        261,
        262,
        263,
        264,
        265,
        266,
        267,
        268,
        269,
        270,
        271,
        272,
        81,
        81,
        81,
        81,
        152,
        82,
        86,
        82,
        81,
        81,
        273,
        274,
        275,
        276,
        277,
        278,
        279,
        280,
        281,
        282,
        283,
        284,
        285,
        286,
        287,
        257,
        288,
        289,
        290,
        291,
        292,
        293,
        294,
        295,
        81,
        152,
        132,
        81,
        296,
        81,
        87,
        88,
        88,
        112,
        112,
        88,
        88,
        87,
        297,
        298,
        299,
        300,
        301,
        302,
        303,
        304,
        305,
        300,
        306,
        307,
        308,
        309,
        310,
        311,
        298,
        312,
        313,
        314,
        95,
        315,
        316,
        317,
        118,
        118,
        118,
        118,
        118,
        118,
        95,
        318,
        319,
        320,
        298,
        321,
        95,
        322,
        118,
        118,
        118,
        118,
        118,
        118,
        323,
        99,
        324,
        325,
        326,
        327,
        328,
        95,
        329,
        330,
        331,
        332,
        333,
        334,
        335,
        336,
        337,
        140,
        338,
        339,
        340,
        341,
        342,
        140,
        343,
        344,
        345,
        346,
        347,
        348,
        349,
        350,
        351,
        346,
        352,
        302,
        353,
        95,
        354,
        355,
        356,
        357,
        99,
        358,
        359,
        360,
        341,
        361,
        140,
        362,
        363,
        364,
        365,
        366,
        367,
        368,
        369,
        370,
        371,
        372,
        373,
        374,
        344,
        375,
        376,
        377,
        378,
        379,
        380,
        95,
        381,
        382,
        383,
        384,
        385,
        386,
        387,
        388,
        389,
        140,
        390,
        391,
        392,
        393,
        394,
        140,
        395,
        346,
        396,
        397,
        398,
        399,
        349,
        400,
        401,
        402,
        403,
        404,
        405,
        406,
        407,
        408,
        409,
        410,
        301,
        304,
        411,
        412,
        95,
        413,
        95,
        414,
        415,
        416,
        327,
        417,
        418,
        419,
        420,
        421,
        422,
        423,
        424,
        425,
        426,
        427,
        428,
        429,
        430,
        431,
        432,
        433,
        434,
        435,
        436,
        437,
        438,
        439,
        440,
        441,
        442,
        442,
        442,
        442,
        442,
        442,
        443,
        444,
        445,
        446,
        447,
        448,
        449,
        450,
        442,
        442,
        442,
        442,
        442,
        442,
        451,
        452,
        453,
        454,
        455,
        456,
        457,
        458,
        459,
        460,
        461,
        462,
        463,
        464,
        465,
        466,
        467,
        468,
        469,
        470,
        471,
        472,
        473,
        474,
        475,
        476,
        477,
        478,
        479,
        480,
        481,
        482,
        483,
        484,
        485,
        486,
        487,
        488,
        489,
        490,
        491,
        492,
        493,
        494,
        495,
        496,
        497,
        498,
        499,
        500,
        501,
        502,
        503,
        504,
        505,
        506,
        507,
        508,
        509,
        510,
        511,
        512,
        513,
        514,
        515,
        516,
        517,
        518,
        519,
        520,
        521,
        522,
        523,
        524,
        525,
        526,
        527,
        528,
        529,
        530,
        531,
        532,
        533,
        534,
        535,
        536,
        537,
        538,
        539,
        540,
        541,
        542,
        543,
        544,
        545,
        546,
        547,
        548,
        549,
        550,
        551,
        552,
        553,
        554,
        555,
        556,
        557,
        558,
        559,
        560,
        561,
        562,
        563,
        564,
        565,
        504,
        566,
        567,
        568,
        569,
        570,
        571,
        572,
        573,
        574,
        575,
        576,
        577,
        578,
        579,
        580,
        581,
        582,
        583,
        584,
        585,
        586,
        587,
        588,
        589,
        590,
        591,
        592,
        593,
        594,
        595,
        596,
        597,
        598,
        599,
        600,
        601,
        602,
        603,
        604,
        605,
        606,
        607,
        608,
        609,
        610,
        611,
        612,
        613,
        614,
        615,
        616,
        617,
        618,
        619,
        620,
        621,
        622,
        623,
        624,
        625,
        626,
        627,
        628,
        629,
        630,
        631,
        632,
        633,
        634,
        635,
        636,
        637,
        638,
        639,
        640,
        641,
        642,
        643,
        644,
        645,
        646,
        647,
        648,
        649,
        650,
        651,
        652,
        653,
        654,
        655,
        656,
        657,
        658,
        659,
        660,
        661,
        662,
        663,
        664,
        665,
        666,
        667,
        668,
        669,
        670,
        671,
        672,
        673,
        674,
        675,
        676,
        677,
        678,
        679,
        680,
        681,
        682,
        683,
        684,
        685,
        686,
        687,
        688,
        689,
        690,
        691,
        692,
        693,
        694,
        695,
        696,
        697,
        698,
        699,
        700,
        701,
        702,
        703,
        704,
        705,
        706,
        707,
        708,
        289,
        709,
        710,
        711,
        712,
        713,
        714,
        715,
        716,
        717,
        718,
        719,
        720,
        660,
        721,
        722,
        723,
        724,
        725,
        726,
        727,
        728,
        729,
        730,
        731,
        732,
        733,
        734,
        735,
        736,
        737,
        738,
        739,
        740,
        741,
        742,
        743,
        744,
        745,
        746,
        747,
        748,
        749,
        750,
        751,
        752,
        753,
        754,
        755,
        756,
        757,
        758,
        759,
        760,
        761,
        762,
        763,
        764,
        765,
        766,
        767,
        768,
        769,
        770,
        771,
        772,
        773,
        774,
        775,
        776,
        777,
        778,
        779,
        780,
        781,
        782,
        783,
        784,
        785,
        786,
        256,
        787,
        788,
        789,
        790,
        791,
        792,
        793,
        794,
        795,
        796,
        797,
        798,
        799,
        800,
        761,
        801,
        802,
        803,
        804,
        745,
        805,
        806,
        807,
        808,
        809,
        810,
        811,
        812,
        813,
        814,
        815,
        816,
        817,
        818,
        819,
        820,
        821,
        784,
        822,
        823,
        824,
        767,
        825,
        826,
        827,
        828,
        829,
        830,
        831,
        832,
        833,
        834,
        835,
        836,
        837,
        838,
        839,
        840,
        841,
        842,
        843,
        844,
        845,
        846,
        789,
        847,
        848,
        849,
        850,
        851,
        852,
        853,
        854,
        855,
        856,
        857,
        858,
        859,
        860,
        861,
        862,
        863,
        864,
        865,
        866,
        867,
        809,
        810,
        868,
        869,
        870,
        871,
        872,
        873,
        874,
        875
      ],
      "id": 6,
      "type": "tilelayer",
      "width": 160,
      "height": 16,
      "x": 0,
      "y": 0,
      "visible": true,
      "opacity": 1
    },
    {
      "name": "Foliage",
      "data": [
        0,
        0,
        0,
        0,
        0,
        0,
        0,
        0,
        0,
        0,
        0,
        0,
        0,
        0,
        0,
        0,
        0,
        0,
        0,
        0,
        0,
        0,
        0,
        0,
        0,
        0,
        0,
        0,
        0,
        0,
        0,
        0,
        0,
        0,
        0,
        0,
        0,
        0,
        0,
        0,
        0,
        0,
        0,
        0,
        0,
        0,
        0,
        0,
        0,
        0,
        0,
        0,
        0,
        0,
        0,
        0,
        0,
        0,
        0,
        0,
        0,
        0,
        0,
        876,
        877,
        878,
        0,
        0,
        0,
        0,
        0,
        0,
        0,
        879,
        0,
        0,
        0,
        0,
        0,
        0,
        0,
        0,
        0,
        0,
        0,
        0,
        0,
        0,
        0,
        0,
        0,
        0,
        0,
        0,
        0,
        0,
        0,
        0,
        0,
        876,
        877,
        878,
        0,
        0,
        0,
        0,
        0,
        0,
        0,
        879,
        0,
        0,
        0,
        0,
        0,
        0,
        0,
        0,
        0,
        0,
        0,
        0,
        0,
        0,
        0,
        0,
        0,
        0,
        0,
        0,
        0,
        0,
        0,
        0,
        0,
        876,
        877,
        878,
        0,
        0,
        0,
        0,
        0,
        0,
        0,
        879,
        0,
        0,
        0,
        0,
        0,
        0,
        0,
        0,
        0,
        0,
        0,
        0,
        0,
        0,
        0,
        0,
        0,
        0,
        0,
        0,
        0,
        0,
        0,
        0,
        0,
        0,
        0,
        0,
        0,
        0,
        0,
        0,
        0,
        0,
        0,
        0,
        0,
        0,
        0,
        0,
        0,
        0,
        0,
        0,
        0,
        0,
        0,
        0,
        0,
        0,
        0,
        0,
        0,
        0,
        0,
        0,
        0,
        0,
        0,
        0,
        0,
        0,
        0,
        0,
        0,
        0,
        0,
        880,
        881,
        882,
        883,
        884,
        885,
        0,
        0,
        886,
        887,
        888,
        889,
        890,
        891,
        892,
        0,
        0,
        893,
        894,
        895,
        896,
        897,
        898,
        899,
        0,
        0,
        0,
        900,
        901,
        902,
        903,
        904,
        905,
        0,
        0,
        0,
        880,
        881,
        882,
        883,
        906,
        907,
        0,
        0,
        908,
        909,
        888,
        910,
        890,
        911,
        912,
        0,
        0,
        913,
        914,
        895,
        896,
        897,
        898,
        915,
        0,
        0,
        0,
        916,
        901,
        902,
        903,
        917,
        918,
        0,
        0,
        0,
        880,
        881,
        882,
        883,
        919,
        920,
        0,
        0,
        921,
        922,
        888,
        923,
        890,
        924,
        925,
        0,
        0,
        926,
        927,
        895,
        896,
        897,
        898,
        928,
        0,
        0,
        0,
        0,
        0,
        0,
        0,
        0,
        0,
        0,
        0,
        0,
        0,
        0,
        0,
        0,
        0,
        0,
        0,
        0,
        0,
        0,
        0,
        0,
        0,
        0,
        0,
        0,
        0,
        0,
        0,
        0,
        0,
        0,
        0,
        0,
        0,
        0,
        0,
        0,
        0,
        0,
        0,
        0,
        0,
        0,
        0,
        0,
        0,
        0,
        0,
        0,
        0,
        0,
        0,
        0,
        0,
        0,
        0,
        0,
        0,
        0,
        0,
        929,
        930,
        931,
        932,
        933,
        934,
        935,
        936,
        0,
        937,
        938,
        939,
        940,
        941,
        942,
        943,
        0,
        0,
        944,
        945,
        946,
        947,
        948,
        949,
        950,
        0,
        0,
        951,
        952,
        953,
        954,
        955,
        956,
        957,
        958,
        0,
        959,
        960,
        931,
        961,
        962,
        963,
        964,
        0,
        0,
        965,
        966,
        967,
        968,
        969,
        970,
        971,
        0,
        0,
        972,
        973,
        974,
        975,
        976,
        977,
        978,
        979,
        0,
        980,
        981,
        982,
        954,
        983,
        984,
        985,
        986,
        0,
        987,
        988,
        931,
        989,
        990,
        991,
        992,
        0,
        0,
        993,
        994,
        995,
        996,
        997,
        998,
        999,
        0,
        0,
        1000,
        1001,
        1002,
        975,
        1003,
        1004,
        1005,
        1006,
        0,
        0,
        0,
        0,
        0,
        0,
        0,
        0,
        0,
        0,
        0,
        0,
        0,
        0,
        0,
        0,
        0,
        0,
        0,
        0,
        0,
        0,
        0,
        0,
        0,
        0,
        0,
        0,
        0,
        0,
        0,
        0,
        0,
        0,
        0,
        0,
        0,
        0,
        0,
        0,
        0,
        0,
        0,
        0,
        0,
        0,
        0,
        0,
        0,
        0,
        0,
        0,
        0,
        0,
        0,
        0,
        0,
        0,
        0,
        0,
        0,
        0,
        1007,
        1008,
        1009,
        1010,
        1011,
        1012,
        1013,
        0,
        0,
        0,
        0,
        0,
        0,
        1014,
        1015,
        0,
        0,
        0,
        0,
        0,
        0,
        0,
        1016,
        1017,
        0,
        0,
        0,
        0,
        1018,
        1019,
        1020,
        1021,
        1022,
        1023,
        0,
        0,
        0,
        1024,
        1025,
        1026,
        1027,
        1028,
        1029,
        0,
        0,
        0,
        0,
        0,
        0,
        0,
        0,
        0,
        0,
        0,
        0,
        0,
        0,
        0,
        1030,
        1031,
        0,
        0,
        0,
        0,
        1032,
        1033,
        1020,
        1034,
        1035,
        1036,
        0,
        0,
        0,
        1037,
        1038,
        1010,
        1039,
        1040,
        1041,
        0,
        0,
        0,
        0,
        0,
        0,
        1042,
        1043,
        0,
        0,
        0,
        0,
        0,
        0,
        0,
        0,
        1044,
        0,
        0,
        0,
        0,
        0,
        0,
        0,
        0,
        0,
        0,
        0,
        0,
        0,
        0,
        0,
        0,
        0,
        0,
        0,
        0,
        0,
        0,
        0,
        0,
        0,
        0,
        0,
        0,
        0,
        0,
        0,
        0,
        0,
        0,
        0,
        0,
        0,
        0,
        0,
        0,
        0,
        0,
        0,
        0,
        0,
        0,
        0,
        0,
        0,
        0,
        0,
        0,
        0,
        0,
        0,
        0,
        0,
        0,
        0,
        0,
        0,
        0,
        0,
        0,
        0,
        0,
        0,
        0,
        0,
        0,
        0,
        0,
        0,
        0,
        0,
        0,
        0,
        1045,
        0,
        0,
        0,
        0,
        0,
        0,
        0,
        0,
        1046,
        1047,
        0,
        0,
        0,
        0,
        0,
        0,
        0,
        0,
        1048,
        0,
        0,
        0,
        0,
        0,
        0,
        0,
        0,
        0,
        0,
        0,
        0,
        0,
        0,
        0,
        0,
        0,
        0,
        0,
        0,
        0,
        0,
        0,
        0,
        0,
        1049,
        1050,
        0,
        0,
        0,
        0,
        0,
        0,
        0,
        1051,
        1052,
        0,
        0,
        0,
        0,
        0,
        0,
        0,
        1053,
        1054,
        0,
        0,
        0,
        0,
        0,
        0,
        0,
        0,
        0,
        0,
        0,
        0,
        0,
        0,
        0,
        0,
        0,
        0,
        0,
        0,
        0,
        0,
        0,
        0,
        0,
        0,
        0,
        0,
        0,
        0,
        0,
        0,
        0,
        0,
        0,
        0,
        0,
        0,
        0,
        0,
        0,
        0,
        0,
        0,
        0,
        0,
        0,
        0,
        0,
        0,
        0,
        0,
        0,
        0,
        0,
        0,
        0,
        0,
        0,
        0,
        0,
        0,
        0,
        0,
        0,
        0,
        0,
        0,
        0,
        0,
        0,
        0,
        0,
        0,
        0,
        0,
        0,
        0,
        0,
        0,
        0,
        0,
        0,
        0,
        0,
        0,
        0,
        0,
        0,
        0,
        0,
        0,
        0,
        0,
        0,
        0,
        0,
        0,
        0,
        0,
        0,
        0,
        0,
        0,
        0,
        0,
        0,
        0,
        0,
        0,
        0,
        0,
        0,
        0,
        0,
        0,
        0,
        0,
        0,
        0,
        0,
        0,
        0,
        0,
        0,
        0,
        0,
        0,
        0,
        0,
        0,
        0,
        0,
        0,
        0,
        0,
        0,
        0,
        0,
        0,
        0,
        0,
        0,
        0,
        0,
        0,
        0,
        0,
        0,
        0,
        0,
        0,
        0,
        0,
        0,
        0,
        0,
        0,
        0,
        0,
        0,
        0,
        0,
        0,
        0,
        0,
        0,
        0,
        0,
        0,
        0,
        0,
        0,
        0,
        0,
        0,
        0,
        0,
        0,
        0,
        0,
        0,
        0,
        0,
        0,
        0,
        0,
        0,
        0,
        0,
        0,
        0,
        0,
        0,
        0,
        0,
        0,
        0,
        0,
        0,
        0,
        0,
        0,
        0,
        0,
        0,
        0,
        0,
        0,
        0,
        0,
        0,
        0,
        0,
        0,
        0,
        0,
        0,
        0,
        0,
        0,
        0,
        0,
        0,
        0,
        0,
        0,
        0,
        0,
        0,
        0,
        0,
        0,
        0,
        0,
        0,
        0,
        0,
        0,
        0,
        0,
        0,
        0,
        0,
        0,
        0,
        0,
        0,
        0,
        0,
        0,
        0,
        0,
        0,
        0,
        0,
        0,
        0,
        0,
        0,
        0,
        0,
        0,
        0,
        0,
        0,
        0,
        0,
        0,
        0,
        0,
        0,
        0,
        0,
        0,
        0,
        0,
        0,
        0,
        0,
        0,
        0,
        0,
        0,
        0,
        0,
        0,
        0,
        0,
        0,
        0,
        0,
        0,
        0,
        0,
        0,
        0,
        0,
        0,
        0,
        0,
        0,
        0,
        0,
        0,
        0,
        0,
        0,
        0,
        0,
        0,
        0,
        0,
        0,
        0,
        0,
        0,
        0,
        0,
        0,
        0,
        0,
        0,
        0,
        0,
        0,
        0,
        0,
        0,
        0,
        0,
        0,
        0,
        0,
        0,
        0,
        0,
        0,
        0,
        0,
        0,
        0,
        0,
        0,
        0,
        0,
        0,
        0,
        0,
        0,
        0,
        0,
        0,
        0,
        0,
        0,
        0,
        0,
        0,
        0,
        0,
        0,
        0,
        0,
        0,
        0,
        0,
        0,
        0,
        0,
        0,
        0,
        0,
        0,
        0,
        0,
        0,
        0,
        0,
        0,
        0,
        0,
        0,
        0,
        0,
        0,
        0,
        0,
        0,
        0,
        0,
        0,
        0,
        0,
        0,
        0,
        0,
        0,
        0,
        0,
        0,
        0,
        0,
        0,
        0,
        0,
        0,
        0,
        0,
        0,
        0,
        0,
        0,
        1055,
        1056,
        1057,
        1058,
        1059,
        1060,
        1061,
        0,
        0,
        0,
        0,
        0,
        0,
        0,
        0,
        0,
        0,
        0,
        0,
        0,
        0,
        0,
        0,
        0,
        0,
        0,
        0,
        0,
        0,
        0,
        0,
        0,
        0,
        1062,
        1063,
        1064,
        1065,
        1066,
        1067,
        0,
        1068,
        0,
        0,
        0,
        0,
        0,
        0,
        0,
        0,
        0,
        0,
        0,
        0,
        0,
        0,
        0,
        0,
        0,
        0,
        0,
        0,
        0,
        0,
        0,
        0,
        0,
        0,
        1069,
        1070,
        1071,
        1072,
        1073,
        1074,
        1075,
        1076,
        0,
        0,
        0,
        0,
        0,
        0,
        0,
        0,
        0,
        0,
        0,
        0,
        0,
        0,
        0,
        0,
        0,
        0,
        0,
        0,
        0,
        0,
        0,
        0,
        0,
        0,
        0,
        0,
        0,
        0,
        0,
        0,
        0,
        0,
        0,
        0,
        0,
        0,
        0,
        0,
        0,
        0,
        0,
        0,
        0,
        0,
        0,
        0,
        0,
        0,
        0,
        0,
        0,
        0,
        0,
        0,
        0,
        0,
        0,
        0,
        0,
        0,
        0,
        0,
        0,
        0,
        0,
        0,
        0,
        0,
        0,
        0,
        0,
        0,
        0,
        0,
        0,
        0,
        0,
        0,
        0,
        0,
        0,
        0,
        0,
        1077,
        1078,
        1079,
        1080,
        1078,
        1081,
        1082,
        0,
        0,
        0,
        0,
        0,
        0,
        0,
        0,
        0,
        0,
        0,
        0,
        0,
        0,
        0,
        0,
        0,
        0,
        0,
        0,
        0,
        0,
        0,
        0,
        0,
        0,
        1083,
        1084,
        1085,
        1086,
        1084,
        1087,
        0,
        1088,
        0,
        0,
        0,
        0,
        0,
        0,
        0,
        0,
        0,
        0,
        0,
        0,
        0,
        0,
        0,
        0,
        0,
        0,
        0,
        0,
        0,
        0,
        0,
        0,
        0,
        0,
        1089,
        1090,
        1091,
        1092,
        1093,
        1094,
        1095,
        1096,
        0,
        0,
        0,
        0,
        0,
        0,
        0,
        0,
        0,
        0,
        0,
        0,
        0,
        0,
        0,
        0,
        0,
        0,
        0,
        0,
        0,
        0,
        0,
        0,
        0,
        0,
        0,
        0,
        0,
        0,
        0,
        0,
        0,
        0,
        0,
        0,
        0,
        0,
        0,
        0,
        0,
        0,
        0,
        0,
        0,
        0,
        0,
        0,
        0,
        0,
        0,
        0,
        0,
        0,
        0,
        0,
        0,
        0,
        0,
        0,
        0,
        0,
        0,
        0,
        0,
        0,
        0,
        0,
        0,
        0,
        0,
        0,
        0,
        0,
        0,
        0,
        1097,
        0,
        1071,
        1072,
        1098,
        1099,
        1100,
        1076,
        0,
        0,
        0,
        0,
        0,
        0,
        0,
        0,
        1101,
        1102,
        0,
        1103,
        1104,
        1105,
        1099,
        1106,
        0,
        0,
        0,
        0,
        0,
        0,
        0,
        0,
        0,
        0,
        1107,
        1108,
        1109,
        1110,
        0,
        1111,
        1112,
        1113,
        0,
        0,
        0,
        0,
        0,
        0,
        0,
        0,
        1114,
        1115,
        1116,
        1117,
        1118,
        1119,
        1120,
        1121,
        0,
        0,
        0,
        0,
        0,
        0,
        0,
        0,
        0,
        0,
        0,
        1122,
        1123,
        1124,
        1125,
        1126,
        0,
        1127,
        0,
        0,
        0,
        0,
        0,
        0,
        0,
        0,
        0,
        1128,
        1129,
        1130,
        1058,
        1059,
        1131,
        0,
        0,
        0,
        0,
        0,
        0,
        0,
        0,
        0,
        0,
        0,
        0,
        0,
        0,
        0,
        0,
        0,
        0,
        0,
        0,
        0,
        0,
        0,
        0,
        0,
        0,
        0,
        0,
        0,
        0,
        0,
        0,
        0,
        0,
        0,
        0,
        0,
        0,
        0,
        0,
        0,
        0,
        0,
        0,
        0,
        0,
        0,
        0,
        0,
        0,
        0,
        0,
        0,
        0,
        0,
        0,
        0,
        0,
        0,
        0,
        0,
        0,
        0,
        0,
        0,
        0,
        0,
        0,
        0,
        1132,
        0,
        1091,
        1092,
        1133,
        1134,
        1135,
        1096,
        0,
        0,
        0,
        0,
        0,
        0,
        0,
        0,
        1136,
        1092,
        0,
        1137,
        1135,
        1138,
        1134,
        1139,
        0,
        0,
        0,
        0,
        0,
        0,
        0,
        0,
        0,
        0,
        1140,
        1141,
        1142,
        1143,
        0,
        1144,
        1145,
        1146,
        0,
        0,
        0,
        0,
        0,
        0,
        0,
        0,
        1147,
        1148,
        1149,
        1144,
        1150,
        1151,
        1152,
        1153,
        0,
        0,
        0,
        0,
        0,
        0,
        0,
        0,
        0,
        0,
        0,
        1154,
        1155,
        1156,
        1157,
        1158,
        0,
        1159,
        0,
        0,
        0,
        0,
        0,
        0,
        0,
        0,
        0,
        1160,
        1161,
        1162,
        1080,
        1078,
        1163,
        0,
        0,
        0,
        0,
        0,
        0,
        0,
        0,
        0,
        0,
        0,
        0,
        0,
        0,
        0,
        1164,
        1165,
        1166,
        1167,
        1168,
        1064,
        1169,
        1170,
        1171,
        1105,
        1068,
        1172,
        1173,
        1174,
        1117,
        1118,
        1175,
        1176,
        1177,
        0,
        1062,
        1178,
        1179,
        1180,
        0,
        0,
        0,
        0,
        0,
        0,
        1116,
        1181,
        1182,
        1183,
        1184,
        1121,
        1185,
        1186,
        1187,
        0,
        0,
        0,
        0,
        0,
        1188,
        1189,
        1128,
        1190,
        1191,
        0,
        1192,
        1131,
        1074,
        1193,
        0,
        0,
        0,
        0,
        0,
        0,
        0,
        0,
        0,
        0,
        0,
        0,
        0,
        0,
        0,
        0,
        0,
        0,
        0,
        0,
        0,
        0,
        0,
        0,
        1194,
        1195,
        1196,
        1056,
        1197,
        1198,
        1199,
        1200,
        1201,
        1202,
        0,
        0,
        0,
        0,
        0,
        0,
        0,
        0,
        0,
        0,
        0,
        0,
        0,
        0,
        0,
        0,
        0,
        0,
        0,
        0,
        0,
        0,
        0,
        0,
        0,
        1062,
        1203,
        1182,
        1180,
        1204,
        1067,
        1205,
        1206,
        1207,
        0,
        0,
        0,
        0,
        0,
        0,
        0,
        0,
        0,
        0,
        0,
        0,
        0,
        0,
        0,
        0,
        0,
        0,
        0,
        0,
        0,
        0,
        0,
        0,
        1208,
        1102,
        0,
        1071,
        1209,
        1210,
        1211,
        1100,
        1076,
        1167,
        1212,
        1213,
        1057,
        1214,
        1144,
        1215,
        1146,
        1216,
        1217,
        1085,
        1218,
        1084,
        1136,
        1138,
        1088,
        1219,
        1140,
        1220,
        1144,
        1150,
        1221,
        1144,
        1222,
        0,
        1083,
        1223,
        1224,
        1225,
        0,
        0,
        0,
        0,
        0,
        0,
        1149,
        1226,
        1227,
        1228,
        1229,
        1153,
        1230,
        1231,
        0,
        0,
        0,
        0,
        0,
        0,
        1232,
        1233,
        1160,
        1234,
        1235,
        0,
        1236,
        1163,
        1094,
        1237,
        0,
        0,
        0,
        0,
        0,
        0,
        0,
        0,
        0,
        0,
        0,
        0,
        0,
        0,
        0,
        0,
        0,
        0,
        0,
        0,
        0,
        0,
        0,
        0,
        1238,
        1239,
        1240,
        1078,
        1241,
        1084,
        1242,
        1243,
        1220,
        1142,
        0,
        0,
        0,
        0,
        0,
        0,
        0,
        0,
        0,
        0,
        0,
        0,
        0,
        0,
        0,
        0,
        0,
        0,
        0,
        0,
        0,
        0,
        0,
        0,
        0,
        1083,
        1244,
        1227,
        1225,
        1245,
        1087,
        1246,
        1247,
        1233,
        0,
        0,
        0,
        0,
        0,
        0,
        0,
        0,
        0,
        0,
        0,
        0,
        0,
        0,
        0,
        0,
        0,
        0,
        0,
        0,
        0,
        0,
        0,
        0,
        1248,
        1092,
        0,
        1091,
        1135,
        1249,
        1250,
        1135,
        1096,
        1216,
        1251,
        1078,
        1079,
        1252,
        0,
        0,
        0,
        0,
        0,
        0,
        0,
        0,
        0,
        0,
        0,
        0,
        0,
        0,
        0,
        0,
        0,
        0,
        0,
        0,
        0,
        0,
        0,
        0,
        1204,
        1067,
        1253,
        1254,
        1189,
        0,
        0,
        0,
        0,
        0,
        0,
        0,
        0,
        0,
        1203,
        0,
        1180,
        1073,
        1124,
        1255,
        0,
        0,
        0,
        0,
        0,
        0,
        0,
        0,
        0,
        0,
        0,
        0,
        0,
        0,
        0,
        0,
        0,
        0,
        0,
        0,
        0,
        0,
        0,
        0,
        0,
        0,
        0,
        0,
        0,
        0,
        0,
        0,
        0,
        0,
        0,
        0,
        0,
        0,
        0,
        0,
        0,
        0,
        0,
        0,
        0,
        0,
        0,
        0,
        0,
        0,
        0,
        0,
        0,
        0,
        0,
        0,
        0,
        0,
        0,
        0,
        0,
        0,
        0,
        0,
        0,
        0,
        0,
        0,
        0,
        0,
        0,
        0,
        0,
        0,
        0,
        0,
        0,
        0,
        0,
        0,
        0,
        0,
        0,
        0,
        0,
        0,
        0,
        0,
        0,
        0,
        0,
        0,
        0,
        0,
        0,
        0,
        0,
        0,
        0,
        0,
        0,
        0,
        0,
        0,
        0,
        0,
        0,
        0,
        0,
        0,
        0,
        0,
        0,
        0,
        0,
        0,
        0,
        0,
        0,
        0,
        0,
        0,
        0,
        0,
        0,
        0,
        0,
        0,
        0,
        0,
        0,
        0,
        0,
        0,
        0,
        0,
        0,
        0,
        0,
        0,
        1245,
        1087,
        0,
        1256,
        1233,
        0,
        0,
        0,
        0,
        0,
        0,
        0,
        0,
        0,
        1244,
        0,
        1225,
        1093,
        1156,
        1257,
        0,
        0,
        0,
        0,
        0,
        0,
        0,
        0,
        0,
        0,
        0,
        0,
        0,
        0,
        0,
        0,
        0,
        0,
        0,
        0,
        0,
        0,
        0,
        0,
        0,
        0,
        0,
        0,
        0,
        0,
        0,
        0,
        0,
        0,
        0,
        0,
        0,
        0,
        0,
        0,
        0,
        0,
        0,
        0,
        0,
        0,
        0,
        0,
        0,
        0,
        0,
        0,
        0,
        0,
        0,
        0,
        0,
        0,
        0,
        0,
        0,
        0,
        0,
        0,
        0,
        0,
        0,
        0,
        0,
        0,
        0,
        0,
        0,
        0,
        0,
        0,
        0,
        0,
        0,
        0,
        0,
        0,
        0,
        0,
        0,
        0,
        0,
        0,
        0,
        0,
        0,
        0,
        0,
        0,
        0,
        0,
        0,
        0,
        0,
        0,
        0,
        0,
        0,
        0,
        0,
        0,
        0,
        0,
        0,
        0,
        0,
        0,
        0,
        0,
        0,
        0,
        0,
        0,
        0,
        0,
        0,
        0,
        0,
        0,
        0,
        0,
        0,
        0,
        0,
        0,
        0,
        0,
        0,
        0,
        0,
        0,
        0,
        0,
        0,
        0,
        0,
        0,
        0,
        0,
        0,
        0,
        0,
        0,
        0,
        0,
        0,
        0,
        0,
        0,
        0,
        0,
        0,
        0,
        0,
        0,
        0,
        0,
        0,
        0,
        0,
        0,
        0,
        0,
        0,
        0,
        0,
        0,
        0,
        0,
        0,
        0,
        0,
        0,
        0,
        0,
        0,
        0,
        0,
        0,
        0,
        0,
        0,
        0,
        0,
        0,
        0,
        0,
        0,
        0,
        0,
        0,
        0,
        0,
        0,
        0,
        0,
        0,
        0,
        0,
        0,
        0,
        0,
        0,
        0,
        0,
        0,
        0,
        0,
        0,
        0,
        0,
        0,
        0,
        0,
        0,
        0,
        0,
        0,
        0,
        0,
        0,
        0,
        0,
        0,
        0,
        0,
        0,
        0,
        0,
        0,
        0,
        0,
        0,
        0,
        0,
        0,
        0,
        0,
        0,
        0,
        0,
        0,
        0,
        0,
        0,
        0,
        0,
        0,
        0,
        0,
        0,
        0,
        0,
        0,
        0,
        0,
        0,
        0,
        0,
        0,
        0,
        0,
        0,
        0,
        0,
        0,
        0,
        0,
        0,
        0,
        0
      ],
      "id": 7,
      "type": "tilelayer",
      "width": 160,
      "height": 16,
      "x": 0,
      "y": 0,
      "visible": true,
      "opacity": 1
    },
    {
      "name": "Stars",
      "data": [
        0,
        0,
        1258,
        0,
        0,
        0,
        0,
        1259,
        0,
        0,
        1260,
        0,
        1261,
        0,
        0,
        0,
        0,
        0,
        0,
        0,
        1262,
        0,
        0,
        0,
        0,
        0,
        0,
        0,
        0,
        0,
        0,
        0,
        0,
        0,
        0,
        1263,
        1264,
        0,
        0,
        0,
        0,
        0,
        0,
        0,
        0,
        0,
        0,
        0,
        1265,
        0,
        0,
        0,
        1266,
        0,
        0,
        0,
        1267,
        1268,
        0,
        0,
        0,
        1269,
        0,
        0,
        0,
        0,
        0,
        0,
        0,
        0,
        1270,
        0,
        1271,
        0,
        1272,
        0,
        0,
        1273,
        1274,
        0,
        0,
        0,
        0,
        1275,
        0,
        1276,
        0,
        0,
        0,
        0,
        0,
        1277,
        0,
        1278,
        0,
        0,
        0,
        0,
        0,
        0,
        0,
        0,
        0,
        0,
        0,
        0,
        0,
        1279,
        0,
        1280,
        0,
        0,
        1281,
        0,
        1282,
        0,
        0,
        1283,
        0,
        0,
        0,
        0,
        0,
        0,
        0,
        0,
        0,
        1284,
        0,
        1285,
        0,
        0,
        1286,
        1287,
        0,
        0,
        0,
        0,
        1288,
        0,
        1289,
        0,
        0,
        0,
        0,
        1290,
        0,
        0,
        1291,
        0,
        0,
        1292,
        0,
        1293,
        0,
        0,
        0,
        1294,
        0,
        0,
        1295,
        0,
        0,
        0,
        0,
        1296,
        0,
        0,
        0,
        0,
        0,
        0,
        0,
        0,
        0,
        0,
        0,
        1297,
        1298,
        0,
        1283,
        0,
        1299,
        0,
        1300,
        0,
        1301,
        0,
        0,
        1302,
        0,
        0,
        0,
        1303,
        0,
        0,
        0,
        0,
        0,
        0,
        0,
        1304,
        0,
        0,
        1305,
        0,
        1306,
        0,
        0,
        0,
        0,
        0,
        0,
        0,
        0,
        0,
        0,
        0,
        0,
        0,
        0,
        0,
        0,
        0,
        0,
        0,
        0,
        0,
        0,
        0,
        1307,
        0,
        0,
        0,
        0,
        0,
        0,
        0,
        0,
        0,
        0,
        0,
        0,
        0,
        0,
        0,
        0,
        0,
        0,
        1308,
        0,
        0,
        0,
        0,
        0,
        0,
        1309,
        0,
        0,
        0,
        0,
        0,
        0,
        1310,
        0,
        0,
        1311,
        0,
        0,
        0,
        0,
        0,
        0,
        0,
        0,
        0,
        0,
        0,
        0,
        0,
        1296,
        0,
        0,
        0,
        0,
        0,
        0,
        0,
        0,
        0,
        0,
        0,
        0,
        0,
        0,
        0,
        0,
        0,
        0,
        0,
        0,
        0,
        0,
        0,
        1312,
        0,
        0,
        0,
        0,
        0,
        0,
        0,
        1303,
        0,
        0,
        0,
        0,
        0,
        0,
        0,
        0,
        0,
        0,
        1313,
        0,
        0,
        1301,
        0,
        0,
        0,
        1314,
        0,
        0,
        1315,
        0,
        0,
        0,
        0,
        0,
        0,
        0,
        0,
        1316,
        0,
        0,
        0,
        1266,
        0,
        0,
        0,
        0,
        0,
        1317,
        0,
        0,
        1318,
        0,
        0,
        0,
        1319,
        0,
        1303,
        0,
        1320,
        0,
        0,
        1321,
        0,
        0,
        0,
        1322,
        0,
        0,
        0,
        0,
        0,
        0,
        0,
        0,
        0,
        0,
        0,
        1323,
        0,
        0,
        0,
        0,
        0,
        0,
        0,
        0,
        0,
        0,
        0,
        0,
        0,
        0,
        1324,
        0,
        1325,
        0,
        0,
        0,
        0,
        0,
        0,
        0,
        0,
        0,
        0,
        0,
        0,
        0,
        0,
        0,
        0,
        0,
        0,
        1326,
        0,
        0,
        0,
        0,
        0,
        0,
        1327,
        0,
        0,
        0,
        0,
        0,
        0,
        0,
        1328,
        0,
        0,
        0,
        0,
        0,
        0,
        0,
        0,
        0,
        0,
        1306,
        0,
        0,
        0,
        0,
        0,
        0,
        1329,
        0,
        0,
        0,
        0,
        0,
        0,
        0,
        0,
        0,
        1330,
        0,
        0,
        0,
        0,
        0,
        0,
        0,
        0,
        0,
        1331,
        0,
        0,
        0,
        1332,
        0,
        1333,
        0,
        0,
        0,
        1334,
        0,
        1335,
        0,
        0,
        0,
        0,
        0,
        0,
        0,
        0,
        1336,
        0,
        1337,
        0,
        0,
        0,
        0,
        1338,
        0,
        1339,
        0,
        0,
        0,
        0,
        0,
        1340,
        0,
        0,
        1261,
        0,
        0,
        0,
        1341,
        0,
        0,
        0,
        1342,
        0,
        1343,
        0,
        0,
        0,
        0,
        0,
        1280,
        0,
        1344,
        0,
        0,
        0,
        0,
        1345,
        0,
        0,
        0,
        1346,
        0,
        0,
        0,
        0,
        0,
        0,
        0,
        0,
        0,
        1347,
        0,
        0,
        1348,
        0,
        0,
        0,
        0,
        0,
        0,
        1294,
        0,
        1349,
        0,
        0,
        0,
        0,
        0,
        0,
        0,
        0,
        0,
        0,
        0,
        0,
        0,
        0,
        0,
        0,
        0,
        0,
        0,
        0,
        0,
        0,
        1350,
        0,
        0,
        0,
        1351,
        1352,
        0,
        0,
        0,
        0,
        1353,
        0,
        1258,
        0,
        0,
        0,
        0,
        0,
        1354,
        0,
        0,
        0,
        0,
        1355,
        0,
        0,
        0,
        0,
        0,
        0,
        1267,
        0,
        0,
        0,
        1356,
        0,
        0,
        1357,
        1358,
        0,
        0,
        0,
        0,
        0,
        0,
        0,
        0,
        0,
        0,
        1320,
        0,
        1335,
        1281,
        0,
        0,
        0,
        0,
        0,
        1341,
        0,
        1359,
        0,
        0,
        0,
        1360,
        0,
        0,
        0,
        0,
        0,
        0,
        0,
        0,
        0,
        0,
        0,
        0,
        0,
        0,
        0,
        0,
        0,
        0,
        0,
        0,
        0,
        0,
        0,
        0,
        0,
        0,
        0,
        0,
        0,
        1288,
        0,
        0,
        0,
        0,
        0,
        0,
        1350,
        0,
        0,
        0,
        0,
        0,
        0,
        0,
        1312,
        0,
        1361,
        0,
        0,
        0,
        0,
        0,
        0,
        1362,
        0,
        0,
        0,
        0,
        0,
        0,
        0,
        0,
        0,
        0,
        0,
        0,
        0,
        0,
        0,
        0,
        0,
        0,
        0,
        0,
        0,
        0,
        0,
        1363,
        0,
        1364,
        0,
        1364,
        0,
        0,
        0,
        0,
        0,
        0,
        0,
        0,
        1365,
        0,
        0,
        0,
        0,
        0,
        0,
        1366,
        0,
        0,
        0,
        0,
        0,
        0,
        0,
        0,
        0,
        0,
        0,
        0,
        0,
        0,
        0,
        0,
        1367,
        1368,
        0,
        0,
        0,
        0,
        0,
        0,
        1369,
        0,
        0,
        0,
        0,
        0,
        0,
        0,
        0,
        0,
        0,
        0,
        0,
        0,
        1370,
        0,
        1346,
        0,
        0,
        0,
        1371,
        0,
        0,
        0,
        0,
        0,
        0,
        0,
        1340,
        0,
        0,
        0,
        0,
        0,
        0,
        0,
        0,
        1372,
        1373,
        0,
        0,
        1374,
        0,
        1375,
        0,
        1275,
        0,
        0,
        0,
        1376,
        0,
        1377,
        1378,
        0,
        0,
        0,
        0,
        0,
        0,
        1379,
        1380,
        0,
        0,
        0,
        1374,
        0,
        0,
        0,
        0,
        0,
        1381,
        1382,
        0,
        0,
        1383,
        0,
        0,
        0,
        0,
        0,
        0,
        0,
        0,
        0,
        0,
        0,
        0,
        0,
        0,
        1384,
        0,
        1385,
        0,
        1386,
        0,
        0,
        0,
        1387,
        1329,
        0,
        0,
        1388,
        0,
        0,
        0,
        0,
        0,
        0,
        0,
        0,
        1389,
        0,
        0,
        0,
        0,
        0,
        1292,
        0,
        1390,
        1299,
        0,
        0,
        0,
        0,
        1391,
        0,
        1392,
        0,
        0,
        1276,
        0,
        0,
        0,
        1290,
        0,
        0,
        0,
        0,
        1393,
        0,
        0,
        0,
        0,
        1302,
        0,
        0,
        1394,
        0,
        0,
        0,
        0,
        1395,
        0,
        0,
        0,
        0,
        0,
        0,
        0,
        0,
        0,
        0,
        1327,
        0,
        1396,
        0,
        0,
        0,
        0,
        0,
        1397,
        0,
        0,
        1398,
        0,
        0,
        0,
        0,
        0,
        1399,
        0,
        0,
        0,
        0,
        0,
        0,
        0,
        0,
        0,
        0,
        0,
        0,
        0,
        0,
        0,
        1267,
        0,
        1332,
        1294,
        0,
        0,
        0,
        0,
        0,
        0,
        0,
        0,
        0,
        0,
        1400,
        0,
        0,
        0,
        0,
        0,
        0,
        1291,
        1316,
        0,
        0,
        0,
        0,
        0,
        0,
        0,
        0,
        0,
        0,
        1259,
        1401,
        0,
        0,
        0,
        0,
        1261,
        0,
        1402,
        0,
        0,
        0,
        0,
        1332,
        0,
        0,
        0,
        0,
        0,
        0,
        0,
        1403,
        0,
        0,
        0,
        1404,
        0,
        0,
        0,
        0,
        0,
        0,
        0,
        1272,
        0,
        0,
        0,
        0,
        0,
        0,
        0,
        1405,
        0,
        0,
        0,
        0,
        0,
        0,
        0,
        0,
        0,
        0,
        1406,
        0,
        0,
        0,
        0,
        1407,
        1404,
        0,
        1389,
        0,
        0,
        0,
        0,
        1408,
        0,
        0,
        0,
        1409,
        1410,
        0,
        0,
        0,
        0,
        0,
        1411,
        1412,
        0,
        0,
        0,
        0,
        0,
        0,
        0,
        0,
        0,
        0,
        0,
        0,
        0,
        0,
        0,
        0,
        0,
        0,
        0,
        1413,
        0,
        0,
        0,
        0,
        0,
        0,
        0,
        0,
        0,
        0,
        0,
        0,
        0,
        0,
        0,
        0,
        1414,
        0,
        0,
        0,
        0,
        0,
        0,
        0,
        0,
        1415,
        0,
        0,
        0,
        0,
        0,
        0,
        0,
        0,
        0,
        0,
        0,
        0,
        0,
        0,
        0,
        0,
        0,
        0,
        0,
        1416,
        0,
        0,
        0,
        0,
        0,
        0,
        0,
        0,
        0,
        0,
        0,
        0,
        0,
        0,
        0,
        0,
        0,
        0,
        0,
        0,
        0,
        0,
        0,
        0,
        0,
        0,
        0,
        0,
        1417,
        0,
        0,
        0,
        0,
        0,
        0,
        0,
        0,
        0,
        0,
        1418,
        0,
        0,
        0,
        0,
        0,
        1419,
        0,
        0,
        0,
        0,
        0,
        0,
        0,
        0,
        0,
        1420,
        0,
        0,
        1421,
        0,
        0,
        0,
        0,
        1422,
        1341,
        0,
        0,
        0,
        0,
        0,
        0,
        0,
        0,
        0,
        0,
        0,
        0,
        0,
        0,
        0,
        0,
        1423,
        0,
        0,
        0,
        0,
        1281,
        0,
        0,
        0,
        0,
        0,
        0,
        0,
        0,
        0,
        0,
        0,
        0,
        0,
        0,
        0,
        0,
        1424,
        0,
        0,
        0,
        0,
        0,
        0,
        0,
        0,
        0,
        0,
        0,
        0,
        0,
        1425,
        0,
        0,
        0,
        1304,
        0,
        0,
        0,
        0,
        0,
        1426,
        0,
        0,
        0,
        0,
        0,
        0,
        0,
        0,
        0,
        0,
        0,
        0,
        1360,
        1427,
        0,
        0,
        0,
        0,
        0,
        0,
        0,
        0,
        0,
        0,
        0,
        0,
        0,
        0,
        0,
        0,
        0,
        1425,
        0,
        0,
        0,
        0,
        0,
        0,
        0,
        0,
        0,
        0,
        0,
        0,
        0,
        0,
        0,
        0,
        0,
        0,
        0,
        0,
        0,
        0,
        0,
        0,
        0,
        1428,
        0,
        0,
        1429,
        0,
        1430,
        0,
        1406,
        0,
        0,
        0,
        0,
        1431,
        1268,
        0,
        0,
        0,
        0,
        0,
        0,
        0,
        0,
        0,
        0,
        0,
        0,
        0,
        0,
        0,
        0,
        0,
        0,
        0,
        0,
        0,
        0,
        0,
        0,
        0,
        0,
        0,
        0,
        0,
        1292,
        0,
        0,
        0,
        1432,
        0,
        0,
        0,
        0,
        0,
        0,
        0,
        0,
        0,
        0,
        0,
        1433,
        0,
        0,
        0,
        0,
        0,
        0,
        0,
        1298,
        1412,
        0,
        0,
        0,
        0,
        0,
        0,
        0,
        0,
        0,
        0,
        0,
        0,
        0,
        0,
        0,
        0,
        0,
        0,
        0,
        0,
        0,
        0,
        0,
        0,
        1391,
        0,
        1434,
        0,
        1435,
        0,
        0,
        0,
        1436,
        0,
        0,
        0,
        0,
        0,
        0,
        0,
        0,
        0,
        0,
        0,
        0,
        0,
        0,
        0,
        0,
        0,
        0,
        0,
        0,
        0,
        0,
        0,
        0,
        0,
        0,
        0,
        0,
        0,
        0,
        0,
        0,
        0,
        0,
        0,
        0,
        0,
        0,
        0,
        0,
        0,
        0,
        0,
        0,
        0,
        0,
        0,
        0,
        0,
        0,
        0,
        0,
        0,
        0,
        0,
        0,
        0,
        0,
        0,
        0,
        0,
        1308,
        0,
        1413,
        0,
        0,
        0,
        0,
        0,
        1399,
        0,
        0,
        0,
        0,
        0,
        0,
        0,
        0,
        0,
        0,
        0,
        0,
        0,
        0,
        0,
        0,
        0,
        0,
        0,
        0,
        0,
        0,
        0,
        0,
        0,
        0,
        0,
        0,
        0,
        0,
        0,
        1429,
        0,
        0,
        0,
        1406,
        0,
        0,
        0,
        0,
        0,
        0,
        0,
        0,
        0,
        0,
        0,
        0,
        0,
        0,
        0,
        0,
        0,
        0,
        0,
        0,
        1337,
        0,
        0,
        0,
        0,
        0,
        0,
        1437,
        0,
        0,
        0,
        0,
        0,
        0,
        0,
        1438,
        0,
        0,
        0,
        0,
        0,
        0,
        0,
        0,
        1439,
        0,
        0,
        0,
        0,
        0,
        0,
        0,
        1440,
        0,
        0,
        1441,
        0,
        0,
        0,
        0,
        1442,
        0,
        0,
        0,
        0,
        0,
        0,
        0,
        0,
        0,
        0,
        0,
        0,
        0,
        0,
        0,
        0,
        0,
        0,
        0,
        0,
        0,
        0,
        0,
        0,
        0,
        0,
        0,
        0,
        0,
        0,
        0,
        0,
        0,
        0,
        0,
        0,
        0,
        0,
        0,
        0,
        0,
        0,
        0,
        0,
        0,
        0,
        0,
        0,
        0,
        0,
        0,
        0,
        0,
        0,
        0,
        0,
        0,
        0,
        0,
        0,
        0,
        0,
        0,
        0,
        0,
        0,
        0,
        0,
        0,
        0,
        0,
        0,
        0,
        0,
        0,
        0,
        0,
        0,
        0,
        0,
        0,
        0,
        0,
        0,
        1443,
        0,
        0,
        0,
        0,
        0,
        0,
        0,
        0,
        0,
        0,
        0,
        0,
        0,
        0,
        0,
        0,
        0,
        0,
        0,
        0,
        0,
        0,
        0,
        0,
        0,
        0,
        0,
        0,
        0,
        0,
        0,
        0,
        0,
        0,
        0,
        0,
        0,
        0,
        0,
        0,
        0,
        0,
        0,
        0,
        0,
        0,
        0,
        0,
        0,
        0,
        0,
        0,
        0,
        0,
        0,
        0,
        0,
        0,
        0,
        0,
        0,
        0,
        0,
        0,
        0,
        0,
        0,
        0,
        0,
        0,
        0,
        0,
        0,
        0,
        0,
        0,
        0,
        0,
        0,
        0,
        0,
        0,
        0,
        0,
        0,
        0,
        0,
        0,
        0,
        0,
        0,
        0,
        0,
        0,
        0,
        0,
        0,
        0,
        0,
        0,
        0,
        0,
        0,
        0,
        0,
        0,
        0,
        0,
        0,
        0,
        0,
        0,
        0,
        0,
        0,
        0,
        0,
        0,
        0,
        0,
        0,
        0,
        0,
        0,
        0,
        0,
        0,
        0,
        0,
        0,
        0,
        0,
        0,
        0,
        0,
        0,
        0,
        0,
        0,
        0,
        0,
        0,
        0,
        0,
        0,
        0,
        0,
        0,
        0,
        0,
        0,
        0,
        0,
        0,
        0,
        0,
        0,
        0,
        0,
        0,
        0,
        0,
        0,
        0,
        0,
        0,
        0,
        0,
        0,
        0,
        0,
        0,
        0,
        0,
        0,
        0,
        0,
        0,
        0,
        0,
        0,
        0,
        0,
        0,
        0,
        0,
        0,
        0,
        0,
        0,
        0,
        0,
        0,
        0,
        0,
        0,
        0,
        0,
        0,
        0,
        0,
        0,
        0,
        0,
        0,
        0,
        0,
        0,
        0,
        0,
        0,
        0,
        0,
        0,
        0,
        0,
        0,
        0,
        0,
        0,
        0,
        0,
        0,
        0,
        0,
        0,
        0,
        0,
        0,
        0,
        0,
        0,
        0,
        0,
        0,
        0,
        0,
        0,
        0,
        0,
        0,
        0,
        0,
        0,
        0,
        0,
        0,
        0,
        0,
        0,
        0,
        0,
        0,
        0,
        0,
        0,
        0,
        0,
        0,
        0,
        0,
        0,
        0,
        0,
        0,
        0,
        0,
        0,
        0,
        0,
        0,
        0,
        0,
        0,
        0,
        0,
        0,
        0,
        0,
        0,
        0,
        0,
        0,
        0,
        0,
        0,
        0,
        0,
        0,
        0,
        0,
        0,
        0,
        0,
        0,
        0,
        0,
        0,
        0,
        0,
        0,
        0,
        0,
        0,
        0,
        0,
        0,
        0,
        0,
        0,
        0,
        0,
        0,
        0,
        0,
        0,
        0,
        0,
        0,
        0,
        0,
        0,
        0,
        0,
        0,
        0,
        0,
        0,
        0,
        0,
        0,
        0,
        0,
        0,
        0,
        0,
        0,
        0,
        0,
        0,
        0,
        0,
        0,
        0,
        0,
        0,
        0,
        0,
        0,
        0,
        0,
        0,
        0,
        0,
        0,
        0,
        0,
        0,
        0,
        0,
        0,
        0,
        0,
        0,
        0,
        0,
        0,
        0,
        0,
        0,
        0,
        0,
        0,
        0,
        0,
        0,
        0,
        0,
        0,
        0,
        0,
        0,
        0,
        0,
        0,
        0,
        0,
        0,
        0,
        0,
        0,
        0,
        0,
        0,
        0,
        0,
        0,
        0,
        0,
        0,
        0,
        0,
        0,
        0,
        0,
        0,
        0,
        0,
        0,
        0,
        0,
        0,
        0,
        0,
        0,
        0,
        0,
        0,
        0,
        0,
        0,
        0,
        0,
        0,
        0,
        0,
        0,
        0,
        0,
        0,
        0,
        0,
        0,
        0,
        0,
        0,
        0,
        0,
        0,
        0,
        0,
        0,
        0,
        0,
        0,
        0,
        0,
        0,
        0,
        0,
        0,
        0,
        0,
        0,
        0,
        0,
        0,
        0,
        0,
        0,
        0,
        0,
        0,
        0,
        0,
        0,
        0,
        0,
        0,
        0,
        0,
        0,
        0,
        0,
        0,
        0,
        0,
        0,
        0,
        0,
        0,
        0,
        0,
        0,
        0,
        0,
        0,
        0,
        0,
        0,
        0,
        0,
        0,
        0,
        0,
        0,
        0,
        0,
        0,
        0,
        0,
        0,
        0,
        0,
        0,
        0,
        0,
        0,
        0,
        0,
        0,
        0,
        0,
        0,
        0,
        0,
        0,
        0,
        0,
        0,
        0,
        0,
        0,
        0,
        0,
        0,
        0,
        0,
        0,
        0,
        0,
        0,
        0,
        0,
        0,
        0,
        0,
        0,
        0,
        0,
        0,
        0,
        0,
        0,
        0,
        0,
        0,
        0,
        0,
        0,
        0,
        0,
        0,
        0,
        0,
        0,
        0,
        0,
        0,
        0,
        0,
        0,
        0,
        0,
        0,
        0,
        0,
        0,
        0,
        0,
        0,
        0,
        0,
        0,
        0,
        0,
        0,
        0,
        0,
        0,
        0,
        0,
        0,
        0,
        0,
        0,
        0,
        0,
        0,
        0,
        0,
        0,
        0,
        0,
        0,
        0,
        0,
        0,
        0,
        0,
        0,
        0,
        0,
        0,
        0,
        0,
        0,
        0,
        0,
        0,
        0,
        0,
        0,
        0,
        0,
        0,
        0,
        0,
        0,
        0,
        0,
        0,
        0,
        0,
        0,
        0,
        0,
        0,
        0,
        0,
        0,
        0,
        0,
        0,
        0,
        0,
        0,
        0,
        0,
        0,
        0,
        0,
        0,
        0,
        0,
        0,
        0,
        0,
        0,
        0,
        0,
        0,
        0,
        0,
        0,
        0,
        0,
        0,
        0,
        0,
        0,
        0,
        0,
        0,
        0,
        0,
        0,
        0,
        0,
        0,
        0,
        0,
        0,
        0,
        0,
        0,
        0,
        0,
        0,
        0,
        0,
        0,
        0,
        0,
        0,
        0,
        0,
        0,
        0,
        0,
        0,
        0,
        0,
        0,
        0,
        0,
        0,
        0,
        0,
        0,
        0,
        0,
        0,
        0,
        0,
        0,
        0,
        0,
        0,
        0,
        0,
        0,
        0,
        0,
        0,
        0,
        0,
        0,
        0,
        0,
        0,
        0,
        0,
        0,
        0,
        0,
        0,
        0,
        0,
        0,
        0,
        0,
        0,
        0,
        0,
        0,
        0,
        0,
        0,
        0,
        0,
        0,
        0,
        0,
        0,
        0,
        0,
        0,
        0,
        0,
        0,
        0,
        0,
        0,
        0,
        0,
        0,
        0,
        0,
        0,
        0,
        0,
        0,
        0,
        0,
        0,
        0,
        0,
        0,
        0,
        0,
        0,
        0,
        0,
        0,
        0,
        0,
        0,
        0,
        0,
        0,
        0,
        0,
        0,
        0,
        0,
        0,
        0,
        0,
        0,
        0,
        0,
        0,
        0,
        0,
        0,
        0,
        0,
        0,
        0,
        0,
        0,
        0,
        0,
        0,
        0,
        0,
        0,
        0,
        0,
        0,
        0,
        0,
        0,
        0,
        0,
        0,
        0,
        0,
        0,
        0,
        0,
        0,
        0,
        0,
        0,
        0,
        0,
        0,
        0,
        0,
        0,
        0,
        0,
        0,
        0,
        0,
        0,
        0,
        0,
        0,
        0,
        0,
        0,
        0,
        0,
        0,
        0,
        0,
        0,
        0,
        0,
        0,
        0,
        0,
        0,
        0,
        0,
        0,
        0,
        0,
        0,
        0,
        0,
        0,
        0,
        0,
        0,
        0,
        0,
        0,
        0,
        0,
        0,
        0,
        0,
        0,
        0,
        0,
        0
      ],
      "id": 8,
      "type": "tilelayer",
      "width": 160,
      "height": 16,
      "x": 0,
      "y": 0,
      "visible": true,
      "opacity": 1
    }
  ],
  "tilesets": [
    {
      "type": "tileset",
      "version": "1.10",
      "name": "jungle-approved-16",
      "tilewidth": 16,
      "tileheight": 16,
      "columns": 32,
      "tilecount": 1443,
      "spacing": 0,
      "margin": 0,
      "image": "../tilesets/jungle-approved-16.png",
      "imagewidth": 512,
      "imageheight": 736,
      "tiles": [
        {
          "id": 0,
          "properties": [
            {
              "name": "name",
              "type": "string",
              "value": "floor_top_left"
            },
            {
              "name": "category",
              "type": "string",
              "value": "solid"
            },
            {
              "name": "collides",
              "type": "bool",
              "value": true
            }
          ]
        },
        {
          "id": 1,
          "properties": [
            {
              "name": "name",
              "type": "string",
              "value": "floor_top_middle"
            },
            {
              "name": "category",
              "type": "string",
              "value": "solid"
            },
            {
              "name": "collides",
              "type": "bool",
              "value": true
            }
          ]
        },
        {
          "id": 2,
          "properties": [
            {
              "name": "name",
              "type": "string",
              "value": "floor_top_right"
            },
            {
              "name": "category",
              "type": "string",
              "value": "solid"
            },
            {
              "name": "collides",
              "type": "bool",
              "value": true
            }
          ]
        },
        {
          "id": 3,
          "properties": [
            {
              "name": "name",
              "type": "string",
              "value": "wall_top_left"
            },
            {
              "name": "category",
              "type": "string",
              "value": "background"
            },
            {
              "name": "collides",
              "type": "bool",
              "value": false
            }
          ]
        },
        {
          "id": 4,
          "properties": [
            {
              "name": "name",
              "type": "string",
              "value": "wall_top_middle"
            },
            {
              "name": "category",
              "type": "string",
              "value": "background"
            },
            {
              "name": "collides",
              "type": "bool",
              "value": false
            }
          ]
        },
        {
          "id": 5,
          "properties": [
            {
              "name": "name",
              "type": "string",
              "value": "wall_top_right"
            },
            {
              "name": "category",
              "type": "string",
              "value": "background"
            },
            {
              "name": "collides",
              "type": "bool",
              "value": false
            }
          ]
        },
        {
          "id": 6,
          "properties": [
            {
              "name": "name",
              "type": "string",
              "value": "wall_vent"
            },
            {
              "name": "category",
              "type": "string",
              "value": "background"
            },
            {
              "name": "collides",
              "type": "bool",
              "value": false
            }
          ]
        },
        {
          "id": 7,
          "properties": [
            {
              "name": "name",
              "type": "string",
              "value": "wall_terminal"
            },
            {
              "name": "category",
              "type": "string",
              "value": "background"
            },
            {
              "name": "collides",
              "type": "bool",
              "value": false
            }
          ]
        },
        {
          "id": 8,
          "properties": [
            {
              "name": "name",
              "type": "string",
              "value": "floor_middle_left"
            },
            {
              "name": "category",
              "type": "string",
              "value": "solid"
            },
            {
              "name": "collides",
              "type": "bool",
              "value": true
            }
          ]
        },
        {
          "id": 9,
          "properties": [
            {
              "name": "name",
              "type": "string",
              "value": "floor_middle_middle"
            },
            {
              "name": "category",
              "type": "string",
              "value": "solid"
            },
            {
              "name": "collides",
              "type": "bool",
              "value": true
            }
          ]
        },
        {
          "id": 10,
          "properties": [
            {
              "name": "name",
              "type": "string",
              "value": "floor_middle_right"
            },
            {
              "name": "category",
              "type": "string",
              "value": "solid"
            },
            {
              "name": "collides",
              "type": "bool",
              "value": true
            }
          ]
        },
        {
          "id": 11,
          "properties": [
            {
              "name": "name",
              "type": "string",
              "value": "wall_middle_left"
            },
            {
              "name": "category",
              "type": "string",
              "value": "background"
            },
            {
              "name": "collides",
              "type": "bool",
              "value": false
            }
          ]
        },
        {
          "id": 12,
          "properties": [
            {
              "name": "name",
              "type": "string",
              "value": "wall_middle_middle"
            },
            {
              "name": "category",
              "type": "string",
              "value": "background"
            },
            {
              "name": "collides",
              "type": "bool",
              "value": false
            }
          ]
        },
        {
          "id": 13,
          "properties": [
            {
              "name": "name",
              "type": "string",
              "value": "wall_middle_right"
            },
            {
              "name": "category",
              "type": "string",
              "value": "background"
            },
            {
              "name": "collides",
              "type": "bool",
              "value": false
            }
          ]
        },
        {
          "id": 14,
          "properties": [
            {
              "name": "name",
              "type": "string",
              "value": "wall_light"
            },
            {
              "name": "category",
              "type": "string",
              "value": "background"
            },
            {
              "name": "collides",
              "type": "bool",
              "value": false
            }
          ]
        },
        {
          "id": 15,
          "properties": [
            {
              "name": "name",
              "type": "string",
              "value": "wall_warning"
            },
            {
              "name": "category",
              "type": "string",
              "value": "background"
            },
            {
              "name": "collides",
              "type": "bool",
              "value": false
            }
          ]
        },
        {
          "id": 16,
          "properties": [
            {
              "name": "name",
              "type": "string",
              "value": "floor_bottom_left"
            },
            {
              "name": "category",
              "type": "string",
              "value": "solid"
            },
            {
              "name": "collides",
              "type": "bool",
              "value": true
            }
          ]
        },
        {
          "id": 17,
          "properties": [
            {
              "name": "name",
              "type": "string",
              "value": "floor_bottom_middle"
            },
            {
              "name": "category",
              "type": "string",
              "value": "solid"
            },
            {
              "name": "collides",
              "type": "bool",
              "value": true
            }
          ]
        },
        {
          "id": 18,
          "properties": [
            {
              "name": "name",
              "type": "string",
              "value": "floor_bottom_right"
            },
            {
              "name": "category",
              "type": "string",
              "value": "solid"
            },
            {
              "name": "collides",
              "type": "bool",
              "value": true
            }
          ]
        },
        {
          "id": 19,
          "properties": [
            {
              "name": "name",
              "type": "string",
              "value": "wall_bottom_left"
            },
            {
              "name": "category",
              "type": "string",
              "value": "background"
            },
            {
              "name": "collides",
              "type": "bool",
              "value": false
            }
          ]
        },
        {
          "id": 20,
          "properties": [
            {
              "name": "name",
              "type": "string",
              "value": "wall_bottom_middle"
            },
            {
              "name": "category",
              "type": "string",
              "value": "background"
            },
            {
              "name": "collides",
              "type": "bool",
              "value": false
            }
          ]
        },
        {
          "id": 21,
          "properties": [
            {
              "name": "name",
              "type": "string",
              "value": "wall_bottom_right"
            },
            {
              "name": "category",
              "type": "string",
              "value": "background"
            },
            {
              "name": "collides",
              "type": "bool",
              "value": false
            }
          ]
        },
        {
          "id": 22,
          "properties": [
            {
              "name": "name",
              "type": "string",
              "value": "wall_conduit"
            },
            {
              "name": "category",
              "type": "string",
              "value": "background"
            },
            {
              "name": "collides",
              "type": "bool",
              "value": false
            }
          ]
        },
        {
          "id": 23,
          "properties": [
            {
              "name": "name",
              "type": "string",
              "value": "wall_access_panel"
            },
            {
              "name": "category",
              "type": "string",
              "value": "background"
            },
            {
              "name": "collides",
              "type": "bool",
              "value": false
            }
          ]
        },
        {
          "id": 24,
          "properties": [
            {
              "name": "name",
              "type": "string",
              "value": "platform_left"
            },
            {
              "name": "category",
              "type": "string",
              "value": "one_way"
            },
            {
              "name": "collides",
              "type": "bool",
              "value": false
            }
          ]
        },
        {
          "id": 25,
          "properties": [
            {
              "name": "name",
              "type": "string",
              "value": "platform_middle"
            },
            {
              "name": "category",
              "type": "string",
              "value": "one_way"
            },
            {
              "name": "collides",
              "type": "bool",
              "value": false
            }
          ]
        },
        {
          "id": 26,
          "properties": [
            {
              "name": "name",
              "type": "string",
              "value": "platform_right"
            },
            {
              "name": "category",
              "type": "string",
              "value": "one_way"
            },
            {
              "name": "collides",
              "type": "bool",
              "value": false
            }
          ]
        },
        {
          "id": 27,
          "properties": [
            {
              "name": "name",
              "type": "string",
              "value": "ladder"
            },
            {
              "name": "category",
              "type": "string",
              "value": "ladder"
            },
            {
              "name": "collides",
              "type": "bool",
              "value": false
            }
          ]
        },
        {
          "id": 28,
          "properties": [
            {
              "name": "name",
              "type": "string",
              "value": "beam_vertical"
            },
            {
              "name": "category",
              "type": "string",
              "value": "decoration"
            },
            {
              "name": "collides",
              "type": "bool",
              "value": false
            }
          ]
        },
        {
          "id": 29,
          "properties": [
            {
              "name": "name",
              "type": "string",
              "value": "beam_horizontal"
            },
            {
              "name": "category",
              "type": "string",
              "value": "decoration"
            },
            {
              "name": "collides",
              "type": "bool",
              "value": false
            }
          ]
        },
        {
          "id": 30,
          "properties": [
            {
              "name": "name",
              "type": "string",
              "value": "brace_left"
            },
            {
              "name": "category",
              "type": "string",
              "value": "decoration"
            },
            {
              "name": "collides",
              "type": "bool",
              "value": false
            }
          ]
        },
        {
          "id": 31,
          "properties": [
            {
              "name": "name",
              "type": "string",
              "value": "brace_right"
            },
            {
              "name": "category",
              "type": "string",
              "value": "decoration"
            },
            {
              "name": "collides",
              "type": "bool",
              "value": false
            }
          ]
        },
        {
          "id": 32,
          "properties": [
            {
              "name": "name",
              "type": "string",
              "value": "crate_steel"
            },
            {
              "name": "category",
              "type": "string",
              "value": "decoration"
            },
            {
              "name": "collides",
              "type": "bool",
              "value": false
            }
          ]
        },
        {
          "id": 33,
          "properties": [
            {
              "name": "name",
              "type": "string",
              "value": "crate_cargo"
            },
            {
              "name": "category",
              "type": "string",
              "value": "decoration"
            },
            {
              "name": "collides",
              "type": "bool",
              "value": false
            }
          ]
        },
        {
          "id": 34,
          "properties": [
            {
              "name": "name",
              "type": "string",
              "value": "barrel_energy"
            },
            {
              "name": "category",
              "type": "string",
              "value": "decoration"
            },
            {
              "name": "collides",
              "type": "bool",
              "value": false
            }
          ]
        },
        {
          "id": 35,
          "properties": [
            {
              "name": "name",
              "type": "string",
              "value": "server"
            },
            {
              "name": "category",
              "type": "string",
              "value": "decoration"
            },
            {
              "name": "collides",
              "type": "bool",
              "value": false
            }
          ]
        },
        {
          "id": 36,
          "properties": [
            {
              "name": "name",
              "type": "string",
              "value": "console"
            },
            {
              "name": "category",
              "type": "string",
              "value": "decoration"
            },
            {
              "name": "collides",
              "type": "bool",
              "value": false
            }
          ]
        },
        {
          "id": 37,
          "properties": [
            {
              "name": "name",
              "type": "string",
              "value": "ceiling_lamp"
            },
            {
              "name": "category",
              "type": "string",
              "value": "decoration"
            },
            {
              "name": "collides",
              "type": "bool",
              "value": false
            }
          ]
        },
        {
          "id": 38,
          "properties": [
            {
              "name": "name",
              "type": "string",
              "value": "door_top"
            },
            {
              "name": "category",
              "type": "string",
              "value": "background"
            },
            {
              "name": "collides",
              "type": "bool",
              "value": false
            }
          ]
        },
        {
          "id": 39,
          "properties": [
            {
              "name": "name",
              "type": "string",
              "value": "door_bottom"
            },
            {
              "name": "category",
              "type": "string",
              "value": "background"
            },
            {
              "name": "collides",
              "type": "bool",
              "value": false
            }
          ]
        },
        {
          "id": 40,
          "properties": [
            {
              "name": "name",
              "type": "string",
              "value": "pipe_horizontal"
            },
            {
              "name": "category",
              "type": "string",
              "value": "decoration"
            },
            {
              "name": "collides",
              "type": "bool",
              "value": false
            }
          ]
        },
        {
          "id": 41,
          "properties": [
            {
              "name": "name",
              "type": "string",
              "value": "pipe_vertical"
            },
            {
              "name": "category",
              "type": "string",
              "value": "decoration"
            },
            {
              "name": "collides",
              "type": "bool",
              "value": false
            }
          ]
        },
        {
          "id": 42,
          "properties": [
            {
              "name": "name",
              "type": "string",
              "value": "pipe_elbow_right_down"
            },
            {
              "name": "category",
              "type": "string",
              "value": "decoration"
            },
            {
              "name": "collides",
              "type": "bool",
              "value": false
            }
          ]
        },
        {
          "id": 43,
          "properties": [
            {
              "name": "name",
              "type": "string",
              "value": "pipe_elbow_left_down"
            },
            {
              "name": "category",
              "type": "string",
              "value": "decoration"
            },
            {
              "name": "collides",
              "type": "bool",
              "value": false
            }
          ]
        },
        {
          "id": 44,
          "properties": [
            {
              "name": "name",
              "type": "string",
              "value": "pipe_elbow_right_up"
            },
            {
              "name": "category",
              "type": "string",
              "value": "decoration"
            },
            {
              "name": "collides",
              "type": "bool",
              "value": false
            }
          ]
        },
        {
          "id": 45,
          "properties": [
            {
              "name": "name",
              "type": "string",
              "value": "pipe_elbow_left_up"
            },
            {
              "name": "category",
              "type": "string",
              "value": "decoration"
            },
            {
              "name": "collides",
              "type": "bool",
              "value": false
            }
          ]
        },
        {
          "id": 46,
          "properties": [
            {
              "name": "name",
              "type": "string",
              "value": "pipe_junction"
            },
            {
              "name": "category",
              "type": "string",
              "value": "decoration"
            },
            {
              "name": "collides",
              "type": "bool",
              "value": false
            }
          ]
        },
        {
          "id": 47,
          "properties": [
            {
              "name": "name",
              "type": "string",
              "value": "pipe_valve"
            },
            {
              "name": "category",
              "type": "string",
              "value": "decoration"
            },
            {
              "name": "collides",
              "type": "bool",
              "value": false
            }
          ]
        },
        {
          "id": 48,
          "properties": [
            {
              "name": "category",
              "type": "string",
              "value": "solid"
            },
            {
              "name": "collides",
              "type": "bool",
              "value": true
            }
          ]
        },
        {
          "id": 49,
          "properties": [
            {
              "name": "category",
              "type": "string",
              "value": "solid"
            },
            {
              "name": "collides",
              "type": "bool",
              "value": true
            }
          ]
        },
        {
          "id": 50,
          "properties": [
            {
              "name": "category",
              "type": "string",
              "value": "solid"
            },
            {
              "name": "collides",
              "type": "bool",
              "value": true
            }
          ]
        },
        {
          "id": 51,
          "properties": [
            {
              "name": "category",
              "type": "string",
              "value": "solid"
            },
            {
              "name": "collides",
              "type": "bool",
              "value": true
            }
          ]
        },
        {
          "id": 52,
          "properties": [
            {
              "name": "category",
              "type": "string",
              "value": "solid"
            },
            {
              "name": "collides",
              "type": "bool",
              "value": true
            }
          ]
        },
        {
          "id": 53,
          "properties": [
            {
              "name": "category",
              "type": "string",
              "value": "solid"
            },
            {
              "name": "collides",
              "type": "bool",
              "value": true
            }
          ]
        },
        {
          "id": 54,
          "properties": [
            {
              "name": "category",
              "type": "string",
              "value": "solid"
            },
            {
              "name": "collides",
              "type": "bool",
              "value": true
            }
          ]
        },
        {
          "id": 55,
          "properties": [
            {
              "name": "category",
              "type": "string",
              "value": "solid"
            },
            {
              "name": "collides",
              "type": "bool",
              "value": true
            }
          ]
        },
        {
          "id": 56,
          "properties": [
            {
              "name": "category",
              "type": "string",
              "value": "decoration"
            },
            {
              "name": "collides",
              "type": "bool",
              "value": false
            }
          ]
        },
        {
          "id": 57,
          "properties": [
            {
              "name": "category",
              "type": "string",
              "value": "decoration"
            },
            {
              "name": "collides",
              "type": "bool",
              "value": false
            }
          ]
        },
        {
          "id": 58,
          "properties": [
            {
              "name": "category",
              "type": "string",
              "value": "decoration"
            },
            {
              "name": "collides",
              "type": "bool",
              "value": false
            }
          ]
        },
        {
          "id": 59,
          "properties": [
            {
              "name": "category",
              "type": "string",
              "value": "decoration"
            },
            {
              "name": "collides",
              "type": "bool",
              "value": false
            }
          ]
        },
        {
          "id": 60,
          "properties": [
            {
              "name": "category",
              "type": "string",
              "value": "decoration"
            },
            {
              "name": "collides",
              "type": "bool",
              "value": false
            }
          ]
        },
        {
          "id": 61,
          "properties": [
            {
              "name": "category",
              "type": "string",
              "value": "decoration"
            },
            {
              "name": "collides",
              "type": "bool",
              "value": false
            }
          ]
        },
        {
          "id": 62,
          "properties": [
            {
              "name": "category",
              "type": "string",
              "value": "decoration"
            },
            {
              "name": "collides",
              "type": "bool",
              "value": false
            }
          ]
        },
        {
          "id": 63,
          "properties": [
            {
              "name": "category",
              "type": "string",
              "value": "decoration"
            },
            {
              "name": "collides",
              "type": "bool",
              "value": false
            }
          ]
        },
        {
          "id": 64,
          "properties": [
            {
              "name": "category",
              "type": "string",
              "value": "decoration"
            },
            {
              "name": "collides",
              "type": "bool",
              "value": false
            }
          ]
        },
        {
          "id": 65,
          "properties": [
            {
              "name": "category",
              "type": "string",
              "value": "decoration"
            },
            {
              "name": "collides",
              "type": "bool",
              "value": false
            }
          ]
        },
        {
          "id": 66,
          "properties": [
            {
              "name": "category",
              "type": "string",
              "value": "decoration"
            },
            {
              "name": "collides",
              "type": "bool",
              "value": false
            }
          ]
        },
        {
          "id": 67,
          "properties": [
            {
              "name": "category",
              "type": "string",
              "value": "decoration"
            },
            {
              "name": "collides",
              "type": "bool",
              "value": false
            }
          ]
        },
        {
          "id": 68,
          "properties": [
            {
              "name": "category",
              "type": "string",
              "value": "decoration"
            },
            {
              "name": "collides",
              "type": "bool",
              "value": false
            }
          ]
        },
        {
          "id": 69,
          "properties": [
            {
              "name": "category",
              "type": "string",
              "value": "decoration"
            },
            {
              "name": "collides",
              "type": "bool",
              "value": false
            }
          ]
        },
        {
          "id": 70,
          "properties": [
            {
              "name": "category",
              "type": "string",
              "value": "decoration"
            },
            {
              "name": "collides",
              "type": "bool",
              "value": false
            }
          ]
        },
        {
          "id": 71,
          "properties": [
            {
              "name": "category",
              "type": "string",
              "value": "decoration"
            },
            {
              "name": "collides",
              "type": "bool",
              "value": false
            }
          ]
        },
        {
          "id": 72,
          "properties": [
            {
              "name": "category",
              "type": "string",
              "value": "decoration"
            },
            {
              "name": "collides",
              "type": "bool",
              "value": false
            }
          ]
        },
        {
          "id": 73,
          "properties": [
            {
              "name": "category",
              "type": "string",
              "value": "solid"
            },
            {
              "name": "collides",
              "type": "bool",
              "value": true
            }
          ]
        },
        {
          "id": 74,
          "properties": [
            {
              "name": "category",
              "type": "string",
              "value": "solid"
            },
            {
              "name": "collides",
              "type": "bool",
              "value": true
            }
          ]
        },
        {
          "id": 75,
          "properties": [
            {
              "name": "category",
              "type": "string",
              "value": "solid"
            },
            {
              "name": "collides",
              "type": "bool",
              "value": true
            }
          ]
        },
        {
          "id": 76,
          "properties": [
            {
              "name": "category",
              "type": "string",
              "value": "decoration"
            },
            {
              "name": "collides",
              "type": "bool",
              "value": false
            }
          ]
        },
        {
          "id": 77,
          "properties": [
            {
              "name": "category",
              "type": "string",
              "value": "decoration"
            },
            {
              "name": "collides",
              "type": "bool",
              "value": false
            }
          ]
        },
        {
          "id": 78,
          "properties": [
            {
              "name": "category",
              "type": "string",
              "value": "decoration"
            },
            {
              "name": "collides",
              "type": "bool",
              "value": false
            }
          ]
        },
        {
          "id": 79,
          "properties": [
            {
              "name": "category",
              "type": "string",
              "value": "decoration"
            },
            {
              "name": "collides",
              "type": "bool",
              "value": false
            }
          ]
        }
      ],
      "firstgid": 1
    }
  ]
}
