{
  "type": "map",
  "version": "1.10",
  "tiledversion": "1.10.2",
  "orientation": "orthogonal",
  "renderorder": "right-down",
  "infinite": false,
  "width": 160,
  "height": 16,
  "tilewidth": 16,
  "tileheight": 16,
  "backgroundcolor": "#101923",
  "nextlayerid": 6,
  "nextobjectid": 17,
  "layers": [
    {
      "id": 1,
      "name": "Background",
      "type": "tilelayer",
      "width": 160,
      "height": 16,
      "x": 0,
      "y": 0,
      "visible": true,
      "opacity": 1,
      "data": [
        0,
        0,
        0,
        0,
        0,
        0,
        0,
        0,
        0,
        0,
        0,
        0,
        0,
        0,
        0,
        0,
        0,
        0,
        0,
        0,
        0,
        0,
        0,
        0,
        0,
        0,
        0,
        0,
        0,
        0,
        0,
        0,
        0,
        0,
        0,
        0,
        0,
        0,
        0,
        0,
        0,
        0,
        0,
        0,
        0,
        0,
        0,
        0,
        0,
        0,
        0,
        0,
        0,
        0,
        0,
        0,
        0,
        0,
        0,
        0,
        0,
        0,
        0,
        0,
        0,
        0,
        0,
        0,
        0,
        0,
        0,
        0,
        0,
        0,
        0,
        0,
        0,
        0,
        0,
        0,
        0,
        0,
        0,
        0,
        0,
        0,
        0,
        0,
        0,
        0,
        0,
        0,
        0,
        0,
        0,
        0,
        0,
        0,
        0,
        0,
        0,
        0,
        0,
        0,
        0,
        0,
        0,
        0,
        0,
        0,
        0,
        0,
        0,
        0,
        0,
        0,
        0,
        0,
        0,
        0,
        0,
        0,
        0,
        0,
        0,
        0,
        0,
        0,
        0,
        0,
        0,
        0,
        0,
        0,
        0,
        0,
        0,
        0,
        0,
        0,
        0,
        0,
        0,
        0,
        0,
        0,
        0,
        0,
        0,
        0,
        0,
        0,
        0,
        0,
        0,
        0,
        0,
        0,
        0,
        0,
        0,
        0,
        0,
        0,
        0,
        0,
        0,
        0,
        0,
        0,
        0,
        0,
        0,
        0,
        0,
        0,
        0,
        0,
        0,
        0,
        0,
        0,
        0,
        0,
        0,
        0,
        0,
        0,
        0,
        0,
        0,
        0,
        0,
        0,
        0,
        0,
        0,
        0,
        0,
        0,
        0,
        0,
        0,
        0,
        0,
        0,
        0,
        0,
        0,
        0,
        0,
        0,
        0,
        0,
        0,
        0,
        0,
        0,
        0,
        0,
        0,
        0,
        0,
        0,
        0,
        0,
        0,
        0,
        0,
        0,
        0,
        0,
        0,
        0,
        0,
        0,
        0,
        0,
        0,
        0,
        0,
        0,
        0,
        0,
        0,
        0,
        0,
        0,
        0,
        0,
        0,
        0,
        0,
        0,
        0,
        0,
        0,
        0,
        0,
        0,
        0,
        0,
        0,
        0,
        0,
        0,
        0,
        0,
        0,
        0,
        0,
        0,
        0,
        0,
        0,
        0,
        0,
        0,
        0,
        0,
        0,
        0,
        0,
        0,
        0,
        0,
        0,
        0,
        0,
        0,
        0,
        0,
        0,
        0,
        0,
        0,
        0,
        0,
        0,
        0,
        0,
        0,
        0,
        0,
        0,
        0,
        0,
        0,
        0,
        0,
        0,
        0,
        0,
        0,
        0,
        0,
        0,
        0,
        0,
        0,
        0,
        0,
        0,
        0,
        0,
        0,
        0,
        0,
        0,
        0,
        0,
        0,
        0,
        0,
        0,
        0,
        0,
        0,
        0,
        0,
        0,
        0,
        0,
        0,
        0,
        0,
        0,
        0,
        0,
        0,
        0,
        0,
        0,
        0,
        0,
        0,
        0,
        0,
        0,
        0,
        0,
        0,
        0,
        0,
        0,
        0,
        0,
        0,
        0,
        0,
        0,
        0,
        0,
        0,
        59,
        60,
        59,
        0,
        0,
        0,
        0,
        0,
        0,
        60,
        59,
        60,
        0,
        0,
        0,
        0,
        0,
        0,
        59,
        60,
        59,
        0,
        0,
        0,
        0,
        0,
        0,
        60,
        59,
        60,
        0,
        0,
        0,
        0,
        0,
        0,
        59,
        60,
        59,
        0,
        0,
        0,
        0,
        0,
        0,
        60,
        59,
        60,
        0,
        0,
        0,
        0,
        0,
        0,
        59,
        60,
        59,
        0,
        0,
        0,
        0,
        0,
        0,
        60,
        59,
        60,
        0,
        0,
        0,
        0,
        0,
        0,
        59,
        60,
        59,
        0,
        0,
        0,
        0,
        0,
        0,
        60,
        59,
        60,
        0,
        0,
        0,
        0,
        0,
        0,
        59,
        60,
        0,
        0,
        0,
        0,
        0,
        0,
        0,
        0,
        0,
        0,
        0,
        0,
        0,
        0,
        0,
        0,
        0,
        0,
        0,
        0,
        0,
        0,
        0,
        0,
        0,
        0,
        0,
        0,
        0,
        0,
        0,
        0,
        0,
        0,
        0,
        0,
        0,
        0,
        0,
        0,
        0,
        0,
        0,
        0,
        0,
        0,
        0,
        0,
        0,
        0,
        0,
        0,
        0,
        0,
        0,
        0,
        0,
        0,
        0,
        0,
        0,
        0,
        0,
        0,
        0,
        0,
        0,
        0,
        59,
        60,
        59,
        0,
        0,
        0,
        0,
        0,
        0,
        60,
        59,
        60,
        0,
        0,
        0,
        0,
        0,
        0,
        59,
        60,
        59,
        0,
        0,
        0,
        0,
        0,
        0,
        60,
        59,
        60,
        0,
        0,
        0,
        0,
        0,
        0,
        59,
        60,
        59,
        0,
        0,
        0,
        0,
        0,
        0,
        60,
        59,
        60,
        0,
        0,
        0,
        0,
        0,
        0,
        59,
        60,
        59,
        0,
        0,
        0,
        0,
        0,
        0,
        60,
        59,
        60,
        0,
        0,
        0,
        0,
        0,
        0,
        59,
        60,
        59,
        0,
        0,
        0,
        0,
        0,
        0,
        60,
        59,
        60,
        0,
        0,
        0,
        0,
        0,
        0,
        59,
        60,
        0,
        0,
        0,
        0,
        0,
        0,
        0,
        0,
        0,
        0,
        0,
        0,
        0,
        0,
        0,
        0,
        0,
        0,
        0,
        0,
        0,
        0,
        0,
        0,
        0,
        0,
        0,
        0,
        0,
        0,
        0,
        0,
        0,
        0,
        0,
        0,
        0,
        0,
        0,
        0,
        0,
        0,
        0,
        0,
        0,
        0,
        0,
        0,
        0,
        0,
        0,
        0,
        0,
        0,
        0,
        0,
        0,
        0,
        0,
        0,
        0,
        0,
        0,
        0,
        0,
        0,
        0,
        0,
        59,
        60,
        59,
        0,
        0,
        0,
        0,
        0,
        0,
        60,
        59,
        60,
        0,
        0,
        0,
        0,
        0,
        0,
        59,
        60,
        59,
        0,
        0,
        0,
        0,
        0,
        0,
        60,
        59,
        60,
        0,
        0,
        0,
        0,
        0,
        0,
        59,
        60,
        59,
        0,
        0,
        0,
        0,
        0,
        0,
        60,
        59,
        60,
        0,
        0,
        0,
        0,
        0,
        0,
        59,
        60,
        59,
        0,
        0,
        0,
        0,
        0,
        0,
        60,
        59,
        60,
        0,
        0,
        0,
        0,
        0,
        0,
        59,
        60,
        59,
        0,
        0,
        0,
        0,
        0,
        0,
        60,
        59,
        60,
        0,
        0,
        0,
        0,
        0,
        0,
        59,
        60,
        0,
        0,
        0,
        0,
        0,
        0,
        0,
        0,
        0,
        0,
        0,
        0,
        0,
        0,
        0,
        0,
        0,
        0,
        0,
        0,
        0,
        0,
        0,
        0,
        0,
        0,
        0,
        0,
        0,
        0,
        0,
        0,
        0,
        0,
        0,
        0,
        0,
        0,
        0,
        0,
        0,
        0,
        0,
        0,
        0,
        0,
        0,
        0,
        0,
        0,
        0,
        0,
        0,
        0,
        0,
        0,
        0,
        0,
        0,
        0,
        0,
        0,
        0,
        0,
        0,
        0,
        0,
        0,
        59,
        60,
        59,
        0,
        0,
        0,
        0,
        0,
        0,
        60,
        59,
        60,
        0,
        0,
        0,
        0,
        0,
        0,
        59,
        60,
        59,
        0,
        0,
        0,
        0,
        0,
        0,
        60,
        59,
        60,
        0,
        0,
        0,
        0,
        0,
        0,
        59,
        60,
        59,
        0,
        0,
        0,
        0,
        0,
        0,
        60,
        59,
        60,
        0,
        0,
        0,
        0,
        0,
        0,
        59,
        60,
        59,
        0,
        0,
        0,
        0,
        0,
        0,
        60,
        59,
        60,
        0,
        0,
        0,
        0,
        0,
        0,
        59,
        60,
        59,
        0,
        0,
        0,
        0,
        0,
        0,
        60,
        59,
        60,
        0,
        0,
        0,
        0,
        0,
        0,
        59,
        60,
        0,
        0,
        0,
        0,
        0,
        0,
        5,
        5,
        5,
        5,
        5,
        5,
        5,
        5,
        0,
        0,
        0,
        0,
        0,
        0,
        0,
        0,
        0,
        65,
        65,
        65,
        65,
        65,
        0,
        0,
        0,
        0,
        0,
        0,
        0,
        0,
        0,
        0,
        0,
        0,
        0,
        0,
        0,
        0,
        0,
        65,
        65,
        65,
        65,
        65,
        0,
        0,
        0,
        0,
        0,
        0,
        0,
        0,
        0,
        0,
        0,
        0,
        0,
        0,
        0,
        0,
        0,
        0,
        59,
        60,
        59,
        0,
        0,
        0,
        0,
        0,
        0,
        60,
        59,
        60,
        0,
        0,
        0,
        0,
        0,
        0,
        59,
        60,
        59,
        0,
        0,
        0,
        0,
        0,
        0,
        60,
        59,
        60,
        0,
        0,
        0,
        0,
        0,
        0,
        59,
        60,
        59,
        0,
        0,
        0,
        0,
        0,
        0,
        60,
        59,
        60,
        0,
        0,
        0,
        0,
        0,
        0,
        59,
        60,
        59,
        0,
        0,
        0,
        0,
        0,
        0,
        60,
        59,
        60,
        0,
        0,
        0,
        0,
        0,
        0,
        59,
        60,
        59,
        0,
        0,
        0,
        0,
        0,
        0,
        60,
        59,
        60,
        0,
        0,
        0,
        0,
        0,
        0,
        59,
        60,
        0,
        0,
        0,
        0,
        0,
        0,
        13,
        13,
        13,
        13,
        13,
        13,
        13,
        13,
        0,
        0,
        0,
        0,
        0,
        0,
        65,
        65,
        65,
        65,
        65,
        65,
        65,
        65,
        65,
        65,
        65,
        0,
        0,
        0,
        0,
        0,
        0,
        0,
        0,
        0,
        0,
        0,
        65,
        65,
        65,
        65,
        65,
        65,
        65,
        65,
        65,
        65,
        65,
        0,
        0,
        0,
        0,
        0,
        0,
        0,
        0,
        0,
        0,
        0,
        0,
        0,
        0,
        0,
        59,
        60,
        59,
        0,
        0,
        0,
        0,
        0,
        0,
        60,
        59,
        60,
        0,
        0,
        0,
        0,
        0,
        0,
        59,
        60,
        59,
        0,
        0,
        0,
        0,
        0,
        0,
        60,
        59,
        60,
        0,
        0,
        0,
        0,
        0,
        0,
        59,
        60,
        59,
        0,
        0,
        0,
        0,
        0,
        0,
        60,
        59,
        60,
        0,
        0,
        0,
        0,
        0,
        0,
        59,
        60,
        59,
        0,
        0,
        0,
        0,
        0,
        0,
        60,
        59,
        60,
        0,
        0,
        0,
        0,
        0,
        0,
        59,
        60,
        59,
        0,
        0,
        0,
        0,
        0,
        0,
        60,
        59,
        60,
        0,
        0,
        0,
        0,
        0,
        0,
        59,
        60,
        0,
        0,
        0,
        0,
        0,
        0,
        13,
        13,
        13,
        13,
        13,
        13,
        13,
        13,
        0,
        0,
        0,
        65,
        65,
        65,
        65,
        65,
        65,
        65,
        65,
        65,
        65,
        65,
        65,
        65,
        65,
        65,
        65,
        65,
        0,
        0,
        0,
        0,
        0,
        65,
        65,
        65,
        65,
        65,
        65,
        65,
        65,
        65,
        65,
        65,
        65,
        65,
        65,
        65,
        65,
        65,
        0,
        0,
        0,
        0,
        0,
        65,
        0,
        0,
        0,
        0,
        0,
        0,
        59,
        60,
        59,
        0,
        0,
        0,
        0,
        0,
        0,
        0,
        0,
        0,
        0,
        0,
        0,
        0,
        0,
        0,
        59,
        60,
        59,
        0,
        0,
        0,
        0,
        0,
        0,
        60,
        59,
        60,
        0,
        0,
        0,
        0,
        0,
        0,
        59,
        60,
        59,
        0,
        0,
        0,
        0,
        0,
        0,
        0,
        0,
        0,
        0,
        0,
        0,
        0,
        0,
        0,
        59,
        60,
        59,
        0,
        0,
        0,
        0,
        0,
        0,
        60,
        59,
        60,
        0,
        0,
        0,
        0,
        0,
        0,
        59,
        60,
        59,
        0,
        0,
        0,
        0,
        0,
        0,
        0,
        0,
        0,
        0,
        0,
        0,
        0,
        0,
        0,
        59,
        60,
        0,
        0,
        0,
        0,
        0,
        0,
        13,
        13,
        13,
        13,
        13,
        13,
        13,
        13,
        65,
        65,
        65,
        65,
        65,
        65,
        65,
        65,
        65,
        65,
        65,
        65,
        65,
        65,
        65,
        65,
        65,
        65,
        65,
        65,
        65,
        65,
        65,
        65,
        65,
        65,
        65,
        65,
        65,
        65,
        65,
        65,
        65,
        65,
        65,
        65,
        65,
        65,
        65,
        65,
        65,
        65,
        65,
        65,
        65,
        65,
        65,
        65,
        0,
        0,
        0,
        0,
        0,
        0,
        59,
        60,
        59,
        0,
        0,
        0,
        0,
        0,
        0,
        0,
        0,
        0,
        0,
        0,
        0,
        0,
        0,
        0,
        59,
        60,
        59,
        0,
        0,
        0,
        0,
        0,
        0,
        60,
        59,
        60,
        0,
        0,
        0,
        0,
        0,
        0,
        59,
        60,
        59,
        0,
        0,
        0,
        0,
        0,
        0,
        0,
        0,
        0,
        0,
        0,
        0,
        0,
        0,
        0,
        59,
        60,
        59,
        0,
        0,
        0,
        0,
        0,
        0,
        60,
        59,
        60,
        0,
        0,
        0,
        0,
        0,
        0,
        59,
        60,
        59,
        0,
        0,
        0,
        0,
        0,
        0,
        0,
        0,
        0,
        0,
        0,
        0,
        0,
        0,
        0,
        59,
        60,
        0,
        0,
        0,
        0,
        0,
        0,
        13,
        13,
        13,
        13,
        13,
        13,
        13,
        13,
        65,
        65,
        65,
        65,
        65,
        65,
        65,
        65,
        65,
        65,
        65,
        65,
        65,
        65,
        65,
        65,
        65,
        65,
        65,
        65,
        65,
        65,
        65,
        65,
        65,
        65,
        65,
        65,
        65,
        65,
        65,
        65,
        65,
        65,
        65,
        65,
        65,
        65,
        65,
        65,
        65,
        65,
        65,
        65,
        65,
        65,
        65,
        65,
        0,
        0,
        0,
        0,
        0,
        0,
        0,
        0,
        0,
        0,
        0,
        0,
        0,
        0,
        0,
        0,
        0,
        0,
        0,
        0,
        0,
        0,
        0,
        0,
        0,
        0,
        0,
        0,
        0,
        0,
        0,
        0,
        0,
        60,
        59,
        60,
        0,
        0,
        0,
        0,
        0,
        0,
        0,
        0,
        0,
        0,
        0,
        0,
        0,
        0,
        0,
        0,
        0,
        0,
        0,
        0,
        0,
        0,
        0,
        0,
        0,
        0,
        0,
        0,
        0,
        0,
        0,
        0,
        0,
        60,
        59,
        60,
        0,
        0,
        0,
        0,
        0,
        0,
        0,
        0,
        0,
        0,
        0,
        0,
        0,
        0,
        0,
        0,
        0,
        0,
        0,
        0,
        0,
        0,
        0,
        0,
        0,
        0,
        0,
        0,
        0,
        0,
        0,
        0,
        13,
        13,
        13,
        13,
        13,
        13,
        13,
        13,
        65,
        65,
        65,
        65,
        65,
        65,
        65,
        65,
        65,
        65,
        65,
        65,
        65,
        65,
        65,
        65,
        65,
        65,
        65,
        65,
        65,
        65,
        65,
        65,
        65,
        65,
        65,
        65,
        65,
        65,
        65,
        65,
        65,
        65,
        65,
        65,
        65,
        65,
        65,
        65,
        65,
        65,
        65,
        65,
        65,
        65,
        65,
        65,
        0,
        0,
        0,
        0,
        0,
        0,
        0,
        0,
        0,
        0,
        0,
        0,
        0,
        0,
        0,
        0,
        0,
        0,
        0,
        0,
        0,
        0,
        0,
        0,
        0,
        0,
        0,
        0,
        0,
        0,
        0,
        0,
        0,
        60,
        59,
        60,
        0,
        0,
        0,
        0,
        0,
        0,
        0,
        0,
        0,
        0,
        0,
        0,
        0,
        0,
        0,
        0,
        0,
        0,
        0,
        0,
        0,
        0,
        0,
        0,
        0,
        0,
        0,
        0,
        0,
        0,
        0,
        0,
        0,
        60,
        59,
        60,
        0,
        0,
        0,
        0,
        0,
        0,
        0,
        0,
        0,
        0,
        0,
        0,
        0,
        0,
        0,
        0,
        0,
        0,
        0,
        0,
        0,
        0,
        0,
        0,
        0,
        0,
        0,
        0,
        0,
        0,
        0,
        0,
        13,
        13,
        13,
        13,
        13,
        13,
        13,
        13,
        0,
        0,
        0,
        0,
        0,
        0,
        0,
        0,
        0,
        0,
        0,
        0,
        0,
        0,
        0,
        0,
        0,
        0,
        0,
        0,
        0,
        0,
        0,
        0,
        0,
        0,
        0,
        0,
        0,
        0,
        0,
        0,
        0,
        0,
        0,
        0,
        0,
        0,
        0,
        0,
        0,
        0,
        0,
        0,
        0,
        0,
        0,
        0,
        0,
        0,
        0,
        0,
        0,
        0,
        0,
        0,
        0,
        0,
        0,
        0,
        0,
        0,
        0,
        0,
        0,
        0,
        0,
        0,
        0,
        0,
        0,
        0,
        0,
        0,
        0,
        0,
        0,
        0,
        0,
        0,
        0,
        0,
        0,
        0,
        0,
        0,
        0,
        0,
        0,
        0,
        0,
        0,
        0,
        0,
        0,
        0,
        0,
        0,
        0,
        0,
        0,
        0,
        0,
        0,
        0,
        0,
        0,
        0,
        0,
        0,
        0,
        0,
        0,
        0,
        0,
        0,
        0,
        0,
        0,
        0,
        0,
        0,
        0,
        0,
        0,
        0,
        0,
        0,
        0,
        0,
        0,
        0,
        0,
        0,
        0,
        0,
        0,
        0,
        0,
        0,
        0,
        0,
        0,
        0,
        0,
        0,
        0,
        0,
        0,
        0,
        0,
        0,
        0,
        0,
        0,
        0,
        0,
        0,
        0,
        0,
        0,
        0,
        0,
        0,
        0,
        0,
        0,
        0,
        0,
        0,
        0,
        0,
        0,
        0,
        0,
        0,
        0,
        0,
        0,
        0,
        0,
        0,
        0,
        0,
        57,
        57,
        57,
        57,
        57,
        57,
        0,
        0,
        0,
        0,
        0,
        0,
        0,
        0,
        57,
        57,
        57,
        57,
        57,
        57,
        0,
        0,
        0,
        0,
        0,
        0,
        0,
        0,
        0,
        0,
        0,
        0,
        0,
        0,
        0,
        0,
        0,
        0,
        0,
        0,
        0,
        0,
        0,
        0,
        0,
        0,
        0,
        0,
        0,
        0,
        0,
        0,
        0,
        0,
        0,
        0,
        0,
        0,
        0,
        0,
        0,
        0,
        0,
        0,
        0,
        0,
        0,
        0,
        0,
        0,
        0,
        0,
        0,
        0,
        0,
        0,
        0,
        0,
        0,
        0,
        0,
        0,
        0,
        0,
        0,
        0,
        0,
        0,
        0,
        0,
        0,
        0,
        0,
        0,
        0,
        0,
        0,
        0,
        0,
        0,
        0,
        0,
        0,
        0,
        0,
        0,
        0,
        0,
        0,
        0,
        0,
        0,
        0,
        0,
        0,
        0,
        0,
        0,
        0,
        0,
        0,
        0,
        0,
        0,
        0,
        0,
        0,
        0,
        0,
        0,
        0,
        0,
        0,
        0,
        0,
        0,
        0,
        0,
        0,
        0,
        0,
        0,
        0,
        0,
        0,
        0,
        0,
        0,
        0,
        0,
        0,
        0,
        0,
        0,
        0,
        0,
        0,
        0,
        0,
        0,
        0,
        0,
        0,
        0,
        0,
        0,
        0,
        0,
        0,
        0,
        0,
        0,
        0,
        0,
        0,
        0,
        0,
        0,
        0,
        0,
        0,
        0,
        0,
        0,
        0,
        0,
        0,
        0,
        0,
        0,
        0,
        0,
        0,
        0,
        0,
        0,
        0,
        0,
        0,
        0,
        0,
        0,
        0,
        0,
        0,
        0,
        0,
        0,
        0,
        0,
        0,
        0,
        0,
        0,
        0,
        0,
        0,
        0,
        0,
        0,
        0,
        0,
        0,
        0,
        0,
        0,
        0,
        0,
        0,
        0,
        0,
        0,
        0,
        0,
        0,
        0,
        0,
        0,
        0,
        0,
        0,
        0,
        0,
        0,
        0,
        0,
        0,
        0,
        0,
        0,
        0,
        0,
        0,
        0,
        0,
        0,
        0,
        0,
        0,
        0,
        0,
        0,
        0,
        0,
        0,
        0,
        0,
        0,
        0,
        0,
        0,
        0,
        0,
        0,
        0,
        0,
        0,
        0,
        0,
        0,
        0,
        0,
        0,
        0,
        0,
        0,
        0,
        0,
        0,
        0,
        0,
        0,
        0,
        0,
        0,
        0,
        0,
        0,
        0,
        0,
        0,
        0,
        0,
        0,
        0,
        0,
        0,
        0,
        0,
        0,
        0,
        0,
        0,
        0,
        0,
        0,
        0,
        0,
        0,
        0,
        0,
        0,
        0,
        0,
        0,
        0,
        0,
        0,
        0,
        0,
        0,
        0,
        0,
        0,
        0,
        0,
        0,
        0,
        0,
        0,
        0,
        0,
        0,
        0,
        0,
        0,
        0,
        0,
        0,
        0,
        0,
        0,
        0,
        0,
        0,
        0,
        0,
        0,
        0,
        0,
        0,
        0,
        0,
        0,
        0,
        0,
        0,
        0,
        0,
        0,
        0,
        0,
        0,
        0,
        0,
        0,
        0,
        0,
        0,
        0,
        0,
        0,
        0,
        0,
        0,
        0,
        0,
        0,
        0,
        0,
        0,
        0,
        0,
        0,
        0,
        0,
        0,
        0,
        0,
        0,
        0,
        0,
        0,
        0,
        0,
        0,
        0,
        0,
        0,
        0,
        0,
        0,
        0,
        0,
        0,
        0,
        0,
        0,
        0,
        0,
        0,
        0,
        0,
        0,
        0,
        0,
        0,
        0,
        0,
        0,
        0,
        0,
        0,
        0,
        0,
        0,
        0,
        0,
        0,
        0,
        0,
        0,
        0,
        0,
        0,
        0,
        0,
        0,
        0,
        0,
        0,
        0,
        0,
        0,
        0,
        0
      ]
    },
    {
      "id": 2,
      "name": "Terrain",
      "type": "tilelayer",
      "width": 160,
      "height": 16,
      "x": 0,
      "y": 0,
      "visible": true,
      "opacity": 1,
      "data": [
        0,
        0,
        0,
        0,
        0,
        0,
        0,
        0,
        0,
        0,
        0,
        0,
        0,
        0,
        0,
        0,
        0,
        0,
        0,
        0,
        0,
        0,
        0,
        0,
        0,
        0,
        0,
        0,
        0,
        0,
        0,
        0,
        0,
        0,
        0,
        0,
        0,
        0,
        0,
        0,
        0,
        0,
        0,
        0,
        0,
        0,
        0,
        0,
        0,
        0,
        0,
        0,
        0,
        0,
        0,
        0,
        0,
        0,
        0,
        0,
        0,
        0,
        0,
        0,
        0,
        0,
        0,
        0,
        0,
        0,
        0,
        0,
        0,
        0,
        0,
        0,
        0,
        0,
        0,
        0,
        0,
        0,
        0,
        0,
        0,
        0,
        0,
        0,
        0,
        0,
        0,
        0,
        0,
        0,
        0,
        0,
        0,
        0,
        0,
        0,
        0,
        0,
        0,
        0,
        0,
        0,
        0,
        0,
        0,
        0,
        0,
        0,
        0,
        0,
        0,
        0,
        0,
        0,
        0,
        0,
        0,
        0,
        0,
        0,
        0,
        0,
        0,
        0,
        0,
        0,
        0,
        0,
        0,
        0,
        0,
        0,
        0,
        0,
        0,
        0,
        0,
        0,
        0,
        0,
        0,
        0,
        0,
        0,
        0,
        0,
        0,
        0,
        0,
        0,
        0,
        0,
        0,
        0,
        0,
        0,
        0,
        0,
        0,
        0,
        0,
        0,
        0,
        0,
        0,
        0,
        0,
        0,
        0,
        0,
        0,
        0,
        0,
        0,
        0,
        0,
        0,
        0,
        0,
        0,
        0,
        0,
        0,
        0,
        0,
        0,
        0,
        0,
        0,
        0,
        0,
        0,
        0,
        0,
        0,
        0,
        0,
        0,
        0,
        0,
        0,
        0,
        0,
        0,
        0,
        0,
        0,
        0,
        0,
        0,
        0,
        0,
        0,
        0,
        0,
        0,
        0,
        0,
        0,
        0,
        0,
        0,
        0,
        0,
        0,
        0,
        0,
        0,
        0,
        0,
        0,
        0,
        0,
        0,
        0,
        0,
        0,
        0,
        0,
        0,
        0,
        0,
        0,
        0,
        0,
        0,
        0,
        0,
        0,
        0,
        0,
        0,
        0,
        0,
        0,
        0,
        0,
        0,
        0,
        0,
        0,
        0,
        0,
        0,
        0,
        0,
        0,
        0,
        0,
        0,
        0,
        0,
        0,
        0,
        0,
        0,
        0,
        0,
        0,
        0,
        0,
        0,
        0,
        0,
        0,
        0,
        0,
        0,
        0,
        0,
        0,
        0,
        0,
        0,
        0,
        0,
        0,
        0,
        0,
        0,
        0,
        0,
        0,
        0,
        0,
        0,
        0,
        0,
        0,
        0,
        0,
        0,
        0,
        0,
        0,
        0,
        0,
        0,
        0,
        0,
        0,
        0,
        0,
        0,
        0,
        0,
        0,
        0,
        0,
        0,
        0,
        0,
        0,
        0,
        0,
        0,
        0,
        0,
        0,
        0,
        0,
        0,
        0,
        0,
        0,
        0,
        0,
        0,
        0,
        0,
        0,
        0,
        0,
        0,
        0,
        0,
        0,
        0,
        0,
        0,
        0,
        0,
        0,
        0,
        0,
        0,
        0,
        0,
        0,
        0,
        0,
        0,
        0,
        0,
        0,
        0,
        0,
        0,
        0,
        0,
        0,
        0,
        0,
        0,
        0,
        0,
        0,
        0,
        0,
        0,
        0,
        0,
        0,
        0,
        0,
        0,
        0,
        0,
        0,
        0,
        0,
        0,
        0,
        0,
        0,
        0,
        0,
        0,
        0,
        0,
        0,
        0,
        0,
        0,
        0,
        0,
        0,
        0,
        0,
        0,
        0,
        0,
        0,
        0,
        0,
        0,
        0,
        0,
        0,
        0,
        0,
        0,
        0,
        0,
        0,
        0,
        0,
        0,
        0,
        0,
        0,
        0,
        0,
        0,
        0,
        0,
        0,
        0,
        0,
        0,
        0,
        0,
        0,
        0,
        0,
        0,
        0,
        0,
        0,
        0,
        0,
        0,
        0,
        0,
        0,
        0,
        0,
        0,
        0,
        0,
        0,
        0,
        0,
        0,
        0,
        0,
        0,
        0,
        0,
        0,
        0,
        0,
        0,
        0,
        0,
        0,
        0,
        0,
        0,
        0,
        0,
        0,
        0,
        0,
        0,
        0,
        0,
        0,
        0,
        0,
        0,
        0,
        0,
        0,
        0,
        0,
        0,
        0,
        0,
        0,
        0,
        0,
        0,
        0,
        0,
        0,
        0,
        0,
        0,
        0,
        0,
        0,
        0,
        0,
        0,
        0,
        0,
        0,
        0,
        0,
        0,
        0,
        0,
        0,
        0,
        0,
        0,
        0,
        0,
        0,
        0,
        0,
        0,
        0,
        0,
        0,
        0,
        0,
        0,
        0,
        0,
        0,
        0,
        0,
        0,
        0,
        0,
        0,
        0,
        0,
        0,
        0,
        0,
        0,
        0,
        0,
        0,
        0,
        0,
        0,
        0,
        0,
        0,
        0,
        0,
        0,
        0,
        0,
        0,
        0,
        0,
        0,
        0,
        0,
        0,
        0,
        0,
        0,
        0,
        0,
        0,
        0,
        0,
        0,
        0,
        0,
        0,
        0,
        0,
        0,
        0,
        0,
        0,
        0,
        0,
        0,
        0,
        0,
        0,
        0,
        0,
        0,
        0,
        0,
        0,
        0,
        0,
        0,
        0,
        0,
        0,
        0,
        0,
        0,
        0,
        0,
        0,
        0,
        0,
        0,
        0,
        0,
        0,
        0,
        0,
        0,
        0,
        0,
        0,
        0,
        0,
        0,
        0,
        0,
        0,
        0,
        0,
        0,
        0,
        0,
        0,
        0,
        0,
        0,
        0,
        0,
        0,
        0,
        0,
        0,
        0,
        0,
        0,
        0,
        0,
        0,
        0,
        0,
        0,
        0,
        0,
        0,
        0,
        0,
        0,
        0,
        0,
        0,
        0,
        0,
        0,
        0,
        0,
        0,
        0,
        0,
        0,
        0,
        0,
        0,
        0,
        0,
        0,
        0,
        0,
        0,
        0,
        0,
        0,
        0,
        0,
        0,
        0,
        0,
        0,
        0,
        0,
        0,
        0,
        0,
        0,
        0,
        0,
        0,
        0,
        0,
        0,
        0,
        0,
        0,
        0,
        0,
        0,
        0,
        0,
        0,
        0,
        0,
        0,
        0,
        0,
        0,
        0,
        0,
        0,
        0,
        0,
        0,
        0,
        0,
        0,
        0,
        0,
        0,
        0,
        0,
        0,
        0,
        0,
        0,
        0,
        0,
        0,
        0,
        0,
        0,
        0,
        0,
        0,
        0,
        0,
        0,
        0,
        0,
        0,
        0,
        0,
        0,
        0,
        0,
        0,
        0,
        0,
        0,
        0,
        0,
        0,
        0,
        0,
        0,
        0,
        0,
        0,
        0,
        0,
        0,
        0,
        0,
        0,
        0,
        0,
        0,
        0,
        0,
        0,
        0,
        0,
        0,
        0,
        0,
        0,
        0,
        0,
        0,
        0,
        0,
        0,
        0,
        0,
        0,
        0,
        0,
        0,
        0,
        0,
        0,
        0,
        0,
        0,
        0,
        0,
        0,
        0,
        0,
        0,
        0,
        0,
        0,
        0,
        0,
        0,
        0,
        0,
        0,
        0,
        0,
        0,
        0,
        0,
        0,
        0,
        0,
        0,
        0,
        0,
        0,
        0,
        0,
        0,
        0,
        0,
        0,
        0,
        0,
        0,
        0,
        0,
        0,
        0,
        0,
        0,
        0,
        0,
        0,
        0,
        0,
        0,
        0,
        0,
        0,
        0,
        0,
        0,
        0,
        0,
        0,
        0,
        0,
        0,
        0,
        0,
        0,
        0,
        0,
        0,
        0,
        0,
        0,
        0,
        0,
        0,
        0,
        0,
        0,
        0,
        0,
        0,
        0,
        0,
        0,
        0,
        0,
        0,
        0,
        0,
        0,
        0,
        0,
        0,
        0,
        0,
        0,
        0,
        0,
        0,
        0,
        0,
        0,
        0,
        0,
        0,
        0,
        0,
        0,
        0,
        0,
        0,
        0,
        0,
        0,
        0,
        0,
        0,
        0,
        0,
        0,
        0,
        0,
        0,
        0,
        0,
        0,
        0,
        0,
        0,
        0,
        0,
        0,
        0,
        0,
        0,
        0,
        0,
        0,
        0,
        0,
        0,
        0,
        0,
        0,
        0,
        0,
        0,
        0,
        0,
        0,
        0,
        0,
        0,
        0,
        0,
        0,
        0,
        0,
        0,
        0,
        0,
        0,
        0,
        0,
        0,
        0,
        0,
        0,
        0,
        0,
        0,
        0,
        0,
        0,
        0,
        0,
        0,
        0,
        0,
        0,
        0,
        0,
        0,
        0,
        0,
        0,
        0,
        0,
        0,
        0,
        0,
        0,
        0,
        0,
        0,
        0,
        0,
        0,
        0,
        0,
        0,
        0,
        0,
        0,
        0,
        0,
        0,
        0,
        0,
        0,
        0,
        0,
        0,
        0,
        0,
        0,
        0,
        0,
        0,
        0,
        0,
        0,
        0,
        0,
        0,
        0,
        0,
        0,
        0,
        0,
        0,
        0,
        0,
        0,
        0,
        0,
        0,
        0,
        0,
        0,
        0,
        0,
        0,
        0,
        0,
        0,
        0,
        0,
        0,
        0,
        0,
        0,
        0,
        0,
        0,
        0,
        0,
        0,
        0,
        0,
        0,
        0,
        0,
        0,
        0,
        0,
        0,
        0,
        0,
        0,
        0,
        0,
        0,
        0,
        0,
        0,
        0,
        0,
        0,
        0,
        0,
        0,
        0,
        0,
        0,
        0,
        0,
        0,
        0,
        0,
        0,
        0,
        0,
        0,
        0,
        0,
        0,
        0,
        0,
        0,
        0,
        0,
        0,
        0,
        0,
        0,
        0,
        0,
        0,
        0,
        0,
        0,
        0,
        0,
        0,
        0,
        0,
        0,
        0,
        0,
        0,
        0,
        0,
        0,
        0,
        0,
        0,
        0,
        0,
        0,
        0,
        0,
        0,
        0,
        0,
        0,
        0,
        0,
        0,
        0,
        0,
        0,
        0,
        0,
        0,
        0,
        0,
        0,
        0,
        0,
        0,
        0,
        0,
        0,
        0,
        0,
        0,
        0,
        0,
        0,
        0,
        0,
        0,
        0,
        0,
        0,
        0,
        0,
        0,
        0,
        0,
        0,
        0,
        0,
        0,
        0,
        0,
        0,
        0,
        0,
        0,
        0,
        0,
        0,
        0,
        0,
        0,
        0,
        0,
        0,
        0,
        0,
        0,
        0,
        0,
        0,
        0,
        0,
        0,
        0,
        0,
        0,
        0,
        0,
        0,
        0,
        0,
        0,
        0,
        0,
        0,
        0,
        0,
        0,
        0,
        0,
        0,
        0,
        0,
        0,
        0,
        0,
        0,
        0,
        0,
        0,
        0,
        0,
        0,
        0,
        0,
        0,
        0,
        0,
        0,
        0,
        0,
        0,
        0,
        0,
        0,
        0,
        0,
        0,
        0,
        0,
        0,
        0,
        0,
        0,
        0,
        0,
        0,
        0,
        0,
        0,
        0,
        0,
        0,
        0,
        0,
        0,
        0,
        0,
        0,
        0,
        0,
        0,
        0,
        0,
        0,
        0,
        0,
        0,
        0,
        0,
        0,
        0,
        0,
        0,
        0,
        0,
        0,
        0,
        0,
        0,
        0,
        0,
        0,
        0,
        0,
        0,
        0,
        0,
        0,
        0,
        0,
        0,
        0,
        0,
        0,
        0,
        0,
        0,
        0,
        0,
        0,
        0,
        0,
        0,
        0,
        0,
        0,
        0,
        0,
        0,
        0,
        0,
        0,
        0,
        0,
        0,
        51,
        52,
        49,
        50,
        51,
        52,
        49,
        50,
        0,
        0,
        0,
        0,
        0,
        0,
        0,
        0,
        0,
        0,
        0,
        0,
        0,
        0,
        0,
        0,
        0,
        0,
        0,
        0,
        0,
        0,
        0,
        0,
        0,
        0,
        49,
        50,
        51,
        52,
        49,
        50,
        51,
        52,
        0,
        0,
        0,
        0,
        0,
        0,
        0,
        0,
        0,
        0,
        0,
        0,
        0,
        0,
        0,
        0,
        0,
        0,
        0,
        0,
        0,
        0,
        0,
        0,
        0,
        0,
        51,
        52,
        49,
        50,
        51,
        52,
        49,
        50,
        0,
        0,
        0,
        0,
        0,
        0,
        0,
        0,
        0,
        0,
        0,
        0,
        0,
        0,
        0,
        0,
        0,
        0,
        0,
        0,
        0,
        0,
        0,
        0,
        0,
        0,
        0,
        0,
        0,
        0,
        0,
        0,
        0,
        0,
        0,
        0,
        0,
        0,
        0,
        0,
        0,
        0,
        0,
        0,
        0,
        0,
        0,
        0,
        0,
        0,
        0,
        0,
        0,
        0,
        0,
        0,
        0,
        0,
        0,
        0,
        0,
        0,
        0,
        0,
        0,
        0,
        0,
        0,
        0,
        0,
        0,
        0,
        0,
        0,
        0,
        0,
        0,
        0,
        0,
        0,
        0,
        0,
        0,
        0,
        56,
        53,
        54,
        55,
        56,
        53,
        54,
        55,
        0,
        0,
        0,
        0,
        0,
        0,
        0,
        0,
        0,
        0,
        0,
        0,
        0,
        0,
        0,
        0,
        0,
        0,
        0,
        0,
        0,
        0,
        0,
        0,
        0,
        0,
        54,
        55,
        56,
        53,
        54,
        55,
        56,
        53,
        0,
        0,
        0,
        0,
        0,
        0,
        0,
        0,
        0,
        0,
        0,
        0,
        0,
        0,
        0,
        0,
        0,
        0,
        0,
        0,
        0,
        0,
        0,
        0,
        0,
        0,
        56,
        53,
        54,
        55,
        56,
        53,
        54,
        55,
        0,
        0,
        0,
        0,
        0,
        0,
        0,
        0,
        0,
        0,
        0,
        0,
        0,
        0,
        0,
        0,
        0,
        0,
        0,
        0,
        0,
        0,
        0,
        0,
        0,
        0,
        0,
        0,
        0,
        0,
        0,
        0,
        0,
        0,
        0,
        0,
        0,
        0,
        0,
        0,
        0,
        0,
        0,
        0,
        0,
        0,
        0,
        0,
        0,
        0,
        0,
        0,
        0,
        0,
        0,
        0,
        0,
        0,
        0,
        0,
        0,
        0,
        0,
        0,
        0,
        0,
        0,
        0,
        0,
        0,
        0,
        0,
        0,
        0,
        0,
        0,
        51,
        52,
        49,
        50,
        51,
        52,
        49,
        50,
        53,
        54,
        55,
        56,
        53,
        54,
        55,
        56,
        51,
        52,
        49,
        50,
        51,
        52,
        49,
        50,
        0,
        0,
        0,
        0,
        0,
        0,
        0,
        0,
        0,
        0,
        49,
        50,
        51,
        52,
        49,
        50,
        51,
        52,
        55,
        56,
        53,
        54,
        55,
        56,
        53,
        54,
        49,
        50,
        51,
        52,
        49,
        50,
        51,
        52,
        0,
        0,
        0,
        0,
        0,
        0,
        0,
        0,
        0,
        0,
        51,
        52,
        49,
        50,
        51,
        52,
        49,
        50,
        53,
        54,
        55,
        56,
        53,
        54,
        55,
        56,
        51,
        52,
        49,
        50,
        51,
        52,
        49,
        50,
        0,
        0,
        0,
        0,
        0,
        0,
        0,
        0,
        0,
        0,
        0,
        0,
        0,
        0,
        0,
        0,
        0,
        0,
        0,
        0,
        0,
        0,
        0,
        0,
        0,
        0,
        0,
        0,
        0,
        0,
        0,
        0,
        0,
        0,
        0,
        0,
        0,
        0,
        0,
        0,
        0,
        0,
        0,
        0,
        0,
        0,
        0,
        0,
        0,
        0,
        0,
        0,
        0,
        0,
        0,
        0,
        0,
        0,
        0,
        0,
        0,
        0,
        0,
        0,
        0,
        0,
        0,
        0,
        54,
        55,
        56,
        53,
        54,
        55,
        56,
        53,
        54,
        55,
        56,
        53,
        54,
        55,
        56,
        53,
        54,
        55,
        56,
        53,
        54,
        55,
        56,
        53,
        0,
        0,
        0,
        0,
        0,
        0,
        0,
        0,
        0,
        0,
        56,
        53,
        54,
        55,
        56,
        53,
        54,
        55,
        56,
        53,
        54,
        55,
        56,
        53,
        54,
        55,
        56,
        53,
        54,
        55,
        56,
        53,
        54,
        55,
        0,
        0,
        0,
        0,
        0,
        0,
        0,
        0,
        0,
        0,
        54,
        55,
        56,
        53,
        54,
        55,
        56,
        53,
        54,
        55,
        56,
        53,
        54,
        55,
        56,
        53,
        54,
        55,
        56,
        53,
        54,
        55,
        56,
        53,
        0,
        0,
        0,
        0,
        0,
        0,
        0,
        0,
        0,
        0,
        0,
        0,
        0,
        0,
        49,
        50,
        51,
        52,
        49,
        50,
        51,
        52,
        49,
        50,
        51,
        52,
        49,
        50,
        51,
        52,
        49,
        50,
        51,
        52,
        49,
        50,
        51,
        52,
        0,
        0,
        0,
        0,
        0,
        0,
        51,
        52,
        49,
        50,
        51,
        52,
        49,
        50,
        0,
        0,
        0,
        0,
        0,
        0,
        49,
        50,
        51,
        52,
        49,
        50,
        51,
        52,
        49,
        50,
        55,
        56,
        53,
        54,
        55,
        56,
        53,
        54,
        55,
        56,
        53,
        54,
        55,
        56,
        53,
        54,
        55,
        56,
        53,
        54,
        55,
        56,
        53,
        54,
        51,
        52,
        49,
        50,
        51,
        52,
        49,
        50,
        51,
        52,
        53,
        54,
        55,
        56,
        53,
        54,
        55,
        56,
        53,
        54,
        55,
        56,
        53,
        54,
        55,
        56,
        53,
        54,
        55,
        56,
        53,
        54,
        55,
        56,
        49,
        50,
        51,
        52,
        49,
        50,
        51,
        52,
        49,
        50,
        55,
        56,
        53,
        54,
        55,
        56,
        53,
        54,
        55,
        56,
        53,
        54,
        55,
        56,
        53,
        54,
        55,
        56,
        53,
        54,
        55,
        56,
        53,
        54,
        51,
        52,
        49,
        50,
        51,
        52,
        49,
        50,
        51,
        52,
        49,
        50,
        51,
        52,
        54,
        55,
        56,
        53,
        54,
        55,
        56,
        53,
        54,
        55,
        56,
        53,
        54,
        55,
        56,
        53,
        54,
        55,
        56,
        53,
        54,
        55,
        56,
        53,
        0,
        0,
        0,
        0,
        0,
        0,
        56,
        53,
        54,
        55,
        56,
        53,
        54,
        55,
        0,
        0,
        0,
        0,
        0,
        0,
        54,
        55,
        56,
        53,
        54,
        55,
        56,
        53,
        54,
        55,
        56,
        53,
        54,
        55,
        56,
        53,
        54,
        55,
        56,
        53,
        54,
        55,
        56,
        53,
        54,
        55,
        56,
        53,
        54,
        55,
        56,
        53,
        54,
        55,
        56,
        53,
        54,
        55,
        56,
        53,
        54,
        55,
        56,
        53,
        54,
        55,
        56,
        53,
        54,
        55,
        56,
        53,
        54,
        55,
        56,
        53,
        54,
        55,
        56,
        53,
        54,
        55,
        56,
        53,
        54,
        55,
        56,
        53,
        54,
        55,
        56,
        53,
        54,
        55,
        56,
        53,
        54,
        55,
        56,
        53,
        54,
        55,
        56,
        53,
        54,
        55,
        56,
        53,
        54,
        55,
        56,
        53,
        54,
        55,
        56,
        53,
        54,
        55,
        56,
        53,
        54,
        55,
        56,
        53,
        54,
        55,
        56,
        53,
        54,
        55,
        56,
        53,
        54,
        55,
        56,
        53,
        55,
        56,
        53,
        54,
        55,
        56,
        53,
        54,
        55,
        56,
        53,
        54,
        55,
        56,
        53,
        54,
        55,
        56,
        53,
        54,
        55,
        56,
        53,
        54,
        49,
        50,
        51,
        52,
        49,
        50,
        53,
        54,
        55,
        56,
        53,
        54,
        55,
        56,
        51,
        52,
        49,
        50,
        51,
        52,
        55,
        56,
        53,
        54,
        55,
        56,
        53,
        54,
        55,
        56,
        53,
        54,
        55,
        56,
        53,
        54,
        55,
        56,
        53,
        54,
        55,
        56,
        53,
        54,
        55,
        56,
        53,
        54,
        55,
        56,
        53,
        54,
        55,
        56,
        53,
        54,
        55,
        56,
        53,
        54,
        55,
        56,
        53,
        54,
        55,
        56,
        53,
        54,
        55,
        56,
        53,
        54,
        55,
        56,
        53,
        54,
        55,
        56,
        53,
        54,
        55,
        56,
        53,
        54,
        55,
        56,
        53,
        54,
        55,
        56,
        53,
        54,
        55,
        56,
        53,
        54,
        55,
        56,
        53,
        54,
        55,
        56,
        53,
        54,
        55,
        56,
        53,
        54,
        55,
        56,
        53,
        54,
        55,
        56,
        53,
        54,
        55,
        56,
        53,
        54,
        55,
        56,
        53,
        54,
        55,
        56,
        53,
        54,
        55,
        56,
        53,
        54,
        55,
        56,
        53,
        54,
        56,
        53,
        54,
        55,
        56,
        53,
        54,
        55,
        56,
        53,
        54,
        55,
        56,
        53,
        54,
        55,
        56,
        53,
        54,
        55,
        56,
        53,
        54,
        55,
        56,
        53,
        54,
        55,
        56,
        53,
        54,
        55,
        56,
        53,
        54,
        55,
        56,
        53,
        54,
        55,
        56,
        53,
        54,
        55,
        56,
        53,
        54,
        55,
        56,
        53,
        54,
        55,
        56,
        53,
        54,
        55,
        56,
        53,
        54,
        55,
        56,
        53,
        54,
        55,
        56,
        53,
        54,
        55,
        56,
        53,
        54,
        55,
        56,
        53,
        54,
        55,
        56,
        53,
        54,
        55,
        56,
        53,
        54,
        55,
        56,
        53,
        54,
        55,
        56,
        53,
        54,
        55,
        56,
        53,
        54,
        55,
        56,
        53,
        54,
        55,
        56,
        53,
        54,
        55,
        56,
        53,
        54,
        55,
        56,
        53,
        54,
        55,
        56,
        53,
        54,
        55,
        56,
        53,
        54,
        55,
        56,
        53,
        54,
        55,
        56,
        53,
        54,
        55,
        56,
        53,
        54,
        55,
        56,
        53,
        54,
        55,
        56,
        53,
        54,
        55,
        56,
        53,
        54,
        55,
        56,
        53,
        54,
        55,
        56,
        53,
        54,
        55,
        56,
        53,
        54,
        55,
        56,
        53,
        54,
        55
      ]
    },
    {
      "id": 3,
      "name": "Platforms",
      "type": "tilelayer",
      "width": 160,
      "height": 16,
      "x": 0,
      "y": 0,
      "visible": true,
      "opacity": 1,
      "data": [
        0,
        0,
        0,
        0,
        0,
        0,
        0,
        0,
        0,
        0,
        0,
        0,
        0,
        0,
        0,
        0,
        0,
        0,
        0,
        0,
        0,
        0,
        0,
        0,
        0,
        0,
        0,
        0,
        0,
        0,
        0,
        0,
        0,
        0,
        0,
        0,
        0,
        0,
        0,
        0,
        0,
        0,
        0,
        0,
        0,
        0,
        0,
        0,
        0,
        0,
        0,
        0,
        0,
        0,
        0,
        0,
        0,
        0,
        0,
        0,
        0,
        0,
        0,
        0,
        0,
        0,
        0,
        0,
        0,
        0,
        0,
        0,
        0,
        0,
        0,
        0,
        0,
        0,
        0,
        0,
        0,
        0,
        0,
        0,
        0,
        0,
        0,
        0,
        0,
        0,
        0,
        0,
        0,
        0,
        0,
        0,
        0,
        0,
        0,
        0,
        0,
        0,
        0,
        0,
        0,
        0,
        0,
        0,
        0,
        0,
        0,
        0,
        0,
        0,
        0,
        0,
        0,
        0,
        0,
        0,
        0,
        0,
        0,
        0,
        0,
        0,
        0,
        0,
        0,
        0,
        0,
        0,
        0,
        0,
        0,
        0,
        0,
        0,
        0,
        0,
        0,
        0,
        0,
        0,
        0,
        0,
        0,
        0,
        0,
        0,
        0,
        0,
        0,
        0,
        0,
        0,
        0,
        0,
        0,
        0,
        0,
        0,
        0,
        0,
        0,
        0,
        0,
        0,
        0,
        0,
        0,
        0,
        0,
        0,
        0,
        0,
        0,
        0,
        0,
        0,
        0,
        0,
        0,
        0,
        0,
        0,
        0,
        0,
        0,
        0,
        0,
        0,
        0,
        0,
        0,
        0,
        0,
        0,
        0,
        0,
        0,
        0,
        0,
        0,
        0,
        0,
        0,
        0,
        0,
        0,
        0,
        0,
        0,
        0,
        0,
        0,
        0,
        0,
        0,
        0,
        0,
        0,
        0,
        0,
        0,
        0,
        0,
        0,
        0,
        0,
        0,
        0,
        0,
        0,
        0,
        0,
        0,
        0,
        0,
        0,
        0,
        0,
        0,
        0,
        0,
        0,
        0,
        0,
        0,
        0,
        0,
        0,
        0,
        0,
        0,
        0,
        0,
        0,
        0,
        0,
        0,
        0,
        0,
        0,
        0,
        0,
        0,
        0,
        0,
        0,
        0,
        0,
        0,
        0,
        0,
        0,
        0,
        0,
        0,
        0,
        0,
        0,
        0,
        0,
        0,
        0,
        0,
        0,
        0,
        0,
        0,
        0,
        0,
        0,
        0,
        0,
        0,
        0,
        0,
        0,
        0,
        0,
        0,
        0,
        0,
        0,
        0,
        0,
        0,
        0,
        0,
        0,
        0,
        0,
        0,
        0,
        0,
        0,
        0,
        0,
        0,
        0,
        0,
        0,
        0,
        0,
        0,
        0,
        0,
        0,
        0,
        0,
        0,
        0,
        0,
        0,
        0,
        0,
        0,
        0,
        0,
        0,
        0,
        0,
        0,
        0,
        0,
        0,
        0,
        0,
        0,
        0,
        0,
        0,
        0,
        0,
        0,
        0,
        0,
        0,
        0,
        0,
        0,
        0,
        0,
        0,
        0,
        0,
        0,
        0,
        0,
        0,
        0,
        0,
        0,
        0,
        0,
        0,
        0,
        0,
        0,
        0,
        0,
        0,
        0,
        0,
        0,
        0,
        0,
        0,
        0,
        0,
        0,
        0,
        0,
        0,
        0,
        0,
        0,
        0,
        0,
        0,
        0,
        0,
        0,
        0,
        0,
        0,
        0,
        0,
        0,
        0,
        0,
        0,
        0,
        0,
        0,
        0,
        0,
        0,
        0,
        0,
        0,
        0,
        0,
        0,
        0,
        0,
        0,
        0,
        0,
        0,
        0,
        0,
        0,
        0,
        0,
        0,
        0,
        0,
        0,
        0,
        0,
        0,
        0,
        0,
        0,
        0,
        0,
        0,
        0,
        0,
        0,
        0,
        0,
        0,
        0,
        0,
        0,
        0,
        0,
        0,
        0,
        0,
        0,
        0,
        0,
        0,
        0,
        0,
        0,
        0,
        0,
        0,
        0,
        0,
        0,
        0,
        0,
        0,
        0,
        0,
        0,
        0,
        0,
        0,
        0,
        0,
        0,
        0,
        0,
        0,
        0,
        0,
        0,
        0,
        0,
        0,
        0,
        0,
        0,
        0,
        0,
        0,
        0,
        0,
        0,
        0,
        0,
        0,
        0,
        0,
        0,
        0,
        0,
        0,
        0,
        0,
        0,
        0,
        0,
        0,
        0,
        0,
        0,
        0,
        0,
        0,
        0,
        0,
        0,
        0,
        0,
        0,
        0,
        0,
        0,
        0,
        0,
        0,
        0,
        0,
        0,
        0,
        0,
        0,
        0,
        0,
        0,
        0,
        0,
        0,
        0,
        0,
        0,
        0,
        0,
        0,
        0,
        0,
        0,
        0,
        0,
        0,
        0,
        0,
        0,
        0,
        0,
        0,
        0,
        0,
        0,
        0,
        0,
        0,
        0,
        0,
        0,
        0,
        0,
        0,
        0,
        0,
        0,
        0,
        0,
        0,
        0,
        0,
        0,
        0,
        0,
        0,
        0,
        0,
        0,
        0,
        0,
        0,
        0,
        0,
        0,
        0,
        0,
        0,
        0,
        0,
        0,
        0,
        0,
        0,
        0,
        0,
        0,
        0,
        0,
        0,
        0,
        0,
        0,
        0,
        0,
        0,
        0,
        0,
        0,
        0,
        0,
        0,
        0,
        0,
        0,
        0,
        0,
        0,
        0,
        0,
        0,
        0,
        0,
        0,
        0,
        0,
        0,
        0,
        0,
        0,
        0,
        0,
        0,
        0,
        0,
        0,
        0,
        0,
        0,
        0,
        0,
        0,
        0,
        0,
        0,
        0,
        0,
        0,
        0,
        0,
        0,
        0,
        0,
        0,
        0,
        0,
        0,
        0,
        0,
        0,
        0,
        0,
        0,
        0,
        0,
        0,
        0,
        0,
        0,
        0,
        0,
        0,
        0,
        0,
        0,
        0,
        0,
        0,
        0,
        0,
        0,
        0,
        0,
        0,
        0,
        0,
        0,
        0,
        0,
        0,
        0,
        0,
        0,
        0,
        0,
        0,
        0,
        0,
        0,
        0,
        0,
        0,
        0,
        0,
        0,
        0,
        0,
        0,
        0,
        0,
        0,
        0,
        0,
        0,
        0,
        0,
        0,
        0,
        0,
        0,
        0,
        0,
        0,
        0,
        0,
        0,
        0,
        0,
        0,
        0,
        0,
        0,
        0,
        0,
        0,
        0,
        0,
        0,
        0,
        0,
        0,
        0,
        0,
        0,
        0,
        0,
        0,
        0,
        0,
        0,
        0,
        0,
        0,
        0,
        0,
        0,
        0,
        0,
        0,
        0,
        0,
        0,
        0,
        0,
        0,
        0,
        0,
        0,
        0,
        0,
        0,
        0,
        0,
        0,
        0,
        0,
        0,
        0,
        0,
        0,
        0,
        0,
        0,
        0,
        0,
        0,
        0,
        0,
        0,
        0,
        0,
        0,
        0,
        0,
        0,
        0,
        0,
        0,
        0,
        0,
        0,
        0,
        0,
        0,
        0,
        0,
        0,
        0,
        0,
        0,
        0,
        0,
        0,
        0,
        0,
        0,
        0,
        0,
        0,
        0,
        0,
        0,
        0,
        0,
        0,
        0,
        0,
        0,
        0,
        0,
        0,
        0,
        0,
        0,
        0,
        0,
        0,
        0,
        0,
        0,
        0,
        0,
        0,
        0,
        0,
        0,
        0,
        0,
        0,
        0,
        0,
        0,
        0,
        0,
        0,
        0,
        0,
        0,
        0,
        0,
        0,
        0,
        0,
        0,
        0,
        0,
        0,
        0,
        0,
        0,
        0,
        0,
        0,
        0,
        0,
        0,
        0,
        0,
        0,
        0,
        0,
        0,
        0,
        0,
        0,
        0,
        0,
        0,
        0,
        0,
        0,
        0,
        0,
        0,
        0,
        0,
        0,
        0,
        0,
        0,
        0,
        0,
        0,
        0,
        0,
        0,
        0,
        0,
        0,
        0,
        0,
        0,
        0,
        0,
        0,
        0,
        0,
        0,
        0,
        0,
        0,
        0,
        0,
        0,
        0,
        0,
        0,
        0,
        0,
        0,
        0,
        0,
        0,
        0,
        0,
        0,
        0,
        0,
        0,
        0,
        0,
        0,
        0,
        0,
        0,
        0,
        0,
        0,
        0,
        0,
        0,
        0,
        0,
        0,
        0,
        0,
        0,
        0,
        0,
        0,
        0,
        0,
        0,
        0,
        0,
        0,
        0,
        0,
        0,
        0,
        0,
        0,
        0,
        0,
        0,
        0,
        0,
        0,
        0,
        0,
        0,
        0,
        0,
        0,
        0,
        0,
        0,
        0,
        0,
        0,
        0,
        0,
        0,
        0,
        0,
        0,
        0,
        0,
        0,
        0,
        0,
        0,
        0,
        0,
        0,
        0,
        0,
        0,
        0,
        0,
        0,
        0,
        0,
        0,
        0,
        0,
        0,
        0,
        0,
        0,
        0,
        0,
        0,
        0,
        0,
        0,
        0,
        0,
        0,
        0,
        0,
        0,
        0,
        0,
        0,
        0,
        0,
        0,
        0,
        0,
        0,
        0,
        0,
        0,
        0,
        0,
        0,
        0,
        0,
        0,
        0,
        0,
        0,
        0,
        0,
        0,
        0,
        0,
        0,
        0,
        0,
        0,
        0,
        0,
        0,
        0,
        0,
        0,
        0,
        0,
        0,
        0,
        0,
        0,
        0,
        0,
        0,
        0,
        0,
        0,
        0,
        0,
        0,
        0,
        0,
        0,
        0,
        0,
        0,
        0,
        0,
        0,
        0,
        0,
        0,
        0,
        0,
        0,
        0,
        0,
        0,
        0,
        0,
        0,
        0,
        0,
        0,
        0,
        0,
        0,
        0,
        0,
        0,
        0,
        0,
        0,
        0,
        0,
        0,
        0,
        0,
        0,
        0,
        0,
        0,
        0,
        0,
        0,
        0,
        0,
        0,
        0,
        0,
        0,
        0,
        0,
        0,
        0,
        0,
        0,
        0,
        0,
        0,
        0,
        0,
        0,
        0,
        0,
        0,
        0,
        0,
        0,
        0,
        0,
        0,
        0,
        0,
        0,
        0,
        0,
        0,
        0,
        0,
        0,
        0,
        0,
        0,
        0,
        0,
        0,
        0,
        0,
        0,
        0,
        0,
        0,
        0,
        0,
        0,
        0,
        0,
        0,
        0,
        0,
        0,
        0,
        0,
        0,
        0,
        0,
        0,
        0,
        0,
        0,
        0,
        0,
        0,
        0,
        0,
        0,
        0,
        0,
        0,
        0,
        0,
        0,
        0,
        0,
        0,
        0,
        0,
        0,
        0,
        0,
        0,
        0,
        0,
        0,
        0,
        0,
        0,
        0,
        0,
        0,
        0,
        0,
        0,
        0,
        0,
        0,
        0,
        0,
        0,
        0,
        0,
        0,
        0,
        0,
        0,
        0,
        0,
        0,
        0,
        0,
        0,
        0,
        0,
        0,
        0,
        0,
        0,
        0,
        0,
        0,
        0,
        0,
        0,
        0,
        0,
        0,
        0,
        0,
        0,
        0,
        0,
        0,
        0,
        0,
        0,
        0,
        0,
        0,
        0,
        0,
        0,
        0,
        0,
        0,
        0,
        0,
        0,
        0,
        0,
        0,
        0,
        0,
        0,
        0,
        0,
        0,
        0,
        0,
        0,
        0,
        0,
        0,
        0,
        0,
        0,
        0,
        0,
        0,
        0,
        0,
        0,
        0,
        0,
        0,
        0,
        0,
        0,
        0,
        0,
        0,
        0,
        0,
        0,
        0,
        0,
        0,
        0,
        0,
        0,
        0,
        0,
        0,
        0,
        0,
        0,
        0,
        0,
        0,
        0,
        0,
        0,
        0,
        0,
        0,
        0,
        0,
        0,
        0,
        0,
        0,
        0,
        0,
        0,
        0,
        0,
        0,
        0,
        0,
        0,
        0,
        0,
        0,
        0,
        0,
        0,
        0,
        0,
        0,
        0,
        0,
        0,
        0,
        0,
        0,
        0,
        0,
        0,
        0,
        0,
        0,
        0,
        0,
        0,
        0,
        0,
        0,
        0,
        0,
        0,
        0,
        0,
        0,
        0,
        0,
        0,
        0,
        0,
        0,
        0,
        0,
        0,
        0,
        0,
        0,
        0,
        0,
        0,
        0,
        0,
        0,
        0,
        0,
        0,
        0,
        0,
        0,
        0,
        0,
        0,
        0,
        0,
        0,
        0,
        0,
        0,
        0,
        0,
        0,
        0,
        0,
        0,
        0,
        0,
        0,
        0,
        0,
        25,
        26,
        26,
        26,
        26,
        27,
        0,
        0,
        0,
        0,
        0,
        0,
        0,
        0,
        0,
        0,
        0,
        0,
        0,
        0,
        0,
        0,
        0,
        0,
        0,
        0,
        0,
        0,
        0,
        0,
        0,
        0,
        0,
        0,
        0,
        0,
        0,
        0,
        25,
        26,
        26,
        26,
        26,
        27,
        0,
        0,
        0,
        0,
        0,
        0,
        0,
        0,
        0,
        0,
        0,
        0,
        0,
        0,
        0,
        0,
        0,
        0,
        0,
        0,
        0,
        0,
        0,
        0,
        0,
        0,
        0,
        0,
        25,
        26,
        26,
        26,
        26,
        27,
        0,
        0,
        0,
        0,
        0,
        0,
        0,
        0,
        0,
        0,
        0,
        0,
        0,
        0,
        0,
        0,
        0,
        0,
        0,
        0,
        0,
        0,
        0,
        0,
        0,
        0,
        0,
        0,
        25,
        26,
        26,
        26,
        26,
        27,
        0,
        0,
        0,
        0,
        0,
        0,
        0,
        0,
        0,
        0,
        0,
        0,
        0,
        0,
        0,
        0,
        0,
        0,
        0,
        0,
        0,
        0,
        0,
        0,
        0,
        25,
        26,
        26,
        26,
        26,
        26,
        27,
        0,
        0,
        0,
        0,
        0,
        0,
        0,
        0,
        0,
        0,
        0,
        0,
        0,
        0,
        0,
        0,
        0,
        0,
        0,
        0,
        0,
        0,
        0,
        0,
        0,
        0,
        0,
        0,
        0,
        0,
        0,
        0,
        0,
        0,
        0,
        0,
        0,
        0,
        0,
        0,
        0,
        0,
        0,
        0,
        0,
        0,
        0,
        0,
        0,
        0,
        0,
        0,
        0,
        0,
        0,
        0,
        0,
        0,
        0,
        0,
        0,
        0,
        0,
        0,
        0,
        0,
        0,
        0,
        0,
        0,
        0,
        0,
        0,
        0,
        0,
        0,
        0,
        0,
        0,
        0,
        0,
        0,
        0,
        0,
        0,
        0,
        0,
        0,
        0,
        0,
        0,
        0,
        0,
        0,
        0,
        0,
        0,
        0,
        0,
        0,
        0,
        0,
        0,
        0,
        0,
        0,
        0,
        0,
        0,
        0,
        0,
        0,
        0,
        0,
        0,
        0,
        0,
        0,
        0,
        0,
        0,
        0,
        0,
        0,
        0,
        0,
        0,
        0,
        0,
        0,
        0,
        0,
        0,
        0,
        0,
        0,
        0,
        0,
        0,
        0,
        0,
        0,
        0,
        0,
        0,
        0,
        0,
        0,
        0,
        0,
        0,
        0,
        0,
        0,
        0,
        0,
        0,
        0,
        0,
        0,
        0,
        0,
        0,
        0,
        0,
        0,
        0,
        0,
        0,
        0,
        0,
        0,
        0,
        0,
        0,
        0,
        0,
        0,
        0,
        0,
        0,
        0,
        0,
        0,
        0,
        0,
        0,
        0,
        0,
        0,
        0,
        0,
        0,
        0,
        0,
        0,
        0,
        0,
        0,
        0,
        0,
        0,
        0,
        0,
        0,
        0,
        0,
        0,
        0,
        0,
        0,
        0,
        0,
        0,
        0,
        0,
        0,
        0,
        0,
        0,
        0,
        0,
        0,
        0,
        0,
        0,
        0,
        0,
        0,
        0,
        0,
        0,
        0,
        0,
        0,
        0,
        0,
        0,
        0,
        0,
        0,
        0,
        0,
        0,
        0,
        0,
        0,
        0,
        0,
        0,
        0,
        0,
        0,
        0,
        0,
        0,
        0,
        0,
        0,
        0,
        0,
        0,
        0,
        0,
        0,
        0,
        0,
        0,
        0,
        0,
        0,
        0,
        0,
        0,
        0,
        0,
        0,
        0,
        0,
        0,
        0,
        0,
        0,
        0,
        0,
        0,
        0,
        0,
        0,
        0,
        0,
        0,
        0,
        0,
        0,
        0,
        0,
        0,
        0,
        0,
        0,
        0,
        0,
        0,
        0,
        0,
        0,
        0,
        0,
        0,
        0,
        0,
        0,
        0,
        0,
        0,
        0,
        0,
        0,
        0,
        0,
        0,
        0,
        0,
        0,
        0,
        0,
        0,
        0,
        0,
        0,
        0,
        0,
        0,
        0,
        0,
        0,
        0,
        0,
        0,
        0,
        0,
        0,
        0,
        0,
        0,
        0,
        0,
        0,
        0,
        0,
        0,
        26,
        26,
        26,
        26,
        26,
        26,
        0,
        0,
        0,
        0,
        0,
        0,
        0,
        0,
        26,
        26,
        26,
        26,
        26,
        26,
        0,
        0,
        0,
        0,
        0,
        0,
        0,
        0,
        0,
        0,
        0,
        0,
        0,
        0,
        0,
        0,
        0,
        0,
        0,
        0,
        0,
        0,
        0,
        0,
        0,
        0,
        0,
        0,
        0,
        0,
        0,
        0,
        0,
        0,
        0,
        0,
        0,
        0,
        0,
        0,
        0,
        0,
        0,
        0,
        0,
        0,
        0,
        0,
        0,
        0,
        0,
        0,
        0,
        0,
        0,
        0,
        0,
        0,
        0,
        0,
        0,
        0,
        0,
        0,
        0,
        0,
        0,
        0,
        0,
        0,
        0,
        0,
        0,
        0,
        0,
        0,
        0,
        0,
        0,
        0,
        0,
        0,
        0,
        0,
        0,
        0,
        0,
        0,
        0,
        0,
        0,
        0,
        0,
        0,
        0,
        0,
        0,
        0,
        0,
        0,
        0,
        0,
        0,
        0,
        0,
        0,
        0,
        0,
        0,
        0,
        0,
        0,
        0,
        0,
        0,
        0,
        0,
        0,
        0,
        0,
        0,
        0,
        0,
        0,
        0,
        0,
        0,
        0,
        0,
        0,
        0,
        0,
        0,
        0,
        0,
        0,
        0,
        0,
        0,
        0,
        0,
        0,
        0,
        0,
        0,
        0,
        0,
        0,
        0,
        0,
        0,
        0,
        0,
        0,
        0,
        0,
        0,
        0,
        0,
        0,
        0,
        0,
        0,
        0,
        0,
        0,
        0,
        0,
        0,
        0,
        0,
        0,
        0,
        0,
        0,
        0,
        0,
        0,
        0,
        0,
        0,
        0,
        0,
        0,
        0,
        0,
        0,
        0,
        0,
        0,
        0,
        0,
        0,
        0,
        0,
        0,
        0,
        0,
        0,
        0,
        0,
        0,
        0,
        0,
        0,
        0,
        0,
        0,
        0,
        0,
        0,
        0,
        0,
        0,
        0,
        0,
        0,
        0,
        0,
        0,
        0,
        0,
        0,
        0,
        0,
        0,
        0,
        0,
        0,
        0,
        0,
        0,
        0,
        0,
        0,
        0,
        0,
        0,
        0,
        0,
        0,
        0,
        0,
        0,
        0,
        0,
        0,
        0,
        0,
        0,
        0,
        0,
        0,
        0,
        0,
        0,
        0,
        0,
        0,
        0,
        0,
        0,
        0,
        0,
        0,
        0,
        0,
        0,
        0,
        0,
        0,
        0,
        0,
        0,
        0,
        0,
        0,
        0,
        0,
        0,
        0,
        0,
        0,
        0,
        0,
        0,
        0,
        0,
        0,
        0,
        0,
        0,
        0,
        0,
        0,
        0,
        0,
        0,
        0,
        0,
        0,
        0,
        0,
        0,
        0,
        0,
        0,
        0,
        0,
        0,
        0,
        0,
        0,
        0,
        0,
        0,
        0,
        0,
        0,
        0,
        0,
        0,
        0,
        0,
        0,
        0,
        0,
        0,
        0,
        0,
        0,
        0,
        0,
        0,
        0,
        0,
        0,
        0,
        0,
        0,
        0,
        0,
        0,
        0,
        0,
        0,
        0,
        0,
        0,
        0,
        0,
        0,
        0,
        0,
        0,
        0,
        0,
        0,
        0,
        0,
        0,
        0,
        0,
        0,
        0,
        0,
        0,
        0,
        0,
        0,
        0,
        0,
        0,
        0,
        0,
        0,
        0,
        0,
        0,
        0,
        0,
        0,
        0,
        0,
        0,
        0,
        0,
        0,
        0,
        0,
        0,
        0,
        0,
        0,
        0,
        0,
        0,
        0,
        0,
        0,
        0,
        0,
        0,
        0,
        0,
        0,
        0,
        0,
        0,
        0,
        0,
        0,
        0,
        0,
        0,
        0,
        0,
        0,
        0,
        0,
        0,
        0,
        0,
        0,
        0,
        0,
        0,
        0,
        0,
        0,
        0,
        0,
        0,
        0,
        0,
        0,
        0,
        0,
        0,
        0,
        0,
        0,
        0,
        0,
        0,
        0,
        0,
        0,
        0,
        0,
        0,
        0,
        0,
        0,
        0,
        0,
        0,
        0,
        0,
        0,
        0,
        0,
        0,
        0,
        0,
        0,
        0,
        0,
        0,
        0,
        0,
        0,
        0,
        0,
        0,
        0,
        0,
        0,
        0,
        0,
        0,
        0,
        0,
        0,
        0,
        0,
        0,
        0,
        0,
        0,
        0,
        0,
        0,
        0,
        0,
        0,
        0,
        0,
        0,
        0,
        0,
        0,
        0,
        0,
        0,
        0,
        0,
        0,
        0,
        0,
        0,
        0,
        0,
        0,
        0,
        0,
        0,
        0,
        0,
        0,
        0,
        0,
        0,
        0,
        0,
        0,
        0,
        0,
        0,
        0,
        0,
        0,
        0,
        0,
        0,
        0,
        0,
        0,
        0,
        0,
        0,
        0,
        0,
        0,
        0,
        0,
        0,
        0,
        0,
        0,
        0,
        0,
        0,
        0,
        0,
        0,
        0,
        0,
        0,
        0,
        0,
        0,
        0,
        0,
        0,
        0,
        0,
        0,
        0,
        0,
        0,
        0,
        0,
        0,
        0,
        0,
        0,
        0,
        0,
        0,
        0,
        0,
        0,
        0,
        0,
        0,
        0,
        0,
        0,
        0,
        0,
        0,
        0,
        0,
        0,
        0
      ]
    },
    {
      "id": 4,
      "name": "Decorations",
      "type": "tilelayer",
      "width": 160,
      "height": 16,
      "x": 0,
      "y": 0,
      "visible": true,
      "opacity": 1,
      "data": [
        0,
        0,
        0,
        0,
        0,
        0,
        0,
        0,
        0,
        0,
        0,
        0,
        0,
        0,
        0,
        0,
        0,
        0,
        0,
        0,
        0,
        0,
        0,
        0,
        0,
        0,
        0,
        0,
        0,
        0,
        0,
        0,
        0,
        0,
        0,
        0,
        0,
        0,
        0,
        0,
        0,
        0,
        0,
        0,
        0,
        0,
        0,
        0,
        0,
        0,
        0,
        0,
        0,
        0,
        0,
        0,
        0,
        0,
        0,
        0,
        0,
        0,
        0,
        0,
        0,
        0,
        0,
        0,
        0,
        0,
        0,
        0,
        0,
        0,
        0,
        0,
        0,
        0,
        0,
        0,
        0,
        0,
        0,
        0,
        0,
        0,
        0,
        0,
        0,
        0,
        0,
        0,
        0,
        0,
        0,
        0,
        0,
        0,
        0,
        0,
        0,
        0,
        0,
        0,
        0,
        0,
        0,
        0,
        0,
        0,
        0,
        0,
        0,
        0,
        0,
        0,
        0,
        0,
        0,
        0,
        0,
        0,
        0,
        0,
        0,
        0,
        0,
        0,
        0,
        0,
        0,
        0,
        0,
        0,
        0,
        0,
        0,
        0,
        0,
        0,
        0,
        0,
        0,
        0,
        0,
        0,
        0,
        0,
        0,
        0,
        0,
        0,
        0,
        0,
        0,
        0,
        0,
        0,
        0,
        0,
        0,
        0,
        0,
        0,
        0,
        0,
        0,
        0,
        0,
        0,
        0,
        0,
        0,
        0,
        0,
        0,
        0,
        0,
        0,
        0,
        0,
        0,
        0,
        0,
        0,
        0,
        0,
        0,
        0,
        0,
        0,
        0,
        0,
        0,
        0,
        0,
        0,
        0,
        0,
        0,
        0,
        0,
        0,
        0,
        0,
        0,
        0,
        0,
        0,
        0,
        0,
        0,
        0,
        0,
        0,
        0,
        0,
        0,
        0,
        0,
        0,
        0,
        0,
        0,
        0,
        0,
        0,
        0,
        0,
        0,
        0,
        0,
        0,
        0,
        0,
        0,
        0,
        0,
        0,
        0,
        0,
        0,
        0,
        0,
        0,
        0,
        0,
        0,
        0,
        0,
        0,
        0,
        0,
        0,
        0,
        0,
        0,
        0,
        0,
        0,
        0,
        0,
        0,
        0,
        0,
        0,
        0,
        0,
        0,
        0,
        0,
        0,
        0,
        0,
        0,
        0,
        0,
        0,
        0,
        0,
        0,
        0,
        0,
        0,
        0,
        0,
        0,
        0,
        0,
        0,
        0,
        0,
        0,
        0,
        0,
        0,
        0,
        0,
        0,
        0,
        0,
        0,
        0,
        0,
        0,
        0,
        0,
        0,
        0,
        0,
        0,
        0,
        0,
        0,
        0,
        0,
        0,
        0,
        0,
        0,
        0,
        0,
        0,
        0,
        0,
        0,
        0,
        0,
        0,
        0,
        0,
        0,
        0,
        0,
        0,
        0,
        0,
        0,
        0,
        0,
        0,
        0,
        0,
        0,
        0,
        0,
        0,
        0,
        0,
        0,
        0,
        0,
        0,
        0,
        0,
        0,
        0,
        0,
        0,
        0,
        0,
        0,
        0,
        0,
        0,
        0,
        0,
        0,
        61,
        62,
        61,
        62,
        61,
        62,
        61,
        62,
        61,
        62,
        61,
        62,
        61,
        62,
        61,
        62,
        61,
        62,
        61,
        62,
        61,
        62,
        61,
        62,
        61,
        62,
        61,
        62,
        61,
        62,
        61,
        62,
        61,
        62,
        61,
        62,
        61,
        62,
        61,
        62,
        61,
        62,
        61,
        62,
        61,
        62,
        61,
        62,
        61,
        62,
        61,
        62,
        61,
        62,
        61,
        62,
        61,
        62,
        61,
        62,
        61,
        62,
        61,
        62,
        61,
        62,
        61,
        62,
        61,
        62,
        61,
        62,
        61,
        62,
        61,
        62,
        61,
        62,
        61,
        62,
        61,
        62,
        61,
        62,
        61,
        62,
        61,
        62,
        61,
        62,
        61,
        62,
        61,
        62,
        61,
        62,
        61,
        62,
        0,
        0,
        0,
        0,
        0,
        0,
        0,
        0,
        0,
        0,
        0,
        0,
        0,
        0,
        0,
        0,
        0,
        0,
        0,
        0,
        0,
        0,
        0,
        0,
        0,
        0,
        0,
        0,
        0,
        0,
        0,
        0,
        0,
        0,
        0,
        0,
        0,
        0,
        0,
        0,
        0,
        0,
        0,
        0,
        0,
        0,
        0,
        0,
        0,
        0,
        0,
        0,
        0,
        0,
        0,
        0,
        0,
        0,
        0,
        0,
        0,
        0,
        0,
        0,
        0,
        0,
        0,
        0,
        0,
        73,
        0,
        0,
        0,
        0,
        0,
        0,
        0,
        0,
        0,
        0,
        73,
        0,
        0,
        0,
        0,
        0,
        0,
        0,
        0,
        0,
        0,
        73,
        0,
        0,
        0,
        0,
        0,
        0,
        0,
        0,
        0,
        0,
        73,
        0,
        0,
        0,
        0,
        0,
        0,
        0,
        0,
        0,
        0,
        73,
        0,
        0,
        0,
        0,
        0,
        0,
        0,
        0,
        0,
        0,
        73,
        0,
        0,
        0,
        0,
        0,
        0,
        0,
        0,
        0,
        0,
        73,
        0,
        0,
        0,
        0,
        0,
        0,
        0,
        0,
        0,
        0,
        73,
        0,
        0,
        0,
        0,
        0,
        0,
        0,
        0,
        0,
        0,
        73,
        0,
        0,
        0,
        0,
        0,
        0,
        0,
        0,
        0,
        0,
        0,
        0,
        0,
        0,
        0,
        0,
        0,
        0,
        0,
        0,
        0,
        0,
        0,
        0,
        0,
        0,
        0,
        0,
        0,
        0,
        0,
        0,
        0,
        0,
        0,
        0,
        0,
        0,
        0,
        0,
        0,
        0,
        0,
        0,
        0,
        0,
        0,
        0,
        0,
        0,
        0,
        0,
        0,
        0,
        0,
        0,
        0,
        0,
        0,
        0,
        0,
        0,
        0,
        0,
        0,
        0,
        0,
        0,
        0,
        0,
        0,
        73,
        0,
        0,
        0,
        0,
        0,
        0,
        0,
        0,
        0,
        0,
        73,
        0,
        0,
        0,
        0,
        0,
        0,
        0,
        0,
        0,
        0,
        73,
        0,
        0,
        0,
        0,
        0,
        0,
        0,
        0,
        0,
        0,
        73,
        0,
        0,
        0,
        0,
        0,
        0,
        0,
        0,
        0,
        0,
        73,
        0,
        0,
        0,
        0,
        0,
        0,
        0,
        0,
        0,
        0,
        73,
        0,
        0,
        0,
        0,
        0,
        0,
        0,
        0,
        0,
        0,
        73,
        0,
        0,
        0,
        0,
        0,
        0,
        0,
        0,
        0,
        0,
        73,
        0,
        0,
        0,
        0,
        0,
        0,
        0,
        0,
        0,
        0,
        73,
        0,
        0,
        0,
        0,
        0,
        0,
        0,
        0,
        0,
        0,
        0,
        0,
        0,
        0,
        0,
        0,
        0,
        0,
        0,
        0,
        0,
        0,
        0,
        0,
        0,
        0,
        0,
        0,
        0,
        0,
        0,
        0,
        0,
        0,
        0,
        0,
        0,
        0,
        0,
        0,
        0,
        0,
        0,
        0,
        0,
        0,
        0,
        0,
        0,
        0,
        0,
        0,
        0,
        0,
        0,
        0,
        0,
        0,
        0,
        0,
        0,
        0,
        0,
        0,
        0,
        0,
        0,
        0,
        0,
        0,
        0,
        73,
        0,
        0,
        0,
        0,
        0,
        0,
        0,
        0,
        0,
        0,
        73,
        0,
        0,
        0,
        0,
        0,
        0,
        0,
        0,
        0,
        0,
        73,
        0,
        0,
        0,
        0,
        0,
        0,
        0,
        0,
        0,
        0,
        73,
        0,
        0,
        0,
        0,
        0,
        0,
        0,
        0,
        0,
        0,
        73,
        0,
        0,
        0,
        0,
        0,
        0,
        0,
        0,
        0,
        0,
        73,
        0,
        0,
        0,
        0,
        0,
        0,
        0,
        0,
        0,
        0,
        73,
        0,
        0,
        0,
        0,
        0,
        0,
        0,
        0,
        0,
        0,
        73,
        0,
        0,
        0,
        0,
        0,
        0,
        0,
        0,
        0,
        0,
        73,
        0,
        0,
        0,
        0,
        0,
        0,
        0,
        0,
        0,
        0,
        0,
        0,
        0,
        0,
        0,
        0,
        0,
        0,
        0,
        0,
        0,
        0,
        0,
        0,
        0,
        0,
        0,
        0,
        0,
        0,
        0,
        0,
        0,
        0,
        0,
        0,
        0,
        0,
        0,
        0,
        0,
        0,
        0,
        0,
        0,
        0,
        0,
        0,
        0,
        0,
        0,
        0,
        0,
        0,
        0,
        0,
        0,
        0,
        0,
        0,
        0,
        0,
        0,
        0,
        0,
        0,
        0,
        0,
        0,
        0,
        0,
        0,
        0,
        0,
        0,
        0,
        0,
        0,
        0,
        0,
        0,
        0,
        0,
        0,
        0,
        0,
        0,
        0,
        0,
        0,
        0,
        0,
        0,
        0,
        0,
        0,
        0,
        0,
        0,
        0,
        0,
        0,
        0,
        0,
        0,
        0,
        0,
        0,
        0,
        0,
        0,
        0,
        0,
        0,
        0,
        0,
        0,
        0,
        0,
        0,
        0,
        0,
        0,
        0,
        0,
        0,
        0,
        0,
        0,
        0,
        0,
        0,
        0,
        0,
        0,
        0,
        0,
        0,
        0,
        0,
        0,
        0,
        0,
        0,
        0,
        0,
        0,
        0,
        0,
        0,
        0,
        0,
        0,
        0,
        0,
        0,
        0,
        0,
        0,
        0,
        0,
        0,
        0,
        0,
        0,
        0,
        0,
        0,
        15,
        15,
        15,
        15,
        15,
        15,
        15,
        15,
        0,
        0,
        0,
        0,
        0,
        0,
        0,
        0,
        0,
        0,
        0,
        0,
        0,
        0,
        0,
        0,
        0,
        0,
        0,
        0,
        0,
        0,
        0,
        0,
        0,
        0,
        0,
        0,
        0,
        0,
        0,
        0,
        0,
        0,
        0,
        0,
        0,
        0,
        0,
        0,
        0,
        0,
        0,
        0,
        0,
        0,
        0,
        0,
        0,
        0,
        0,
        0,
        0,
        0,
        0,
        0,
        0,
        0,
        0,
        0,
        0,
        0,
        0,
        0,
        0,
        64,
        0,
        0,
        0,
        0,
        0,
        0,
        0,
        0,
        0,
        0,
        0,
        0,
        0,
        0,
        0,
        0,
        0,
        0,
        0,
        0,
        0,
        0,
        0,
        0,
        0,
        0,
        0,
        0,
        0,
        0,
        0,
        0,
        0,
        0,
        63,
        0,
        0,
        0,
        0,
        0,
        0,
        0,
        0,
        0,
        0,
        0,
        0,
        0,
        0,
        0,
        0,
        0,
        0,
        0,
        0,
        0,
        0,
        0,
        0,
        0,
        0,
        0,
        0,
        0,
        63,
        0,
        0,
        0,
        0,
        64,
        33,
        0,
        0,
        0,
        0,
        0,
        0,
        0,
        0,
        0,
        0,
        0,
        0,
        0,
        0,
        0,
        29,
        0,
        0,
        0,
        0,
        0,
        0,
        29,
        0,
        0,
        0,
        0,
        0,
        0,
        0,
        0,
        0,
        0,
        0,
        0,
        0,
        0,
        0,
        0,
        0,
        0,
        0,
        0,
        0,
        0,
        0,
        0,
        0,
        0,
        0,
        0,
        0,
        0,
        0,
        0,
        0,
        0,
        0,
        0,
        0,
        0,
        0,
        0,
        0,
        0,
        0,
        0,
        0,
        0,
        0,
        0,
        0,
        0,
        0,
        0,
        0,
        0,
        0,
        0,
        0,
        0,
        0,
        0,
        0,
        0,
        0,
        0,
        0,
        0,
        0,
        0,
        0,
        0,
        0,
        0,
        0,
        0,
        0,
        0,
        0,
        0,
        0,
        0,
        0,
        0,
        0,
        0,
        0,
        0,
        0,
        0,
        0,
        0,
        0,
        0,
        0,
        0,
        0,
        0,
        0,
        0,
        0,
        0,
        0,
        0,
        0,
        0,
        0,
        0,
        0,
        0,
        0,
        0,
        0,
        0,
        0,
        0,
        0,
        0,
        0,
        0,
        0,
        0,
        0,
        0,
        0,
        0,
        0,
        0,
        0,
        0,
        0,
        0,
        0,
        0,
        0,
        0,
        0,
        0,
        0,
        0,
        0,
        0,
        0,
        0,
        0,
        0,
        0,
        0,
        0,
        0,
        0,
        0,
        0,
        0,
        29,
        0,
        0,
        77,
        77,
        0,
        0,
        29,
        0,
        0,
        0,
        0,
        0,
        0,
        0,
        0,
        0,
        0,
        28,
        0,
        0,
        0,
        0,
        0,
        0,
        0,
        0,
        0,
        0,
        0,
        0,
        0,
        0,
        0,
        0,
        0,
        0,
        0,
        0,
        0,
        0,
        0,
        0,
        0,
        0,
        0,
        0,
        0,
        0,
        0,
        0,
        0,
        0,
        0,
        0,
        0,
        28,
        0,
        0,
        0,
        0,
        0,
        0,
        64,
        0,
        0,
        0,
        0,
        35,
        0,
        0,
        0,
        0,
        0,
        0,
        0,
        0,
        0,
        63,
        0,
        0,
        0,
        0,
        64,
        0,
        0,
        0,
        0,
        0,
        0,
        28,
        0,
        0,
        0,
        0,
        0,
        0,
        0,
        63,
        0,
        0,
        0,
        33,
        64,
        0,
        0,
        0,
        0,
        0,
        0,
        0,
        0,
        0,
        64,
        0,
        0,
        0,
        0,
        63,
        0,
        0,
        0,
        0,
        0,
        28,
        0,
        0,
        0,
        0,
        0,
        0,
        0,
        0,
        64,
        0,
        0,
        0,
        0,
        0,
        0,
        0,
        0,
        0,
        0,
        0,
        0,
        0,
        0,
        63,
        0,
        0,
        0,
        0,
        64,
        0,
        28,
        0,
        0,
        0,
        0,
        29,
        0,
        0,
        77,
        77,
        0,
        0,
        29,
        0,
        0,
        0,
        0,
        0,
        0,
        0,
        0,
        0,
        0,
        28,
        0,
        0,
        0,
        0,
        0,
        0,
        0,
        0,
        0,
        0,
        0,
        0,
        0,
        0,
        0,
        0,
        0,
        0,
        0,
        0,
        0,
        0,
        0,
        0,
        0,
        0,
        0,
        0,
        0,
        0,
        0,
        0,
        0,
        0,
        0,
        0,
        0,
        28,
        0,
        0,
        0,
        0,
        0,
        0,
        0,
        0,
        0,
        0,
        0,
        0,
        0,
        0,
        0,
        0,
        0,
        0,
        0,
        0,
        0,
        0,
        0,
        0,
        0,
        0,
        0,
        0,
        0,
        0,
        0,
        0,
        0,
        28,
        0,
        0,
        0,
        0,
        0,
        0,
        0,
        0,
        0,
        0,
        0,
        0,
        0,
        0,
        0,
        0,
        0,
        0,
        0,
        0,
        0,
        0,
        0,
        0,
        0,
        0,
        0,
        0,
        0,
        0,
        0,
        0,
        0,
        28,
        0,
        0,
        0,
        0,
        0,
        0,
        0,
        0,
        0,
        0,
        0,
        0,
        0,
        0,
        0,
        0,
        0,
        0,
        0,
        0,
        0,
        0,
        0,
        0,
        0,
        0,
        0,
        0,
        0,
        0,
        28,
        0,
        0,
        0,
        0,
        29,
        79,
        0,
        77,
        77,
        0,
        0,
        29,
        63,
        0,
        0,
        0,
        0,
        64,
        0,
        0,
        0,
        0,
        28,
        0,
        0,
        0,
        0,
        64,
        0,
        0,
        35,
        0,
        63,
        0,
        0,
        0,
        0,
        0,
        0,
        0,
        0,
        0,
        63,
        0,
        0,
        0,
        0,
        64,
        0,
        0,
        0,
        0,
        0,
        0,
        0,
        0,
        0,
        64,
        0,
        0,
        28,
        0,
        33,
        0,
        0,
        0,
        0,
        0,
        0,
        0,
        0,
        0,
        0,
        0,
        0,
        0,
        0,
        0,
        0,
        0,
        0,
        0,
        0,
        0,
        0,
        0,
        0,
        0,
        0,
        0,
        0,
        0,
        63,
        0,
        28,
        0,
        35,
        64,
        0,
        0,
        0,
        0,
        0,
        0,
        0,
        0,
        0,
        0,
        0,
        0,
        0,
        0,
        0,
        0,
        0,
        0,
        0,
        0,
        0,
        0,
        0,
        0,
        0,
        0,
        0,
        0,
        0,
        64,
        28,
        0,
        33,
        0,
        63,
        0,
        0,
        0,
        0,
        0,
        0,
        0,
        0,
        0,
        0,
        0,
        0,
        0,
        0,
        0,
        0,
        0,
        0,
        0,
        0,
        0,
        0,
        0,
        0,
        0,
        0,
        28,
        33,
        0,
        34,
        0,
        29,
        0,
        0,
        77,
        77,
        0,
        0,
        29,
        0,
        0,
        0,
        0,
        0,
        0,
        0,
        0,
        0,
        0,
        0,
        0,
        0,
        0,
        0,
        0,
        0,
        0,
        0,
        0,
        0,
        0,
        0,
        0,
        0,
        0,
        0,
        0,
        0,
        0,
        0,
        0,
        0,
        0,
        0,
        0,
        0,
        0,
        0,
        0,
        0,
        0,
        0,
        0,
        0,
        0,
        0,
        0,
        0,
        0,
        0,
        0,
        0,
        0,
        0,
        0,
        0,
        0,
        0,
        0,
        0,
        0,
        0,
        0,
        0,
        0,
        0,
        0,
        0,
        0,
        0,
        0,
        0,
        0,
        0,
        0,
        0,
        0,
        0,
        0,
        0,
        0,
        0,
        0,
        0,
        0,
        0,
        0,
        0,
        0,
        0,
        0,
        0,
        0,
        0,
        0,
        0,
        0,
        0,
        0,
        0,
        0,
        0,
        0,
        0,
        0,
        0,
        0,
        0,
        0,
        0,
        0,
        0,
        0,
        0,
        0,
        0,
        0,
        0,
        0,
        0,
        0,
        0,
        0,
        0,
        0,
        0,
        0,
        0,
        0,
        0,
        0,
        0,
        0,
        0,
        0,
        0,
        0,
        0,
        0,
        0,
        0,
        0,
        0,
        0,
        0,
        0,
        0,
        0,
        0,
        0,
        0,
        0,
        0,
        0,
        0,
        0,
        0,
        0,
        0,
        0,
        0,
        0,
        0,
        0,
        0,
        0,
        0,
        0,
        0,
        0,
        0,
        0,
        0,
        0,
        0,
        0,
        0,
        0,
        0,
        0,
        0,
        0,
        0,
        0,
        0,
        0,
        0,
        0,
        0,
        0,
        0,
        0,
        0,
        0,
        0,
        0,
        0,
        0,
        0,
        0,
        0,
        0,
        0,
        0,
        0,
        0,
        0,
        0,
        0,
        0,
        0,
        0,
        0,
        0,
        0,
        0,
        0,
        0,
        0,
        0,
        0,
        0,
        0,
        0,
        0,
        0,
        0,
        0,
        0,
        0,
        0,
        0,
        0,
        0,
        0,
        0,
        0,
        0,
        0,
        0,
        0,
        0,
        0,
        0,
        0,
        0,
        0,
        0,
        0,
        0,
        0,
        0,
        0,
        0,
        0,
        0,
        0,
        0,
        0,
        0,
        0,
        0,
        0,
        0,
        0,
        0,
        0,
        0,
        0,
        0,
        0,
        0,
        0,
        0,
        0,
        0,
        0,
        0,
        0,
        0,
        0,
        0,
        0,
        0,
        0,
        0,
        0,
        0,
        0,
        0,
        0,
        0,
        0,
        0,
        0,
        0,
        0,
        0,
        0,
        0,
        0,
        0,
        0,
        0,
        0,
        0,
        0,
        0,
        0,
        0,
        0,
        0,
        0,
        0,
        0,
        0,
        0,
        0,
        0,
        0,
        0,
        0,
        0,
        0,
        0,
        0,
        0,
        0,
        0,
        0,
        0,
        0,
        0,
        0,
        0,
        0,
        0,
        0,
        0,
        0,
        0,
        0,
        0,
        0,
        0,
        0,
        0,
        0,
        0,
        0,
        0,
        0,
        0,
        0,
        0,
        0,
        0,
        0,
        0,
        0,
        0,
        0,
        0,
        0,
        0,
        0,
        0,
        0,
        0,
        0,
        0,
        0,
        0,
        0,
        0,
        0,
        0,
        0,
        0,
        0,
        0,
        0,
        0,
        0,
        0,
        0,
        0,
        0,
        0,
        0,
        0,
        0,
        0,
        0,
        0,
        0,
        0,
        0,
        0,
        0,
        0,
        0,
        0,
        0,
        0,
        0,
        0,
        0,
        0,
        0,
        0,
        0,
        0,
        0,
        0,
        0,
        0,
        0,
        0,
        0,
        0,
        0,
        0,
        0,
        0,
        0,
        0,
        0,
        0,
        0,
        0,
        0,
        0,
        0,
        0,
        0,
        0,
        0,
        0,
        0,
        0,
        0,
        0,
        0,
        0,
        0,
        0,
        0,
        0,
        0,
        0,
        0,
        0,
        0,
        0,
        0,
        0,
        0,
        0,
        0,
        0,
        0,
        0,
        0,
        0,
        0,
        0,
        0,
        0,
        0,
        0,
        0,
        0,
        0,
        0,
        0,
        0,
        0,
        0,
        0,
        0,
        0,
        0,
        0,
        0,
        0,
        0,
        0,
        0,
        0,
        0,
        0,
        0,
        0,
        0,
        0,
        0,
        0,
        0,
        0,
        0,
        0,
        0,
        0,
        0,
        0,
        0,
        0,
        0,
        0,
        0,
        0,
        0,
        0,
        0,
        0,
        0,
        0,
        0,
        0,
        0,
        0,
        0,
        0,
        0,
        0,
        0,
        0,
        0,
        0,
        0,
        0,
        0,
        0,
        0,
        0,
        0,
        0,
        0,
        0,
        0,
        0,
        0,
        0,
        0,
        0,
        0,
        0,
        0,
        0,
        0,
        0,
        0,
        0,
        0,
        0,
        0,
        0,
        0,
        0,
        0,
        0,
        0,
        0,
        0,
        0,
        0,
        0,
        0,
        0,
        0,
        0,
        0,
        0,
        0,
        0,
        0,
        0,
        0,
        0,
        0,
        0,
        0,
        0,
        0,
        0,
        0,
        0,
        0,
        0,
        0,
        0,
        0,
        0,
        0,
        0,
        0,
        0,
        0,
        0,
        0,
        0,
        0,
        0,
        0,
        0,
        0,
        0,
        0,
        0,
        0,
        0,
        0,
        0,
        0,
        0,
        0,
        0,
        0,
        0,
        0,
        0,
        0,
        0,
        0,
        0,
        0,
        0,
        0,
        0,
        0,
        0,
        0,
        0,
        0,
        0,
        0,
        0,
        0
      ]
    },
    {
      "id": 5,
      "name": "Spawns",
      "type": "objectgroup",
      "x": 0,
      "y": 0,
      "opacity": 1,
      "visible": true,
      "draworder": "topdown",
      "objects": [
        {
          "name": "Player",
          "x": 48,
          "y": 178,
          "id": 1,
          "type": "",
          "point": true,
          "width": 0,
          "height": 0,
          "rotation": 0,
          "visible": true
        },
        {
          "name": "Zombie",
          "x": 200,
          "y": 178,
          "id": 2,
          "type": "",
          "point": true,
          "width": 0,
          "height": 0,
          "rotation": 0,
          "visible": true
        },
        {
          "name": "Zombie",
          "x": 328,
          "y": 178,
          "id": 3,
          "type": "",
          "point": true,
          "width": 0,
          "height": 0,
          "rotation": 0,
          "visible": true
        },
        {
          "name": "Zombie",
          "x": 520,
          "y": 178,
          "id": 4,
          "type": "",
          "point": true,
          "width": 0,
          "height": 0,
          "rotation": 0,
          "visible": true
        },
        {
          "name": "Zombie",
          "x": 776,
          "y": 178,
          "id": 5,
          "type": "",
          "point": true,
          "width": 0,
          "height": 0,
          "rotation": 0,
          "visible": true
        },
        {
          "name": "Zombie",
          "x": 936,
          "y": 146,
          "id": 6,
          "type": "",
          "point": true,
          "width": 0,
          "height": 0,
          "rotation": 0,
          "visible": true
        },
        {
          "name": "Zombie",
          "x": 1064,
          "y": 114,
          "id": 7,
          "type": "",
          "point": true,
          "width": 0,
          "height": 0,
          "rotation": 0,
          "visible": true
        },
        {
          "name": "Zombie",
          "x": 1320,
          "y": 178,
          "id": 8,
          "type": "",
          "point": true,
          "width": 0,
          "height": 0,
          "rotation": 0,
          "visible": true
        },
        {
          "name": "Zombie",
          "x": 1480,
          "y": 146,
          "id": 9,
          "type": "",
          "point": true,
          "width": 0,
          "height": 0,
          "rotation": 0,
          "visible": true
        },
        {
          "name": "Zombie",
          "x": 1608,
          "y": 114,
          "id": 10,
          "type": "",
          "point": true,
          "width": 0,
          "height": 0,
          "rotation": 0,
          "visible": true
        },
        {
          "name": "Zombie",
          "x": 1864,
          "y": 178,
          "id": 11,
          "type": "",
          "point": true,
          "width": 0,
          "height": 0,
          "rotation": 0,
          "visible": true
        },
        {
          "name": "Zombie",
          "x": 2024,
          "y": 146,
          "id": 12,
          "type": "",
          "point": true,
          "width": 0,
          "height": 0,
          "rotation": 0,
          "visible": true
        },
        {
          "name": "Zombie",
          "x": 2152,
          "y": 114,
          "id": 13,
          "type": "",
          "point": true,
          "width": 0,
          "height": 0,
          "rotation": 0,
          "visible": true
        },
        {
          "name": "Zombie",
          "x": 2280,
          "y": 146,
          "id": 14,
          "type": "",
          "point": true,
          "width": 0,
          "height": 0,
          "rotation": 0,
          "visible": true
        },
        {
          "name": "Zombie",
          "x": 2376,
          "y": 178,
          "id": 15,
          "type": "",
          "point": true,
          "width": 0,
          "height": 0,
          "rotation": 0,
          "visible": true
        },
        {
          "name": "Zombie",
          "x": 2472,
          "y": 178,
          "id": 16,
          "type": "",
          "point": true,
          "width": 0,
          "height": 0,
          "rotation": 0,
          "visible": true
        }
      ]
    }
  ],
  "tilesets": [
    {
      "type": "tileset",
      "version": "1.10",
      "name": "jungle-outpost-16",
      "tilewidth": 16,
      "tileheight": 16,
      "columns": 8,
      "tilecount": 80,
      "spacing": 0,
      "margin": 0,
      "image": "../tilesets/jungle-outpost-16.png",
      "imagewidth": 128,
      "imageheight": 160,
      "tiles": [
        {
          "id": 0,
          "properties": [
            {
              "name": "name",
              "type": "string",
              "value": "floor_top_left"
            },
            {
              "name": "category",
              "type": "string",
              "value": "solid"
            },
            {
              "name": "collides",
              "type": "bool",
              "value": true
            }
          ]
        },
        {
          "id": 1,
          "properties": [
            {
              "name": "name",
              "type": "string",
              "value": "floor_top_middle"
            },
            {
              "name": "category",
              "type": "string",
              "value": "solid"
            },
            {
              "name": "collides",
              "type": "bool",
              "value": true
            }
          ]
        },
        {
          "id": 2,
          "properties": [
            {
              "name": "name",
              "type": "string",
              "value": "floor_top_right"
            },
            {
              "name": "category",
              "type": "string",
              "value": "solid"
            },
            {
              "name": "collides",
              "type": "bool",
              "value": true
            }
          ]
        },
        {
          "id": 3,
          "properties": [
            {
              "name": "name",
              "type": "string",
              "value": "wall_top_left"
            },
            {
              "name": "category",
              "type": "string",
              "value": "background"
            },
            {
              "name": "collides",
              "type": "bool",
              "value": false
            }
          ]
        },
        {
          "id": 4,
          "properties": [
            {
              "name": "name",
              "type": "string",
              "value": "wall_top_middle"
            },
            {
              "name": "category",
              "type": "string",
              "value": "background"
            },
            {
              "name": "collides",
              "type": "bool",
              "value": false
            }
          ]
        },
        {
          "id": 5,
          "properties": [
            {
              "name": "name",
              "type": "string",
              "value": "wall_top_right"
            },
            {
              "name": "category",
              "type": "string",
              "value": "background"
            },
            {
              "name": "collides",
              "type": "bool",
              "value": false
            }
          ]
        },
        {
          "id": 6,
          "properties": [
            {
              "name": "name",
              "type": "string",
              "value": "wall_vent"
            },
            {
              "name": "category",
              "type": "string",
              "value": "background"
            },
            {
              "name": "collides",
              "type": "bool",
              "value": false
            }
          ]
        },
        {
          "id": 7,
          "properties": [
            {
              "name": "name",
              "type": "string",
              "value": "wall_terminal"
            },
            {
              "name": "category",
              "type": "string",
              "value": "background"
            },
            {
              "name": "collides",
              "type": "bool",
              "value": false
            }
          ]
        },
        {
          "id": 8,
          "properties": [
            {
              "name": "name",
              "type": "string",
              "value": "floor_middle_left"
            },
            {
              "name": "category",
              "type": "string",
              "value": "solid"
            },
            {
              "name": "collides",
              "type": "bool",
              "value": true
            }
          ]
        },
        {
          "id": 9,
          "properties": [
            {
              "name": "name",
              "type": "string",
              "value": "floor_middle_middle"
            },
            {
              "name": "category",
              "type": "string",
              "value": "solid"
            },
            {
              "name": "collides",
              "type": "bool",
              "value": true
            }
          ]
        },
        {
          "id": 10,
          "properties": [
            {
              "name": "name",
              "type": "string",
              "value": "floor_middle_right"
            },
            {
              "name": "category",
              "type": "string",
              "value": "solid"
            },
            {
              "name": "collides",
              "type": "bool",
              "value": true
            }
          ]
        },
        {
          "id": 11,
          "properties": [
            {
              "name": "name",
              "type": "string",
              "value": "wall_middle_left"
            },
            {
              "name": "category",
              "type": "string",
              "value": "background"
            },
            {
              "name": "collides",
              "type": "bool",
              "value": false
            }
          ]
        },
        {
          "id": 12,
          "properties": [
            {
              "name": "name",
              "type": "string",
              "value": "wall_middle_middle"
            },
            {
              "name": "category",
              "type": "string",
              "value": "background"
            },
            {
              "name": "collides",
              "type": "bool",
              "value": false
            }
          ]
        },
        {
          "id": 13,
          "properties": [
            {
              "name": "name",
              "type": "string",
              "value": "wall_middle_right"
            },
            {
              "name": "category",
              "type": "string",
              "value": "background"
            },
            {
              "name": "collides",
              "type": "bool",
              "value": false
            }
          ]
        },
        {
          "id": 14,
          "properties": [
            {
              "name": "name",
              "type": "string",
              "value": "wall_light"
            },
            {
              "name": "category",
              "type": "string",
              "value": "background"
            },
            {
              "name": "collides",
              "type": "bool",
              "value": false
            }
          ]
        },
        {
          "id": 15,
          "properties": [
            {
              "name": "name",
              "type": "string",
              "value": "wall_warning"
            },
            {
              "name": "category",
              "type": "string",
              "value": "background"
            },
            {
              "name": "collides",
              "type": "bool",
              "value": false
            }
          ]
        },
        {
          "id": 16,
          "properties": [
            {
              "name": "name",
              "type": "string",
              "value": "floor_bottom_left"
            },
            {
              "name": "category",
              "type": "string",
              "value": "solid"
            },
            {
              "name": "collides",
              "type": "bool",
              "value": true
            }
          ]
        },
        {
          "id": 17,
          "properties": [
            {
              "name": "name",
              "type": "string",
              "value": "floor_bottom_middle"
            },
            {
              "name": "category",
              "type": "string",
              "value": "solid"
            },
            {
              "name": "collides",
              "type": "bool",
              "value": true
            }
          ]
        },
        {
          "id": 18,
          "properties": [
            {
              "name": "name",
              "type": "string",
              "value": "floor_bottom_right"
            },
            {
              "name": "category",
              "type": "string",
              "value": "solid"
            },
            {
              "name": "collides",
              "type": "bool",
              "value": true
            }
          ]
        },
        {
          "id": 19,
          "properties": [
            {
              "name": "name",
              "type": "string",
              "value": "wall_bottom_left"
            },
            {
              "name": "category",
              "type": "string",
              "value": "background"
            },
            {
              "name": "collides",
              "type": "bool",
              "value": false
            }
          ]
        },
        {
          "id": 20,
          "properties": [
            {
              "name": "name",
              "type": "string",
              "value": "wall_bottom_middle"
            },
            {
              "name": "category",
              "type": "string",
              "value": "background"
            },
            {
              "name": "collides",
              "type": "bool",
              "value": false
            }
          ]
        },
        {
          "id": 21,
          "properties": [
            {
              "name": "name",
              "type": "string",
              "value": "wall_bottom_right"
            },
            {
              "name": "category",
              "type": "string",
              "value": "background"
            },
            {
              "name": "collides",
              "type": "bool",
              "value": false
            }
          ]
        },
        {
          "id": 22,
          "properties": [
            {
              "name": "name",
              "type": "string",
              "value": "wall_conduit"
            },
            {
              "name": "category",
              "type": "string",
              "value": "background"
            },
            {
              "name": "collides",
              "type": "bool",
              "value": false
            }
          ]
        },
        {
          "id": 23,
          "properties": [
            {
              "name": "name",
              "type": "string",
              "value": "wall_access_panel"
            },
            {
              "name": "category",
              "type": "string",
              "value": "background"
            },
            {
              "name": "collides",
              "type": "bool",
              "value": false
            }
          ]
        },
        {
          "id": 24,
          "properties": [
            {
              "name": "name",
              "type": "string",
              "value": "platform_left"
            },
            {
              "name": "category",
              "type": "string",
              "value": "one_way"
            },
            {
              "name": "collides",
              "type": "bool",
              "value": false
            }
          ]
        },
        {
          "id": 25,
          "properties": [
            {
              "name": "name",
              "type": "string",
              "value": "platform_middle"
            },
            {
              "name": "category",
              "type": "string",
              "value": "one_way"
            },
            {
              "name": "collides",
              "type": "bool",
              "value": false
            }
          ]
        },
        {
          "id": 26,
          "properties": [
            {
              "name": "name",
              "type": "string",
              "value": "platform_right"
            },
            {
              "name": "category",
              "type": "string",
              "value": "one_way"
            },
            {
              "name": "collides",
              "type": "bool",
              "value": false
            }
          ]
        },
        {
          "id": 27,
          "properties": [
            {
              "name": "name",
              "type": "string",
              "value": "ladder"
            },
            {
              "name": "category",
              "type": "string",
              "value": "ladder"
            },
            {
              "name": "collides",
              "type": "bool",
              "value": false
            }
          ]
        },
        {
          "id": 28,
          "properties": [
            {
              "name": "name",
              "type": "string",
              "value": "beam_vertical"
            },
            {
              "name": "category",
              "type": "string",
              "value": "decoration"
            },
            {
              "name": "collides",
              "type": "bool",
              "value": false
            }
          ]
        },
        {
          "id": 29,
          "properties": [
            {
              "name": "name",
              "type": "string",
              "value": "beam_horizontal"
            },
            {
              "name": "category",
              "type": "string",
              "value": "decoration"
            },
            {
              "name": "collides",
              "type": "bool",
              "value": false
            }
          ]
        },
        {
          "id": 30,
          "properties": [
            {
              "name": "name",
              "type": "string",
              "value": "brace_left"
            },
            {
              "name": "category",
              "type": "string",
              "value": "decoration"
            },
            {
              "name": "collides",
              "type": "bool",
              "value": false
            }
          ]
        },
        {
          "id": 31,
          "properties": [
            {
              "name": "name",
              "type": "string",
              "value": "brace_right"
            },
            {
              "name": "category",
              "type": "string",
              "value": "decoration"
            },
            {
              "name": "collides",
              "type": "bool",
              "value": false
            }
          ]
        },
        {
          "id": 32,
          "properties": [
            {
              "name": "name",
              "type": "string",
              "value": "crate_steel"
            },
            {
              "name": "category",
              "type": "string",
              "value": "decoration"
            },
            {
              "name": "collides",
              "type": "bool",
              "value": false
            }
          ]
        },
        {
          "id": 33,
          "properties": [
            {
              "name": "name",
              "type": "string",
              "value": "crate_cargo"
            },
            {
              "name": "category",
              "type": "string",
              "value": "decoration"
            },
            {
              "name": "collides",
              "type": "bool",
              "value": false
            }
          ]
        },
        {
          "id": 34,
          "properties": [
            {
              "name": "name",
              "type": "string",
              "value": "barrel_energy"
            },
            {
              "name": "category",
              "type": "string",
              "value": "decoration"
            },
            {
              "name": "collides",
              "type": "bool",
              "value": false
            }
          ]
        },
        {
          "id": 35,
          "properties": [
            {
              "name": "name",
              "type": "string",
              "value": "server"
            },
            {
              "name": "category",
              "type": "string",
              "value": "decoration"
            },
            {
              "name": "collides",
              "type": "bool",
              "value": false
            }
          ]
        },
        {
          "id": 36,
          "properties": [
            {
              "name": "name",
              "type": "string",
              "value": "console"
            },
            {
              "name": "category",
              "type": "string",
              "value": "decoration"
            },
            {
              "name": "collides",
              "type": "bool",
              "value": false
            }
          ]
        },
        {
          "id": 37,
          "properties": [
            {
              "name": "name",
              "type": "string",
              "value": "ceiling_lamp"
            },
            {
              "name": "category",
              "type": "string",
              "value": "decoration"
            },
            {
              "name": "collides",
              "type": "bool",
              "value": false
            }
          ]
        },
        {
          "id": 38,
          "properties": [
            {
              "name": "name",
              "type": "string",
              "value": "door_top"
            },
            {
              "name": "category",
              "type": "string",
              "value": "background"
            },
            {
              "name": "collides",
              "type": "bool",
              "value": false
            }
          ]
        },
        {
          "id": 39,
          "properties": [
            {
              "name": "name",
              "type": "string",
              "value": "door_bottom"
            },
            {
              "name": "category",
              "type": "string",
              "value": "background"
            },
            {
              "name": "collides",
              "type": "bool",
              "value": false
            }
          ]
        },
        {
          "id": 40,
          "properties": [
            {
              "name": "name",
              "type": "string",
              "value": "pipe_horizontal"
            },
            {
              "name": "category",
              "type": "string",
              "value": "decoration"
            },
            {
              "name": "collides",
              "type": "bool",
              "value": false
            }
          ]
        },
        {
          "id": 41,
          "properties": [
            {
              "name": "name",
              "type": "string",
              "value": "pipe_vertical"
            },
            {
              "name": "category",
              "type": "string",
              "value": "decoration"
            },
            {
              "name": "collides",
              "type": "bool",
              "value": false
            }
          ]
        },
        {
          "id": 42,
          "properties": [
            {
              "name": "name",
              "type": "string",
              "value": "pipe_elbow_right_down"
            },
            {
              "name": "category",
              "type": "string",
              "value": "decoration"
            },
            {
              "name": "collides",
              "type": "bool",
              "value": false
            }
          ]
        },
        {
          "id": 43,
          "properties": [
            {
              "name": "name",
              "type": "string",
              "value": "pipe_elbow_left_down"
            },
            {
              "name": "category",
              "type": "string",
              "value": "decoration"
            },
            {
              "name": "collides",
              "type": "bool",
              "value": false
            }
          ]
        },
        {
          "id": 44,
          "properties": [
            {
              "name": "name",
              "type": "string",
              "value": "pipe_elbow_right_up"
            },
            {
              "name": "category",
              "type": "string",
              "value": "decoration"
            },
            {
              "name": "collides",
              "type": "bool",
              "value": false
            }
          ]
        },
        {
          "id": 45,
          "properties": [
            {
              "name": "name",
              "type": "string",
              "value": "pipe_elbow_left_up"
            },
            {
              "name": "category",
              "type": "string",
              "value": "decoration"
            },
            {
              "name": "collides",
              "type": "bool",
              "value": false
            }
          ]
        },
        {
          "id": 46,
          "properties": [
            {
              "name": "name",
              "type": "string",
              "value": "pipe_junction"
            },
            {
              "name": "category",
              "type": "string",
              "value": "decoration"
            },
            {
              "name": "collides",
              "type": "bool",
              "value": false
            }
          ]
        },
        {
          "id": 47,
          "properties": [
            {
              "name": "name",
              "type": "string",
              "value": "pipe_valve"
            },
            {
              "name": "category",
              "type": "string",
              "value": "decoration"
            },
            {
              "name": "collides",
              "type": "bool",
              "value": false
            }
          ]
        },
        {
          "id": 48,
          "properties": [
            {
              "name": "category",
              "type": "string",
              "value": "solid"
            },
            {
              "name": "collides",
              "type": "bool",
              "value": true
            }
          ]
        },
        {
          "id": 49,
          "properties": [
            {
              "name": "category",
              "type": "string",
              "value": "solid"
            },
            {
              "name": "collides",
              "type": "bool",
              "value": true
            }
          ]
        },
        {
          "id": 50,
          "properties": [
            {
              "name": "category",
              "type": "string",
              "value": "solid"
            },
            {
              "name": "collides",
              "type": "bool",
              "value": true
            }
          ]
        },
        {
          "id": 51,
          "properties": [
            {
              "name": "category",
              "type": "string",
              "value": "solid"
            },
            {
              "name": "collides",
              "type": "bool",
              "value": true
            }
          ]
        },
        {
          "id": 52,
          "properties": [
            {
              "name": "category",
              "type": "string",
              "value": "solid"
            },
            {
              "name": "collides",
              "type": "bool",
              "value": true
            }
          ]
        },
        {
          "id": 53,
          "properties": [
            {
              "name": "category",
              "type": "string",
              "value": "solid"
            },
            {
              "name": "collides",
              "type": "bool",
              "value": true
            }
          ]
        },
        {
          "id": 54,
          "properties": [
            {
              "name": "category",
              "type": "string",
              "value": "solid"
            },
            {
              "name": "collides",
              "type": "bool",
              "value": true
            }
          ]
        },
        {
          "id": 55,
          "properties": [
            {
              "name": "category",
              "type": "string",
              "value": "solid"
            },
            {
              "name": "collides",
              "type": "bool",
              "value": true
            }
          ]
        },
        {
          "id": 56,
          "properties": [
            {
              "name": "category",
              "type": "string",
              "value": "decoration"
            },
            {
              "name": "collides",
              "type": "bool",
              "value": false
            }
          ]
        },
        {
          "id": 57,
          "properties": [
            {
              "name": "category",
              "type": "string",
              "value": "decoration"
            },
            {
              "name": "collides",
              "type": "bool",
              "value": false
            }
          ]
        },
        {
          "id": 58,
          "properties": [
            {
              "name": "category",
              "type": "string",
              "value": "decoration"
            },
            {
              "name": "collides",
              "type": "bool",
              "value": false
            }
          ]
        },
        {
          "id": 59,
          "properties": [
            {
              "name": "category",
              "type": "string",
              "value": "decoration"
            },
            {
              "name": "collides",
              "type": "bool",
              "value": false
            }
          ]
        },
        {
          "id": 60,
          "properties": [
            {
              "name": "category",
              "type": "string",
              "value": "decoration"
            },
            {
              "name": "collides",
              "type": "bool",
              "value": false
            }
          ]
        },
        {
          "id": 61,
          "properties": [
            {
              "name": "category",
              "type": "string",
              "value": "decoration"
            },
            {
              "name": "collides",
              "type": "bool",
              "value": false
            }
          ]
        },
        {
          "id": 62,
          "properties": [
            {
              "name": "category",
              "type": "string",
              "value": "decoration"
            },
            {
              "name": "collides",
              "type": "bool",
              "value": false
            }
          ]
        },
        {
          "id": 63,
          "properties": [
            {
              "name": "category",
              "type": "string",
              "value": "decoration"
            },
            {
              "name": "collides",
              "type": "bool",
              "value": false
            }
          ]
        },
        {
          "id": 64,
          "properties": [
            {
              "name": "category",
              "type": "string",
              "value": "decoration"
            },
            {
              "name": "collides",
              "type": "bool",
              "value": false
            }
          ]
        },
        {
          "id": 65,
          "properties": [
            {
              "name": "category",
              "type": "string",
              "value": "decoration"
            },
            {
              "name": "collides",
              "type": "bool",
              "value": false
            }
          ]
        },
        {
          "id": 66,
          "properties": [
            {
              "name": "category",
              "type": "string",
              "value": "decoration"
            },
            {
              "name": "collides",
              "type": "bool",
              "value": false
            }
          ]
        },
        {
          "id": 67,
          "properties": [
            {
              "name": "category",
              "type": "string",
              "value": "decoration"
            },
            {
              "name": "collides",
              "type": "bool",
              "value": false
            }
          ]
        },
        {
          "id": 68,
          "properties": [
            {
              "name": "category",
              "type": "string",
              "value": "decoration"
            },
            {
              "name": "collides",
              "type": "bool",
              "value": false
            }
          ]
        },
        {
          "id": 69,
          "properties": [
            {
              "name": "category",
              "type": "string",
              "value": "decoration"
            },
            {
              "name": "collides",
              "type": "bool",
              "value": false
            }
          ]
        },
        {
          "id": 70,
          "properties": [
            {
              "name": "category",
              "type": "string",
              "value": "decoration"
            },
            {
              "name": "collides",
              "type": "bool",
              "value": false
            }
          ]
        },
        {
          "id": 71,
          "properties": [
            {
              "name": "category",
              "type": "string",
              "value": "decoration"
            },
            {
              "name": "collides",
              "type": "bool",
              "value": false
            }
          ]
        },
        {
          "id": 72,
          "properties": [
            {
              "name": "category",
              "type": "string",
              "value": "decoration"
            },
            {
              "name": "collides",
              "type": "bool",
              "value": false
            }
          ]
        },
        {
          "id": 73,
          "properties": [
            {
              "name": "category",
              "type": "string",
              "value": "solid"
            },
            {
              "name": "collides",
              "type": "bool",
              "value": true
            }
          ]
        },
        {
          "id": 74,
          "properties": [
            {
              "name": "category",
              "type": "string",
              "value": "solid"
            },
            {
              "name": "collides",
              "type": "bool",
              "value": true
            }
          ]
        },
        {
          "id": 75,
          "properties": [
            {
              "name": "category",
              "type": "string",
              "value": "solid"
            },
            {
              "name": "collides",
              "type": "bool",
              "value": true
            }
          ]
        },
        {
          "id": 76,
          "properties": [
            {
              "name": "category",
              "type": "string",
              "value": "decoration"
            },
            {
              "name": "collides",
              "type": "bool",
              "value": false
            }
          ]
        },
        {
          "id": 77,
          "properties": [
            {
              "name": "category",
              "type": "string",
              "value": "decoration"
            },
            {
              "name": "collides",
              "type": "bool",
              "value": false
            }
          ]
        },
        {
          "id": 78,
          "properties": [
            {
              "name": "category",
              "type": "string",
              "value": "decoration"
            },
            {
              "name": "collides",
              "type": "bool",
              "value": false
            }
          ]
        },
        {
          "id": 79,
          "properties": [
            {
              "name": "category",
              "type": "string",
              "value": "decoration"
            },
            {
              "name": "collides",
              "type": "bool",
              "value": false
            }
          ]
        }
      ],
      "firstgid": 1
    }
  ]
}
