{
  "type": "map",
  "version": "1.10",
  "tiledversion": "1.9.0",
  "orientation": "orthogonal",
  "renderorder": "right-down",
  "infinite": false,
  "width": 48,
  "height": 26,
  "tilewidth": 16,
  "tileheight": 16,
  "backgroundcolor": "#101923",
  "nextlayerid": 6,
  "nextobjectid": 6,
  "layers": [
    {
      "id": 1,
      "name": "Background",
      "type": "tilelayer",
      "x": 0,
      "y": 0,
      "width": 48,
      "height": 26,
      "opacity": 1,
      "visible": true,
      "data": [
        0,
        0,
        0,
        0,
        0,
        0,
        0,
        0,
        0,
        0,
        0,
        0,
        0,
        0,
        0,
        0,
        0,
        0,
        0,
        0,
        0,
        0,
        0,
        0,
        0,
        0,
        0,
        0,
        0,
        0,
        0,
        0,
        0,
        0,
        0,
        0,
        0,
        0,
        0,
        0,
        0,
        0,
        0,
        0,
        0,
        0,
        0,
        0,
        0,
        4,
        5,
        5,
        5,
        5,
        5,
        5,
        5,
        5,
        5,
        5,
        5,
        5,
        5,
        5,
        5,
        5,
        5,
        5,
        5,
        5,
        5,
        5,
        5,
        5,
        5,
        5,
        5,
        5,
        5,
        5,
        5,
        5,
        5,
        5,
        5,
        5,
        5,
        5,
        5,
        5,
        5,
        5,
        5,
        5,
        6,
        0,
        0,
        12,
        13,
        13,
        15,
        13,
        13,
        13,
        13,
        15,
        13,
        13,
        13,
        13,
        15,
        13,
        13,
        13,
        13,
        15,
        13,
        13,
        13,
        13,
        15,
        13,
        13,
        13,
        13,
        15,
        13,
        13,
        13,
        13,
        15,
        13,
        13,
        13,
        13,
        15,
        13,
        13,
        13,
        13,
        13,
        13,
        14,
        0,
        0,
        12,
        29,
        13,
        13,
        13,
        13,
        13,
        13,
        13,
        13,
        13,
        13,
        13,
        13,
        13,
        13,
        13,
        13,
        13,
        13,
        13,
        13,
        13,
        13,
        13,
        13,
        13,
        13,
        13,
        13,
        13,
        13,
        13,
        13,
        13,
        13,
        13,
        13,
        13,
        13,
        13,
        13,
        13,
        13,
        29,
        14,
        0,
        0,
        12,
        29,
        13,
        13,
        13,
        13,
        13,
        13,
        13,
        13,
        13,
        13,
        13,
        13,
        13,
        13,
        13,
        13,
        13,
        13,
        13,
        13,
        13,
        13,
        13,
        13,
        13,
        13,
        13,
        13,
        13,
        13,
        13,
        13,
        13,
        13,
        13,
        13,
        13,
        13,
        13,
        13,
        13,
        13,
        29,
        14,
        0,
        0,
        12,
        29,
        13,
        13,
        13,
        13,
        13,
        13,
        13,
        13,
        13,
        13,
        13,
        13,
        13,
        13,
        13,
        13,
        13,
        13,
        13,
        13,
        13,
        13,
        13,
        13,
        13,
        13,
        13,
        13,
        13,
        13,
        13,
        13,
        13,
        13,
        13,
        13,
        13,
        13,
        13,
        13,
        13,
        13,
        29,
        14,
        0,
        0,
        12,
        29,
        13,
        13,
        13,
        13,
        13,
        13,
        13,
        13,
        13,
        13,
        13,
        13,
        13,
        13,
        13,
        13,
        13,
        13,
        13,
        13,
        13,
        13,
        13,
        13,
        13,
        13,
        13,
        13,
        13,
        13,
        13,
        13,
        13,
        13,
        13,
        13,
        13,
        13,
        13,
        13,
        13,
        13,
        29,
        14,
        0,
        0,
        12,
        29,
        13,
        7,
        13,
        13,
        13,
        13,
        7,
        13,
        13,
        13,
        13,
        7,
        13,
        13,
        13,
        13,
        7,
        13,
        13,
        13,
        13,
        7,
        13,
        13,
        13,
        13,
        7,
        13,
        13,
        13,
        13,
        7,
        13,
        13,
        13,
        13,
        7,
        13,
        13,
        13,
        13,
        13,
        29,
        14,
        0,
        0,
        12,
        29,
        13,
        13,
        13,
        13,
        13,
        13,
        13,
        13,
        13,
        13,
        13,
        13,
        13,
        13,
        13,
        13,
        13,
        13,
        13,
        13,
        13,
        13,
        13,
        13,
        13,
        13,
        13,
        13,
        13,
        13,
        13,
        13,
        13,
        13,
        13,
        13,
        13,
        13,
        13,
        13,
        13,
        13,
        29,
        14,
        0,
        0,
        12,
        29,
        13,
        13,
        13,
        13,
        13,
        13,
        13,
        13,
        13,
        13,
        13,
        13,
        13,
        13,
        13,
        13,
        13,
        13,
        13,
        13,
        13,
        13,
        13,
        13,
        13,
        13,
        13,
        13,
        13,
        13,
        13,
        13,
        13,
        13,
        13,
        13,
        13,
        13,
        13,
        13,
        13,
        13,
        29,
        14,
        0,
        0,
        12,
        29,
        13,
        13,
        13,
        13,
        13,
        13,
        13,
        13,
        13,
        13,
        13,
        13,
        13,
        13,
        13,
        13,
        13,
        13,
        13,
        13,
        8,
        16,
        13,
        13,
        13,
        13,
        13,
        13,
        13,
        13,
        13,
        13,
        13,
        13,
        13,
        13,
        13,
        13,
        13,
        13,
        13,
        13,
        29,
        14,
        0,
        0,
        12,
        29,
        13,
        13,
        13,
        13,
        13,
        13,
        13,
        13,
        13,
        13,
        13,
        13,
        13,
        13,
        13,
        13,
        13,
        13,
        13,
        13,
        13,
        13,
        13,
        13,
        13,
        13,
        13,
        13,
        13,
        13,
        13,
        13,
        13,
        13,
        13,
        13,
        13,
        13,
        13,
        13,
        13,
        13,
        29,
        14,
        0,
        0,
        12,
        29,
        13,
        13,
        13,
        13,
        13,
        13,
        13,
        13,
        13,
        13,
        13,
        13,
        13,
        13,
        13,
        13,
        13,
        13,
        13,
        13,
        13,
        13,
        13,
        13,
        13,
        13,
        13,
        13,
        13,
        13,
        13,
        13,
        13,
        13,
        13,
        13,
        13,
        13,
        13,
        13,
        13,
        13,
        29,
        14,
        0,
        0,
        12,
        29,
        13,
        13,
        13,
        13,
        13,
        13,
        13,
        13,
        13,
        13,
        13,
        13,
        13,
        13,
        13,
        13,
        13,
        13,
        13,
        13,
        13,
        13,
        13,
        13,
        13,
        13,
        13,
        13,
        13,
        13,
        13,
        13,
        13,
        13,
        13,
        13,
        13,
        13,
        13,
        13,
        13,
        13,
        29,
        14,
        0,
        0,
        12,
        29,
        13,
        13,
        13,
        13,
        13,
        13,
        13,
        13,
        13,
        13,
        13,
        13,
        13,
        13,
        13,
        13,
        13,
        13,
        13,
        13,
        13,
        13,
        13,
        13,
        13,
        13,
        13,
        13,
        13,
        13,
        13,
        13,
        13,
        13,
        13,
        13,
        13,
        13,
        13,
        13,
        13,
        13,
        29,
        14,
        0,
        0,
        12,
        29,
        13,
        23,
        13,
        13,
        13,
        13,
        23,
        13,
        13,
        13,
        13,
        23,
        13,
        13,
        13,
        13,
        23,
        13,
        13,
        13,
        13,
        23,
        13,
        13,
        13,
        13,
        23,
        13,
        13,
        13,
        13,
        23,
        13,
        13,
        13,
        13,
        23,
        13,
        13,
        13,
        13,
        13,
        29,
        14,
        0,
        0,
        12,
        29,
        13,
        13,
        13,
        13,
        13,
        13,
        13,
        13,
        13,
        13,
        13,
        13,
        13,
        13,
        13,
        13,
        13,
        13,
        13,
        13,
        13,
        13,
        13,
        13,
        13,
        13,
        13,
        13,
        13,
        13,
        13,
        13,
        13,
        13,
        13,
        13,
        13,
        13,
        13,
        13,
        13,
        13,
        29,
        14,
        0,
        0,
        12,
        29,
        13,
        13,
        13,
        13,
        13,
        13,
        13,
        13,
        13,
        13,
        13,
        13,
        13,
        13,
        13,
        13,
        13,
        13,
        13,
        13,
        13,
        13,
        13,
        13,
        13,
        13,
        13,
        13,
        13,
        13,
        13,
        13,
        13,
        13,
        13,
        13,
        13,
        13,
        13,
        13,
        13,
        13,
        29,
        14,
        0,
        0,
        12,
        29,
        13,
        13,
        13,
        13,
        13,
        13,
        13,
        13,
        13,
        13,
        13,
        13,
        13,
        13,
        13,
        13,
        13,
        13,
        13,
        13,
        13,
        13,
        13,
        13,
        13,
        13,
        13,
        13,
        13,
        13,
        13,
        13,
        13,
        13,
        13,
        13,
        13,
        13,
        13,
        13,
        13,
        13,
        29,
        14,
        0,
        0,
        12,
        29,
        13,
        24,
        13,
        13,
        13,
        13,
        24,
        13,
        13,
        13,
        13,
        24,
        13,
        13,
        13,
        13,
        24,
        13,
        13,
        13,
        13,
        24,
        13,
        13,
        13,
        13,
        24,
        13,
        13,
        13,
        13,
        24,
        13,
        13,
        13,
        13,
        24,
        13,
        13,
        13,
        13,
        13,
        29,
        14,
        0,
        0,
        12,
        29,
        13,
        13,
        13,
        13,
        13,
        13,
        13,
        13,
        13,
        13,
        13,
        13,
        13,
        13,
        13,
        13,
        13,
        13,
        13,
        13,
        13,
        13,
        13,
        13,
        13,
        13,
        13,
        13,
        13,
        13,
        13,
        13,
        13,
        13,
        13,
        13,
        13,
        13,
        13,
        13,
        13,
        13,
        29,
        14,
        0,
        0,
        12,
        29,
        13,
        13,
        13,
        13,
        13,
        13,
        13,
        13,
        13,
        13,
        13,
        13,
        13,
        13,
        13,
        13,
        13,
        13,
        13,
        13,
        13,
        13,
        13,
        13,
        13,
        13,
        13,
        13,
        13,
        13,
        13,
        13,
        13,
        13,
        13,
        13,
        13,
        13,
        39,
        13,
        13,
        13,
        29,
        14,
        0,
        0,
        12,
        29,
        13,
        13,
        13,
        13,
        13,
        13,
        13,
        13,
        13,
        13,
        13,
        13,
        13,
        13,
        13,
        13,
        13,
        13,
        13,
        13,
        13,
        13,
        13,
        13,
        13,
        13,
        13,
        13,
        13,
        13,
        13,
        13,
        13,
        13,
        13,
        13,
        13,
        13,
        40,
        13,
        13,
        13,
        29,
        14,
        0,
        0,
        20,
        21,
        21,
        21,
        21,
        21,
        21,
        21,
        21,
        21,
        21,
        21,
        21,
        21,
        21,
        21,
        21,
        21,
        21,
        21,
        21,
        21,
        21,
        21,
        21,
        21,
        21,
        21,
        21,
        21,
        21,
        21,
        21,
        21,
        21,
        21,
        21,
        21,
        21,
        21,
        21,
        21,
        21,
        21,
        21,
        22,
        0,
        0,
        0,
        0,
        0,
        0,
        0,
        0,
        0,
        0,
        0,
        0,
        0,
        0,
        0,
        0,
        0,
        0,
        0,
        0,
        0,
        0,
        0,
        0,
        0,
        0,
        0,
        0,
        0,
        0,
        0,
        0,
        0,
        0,
        0,
        0,
        0,
        0,
        0,
        0,
        0,
        0,
        0,
        0,
        0,
        0,
        0,
        0,
        0,
        0,
        0,
        0,
        0,
        0,
        0,
        0,
        0,
        0,
        0,
        0,
        0,
        0,
        0,
        0,
        0,
        0,
        0,
        0,
        0,
        0,
        0,
        0,
        0,
        0,
        0,
        0,
        0,
        0,
        0,
        0,
        0,
        0,
        0,
        0,
        0,
        0,
        0,
        0,
        0,
        0,
        0,
        0,
        0,
        0,
        0,
        0,
        0
      ]
    },
    {
      "id": 2,
      "name": "Terrain",
      "type": "tilelayer",
      "x": 0,
      "y": 0,
      "width": 48,
      "height": 26,
      "opacity": 1,
      "visible": true,
      "data": [
        0,
        0,
        0,
        0,
        0,
        0,
        0,
        0,
        0,
        0,
        0,
        0,
        0,
        0,
        0,
        0,
        0,
        0,
        0,
        0,
        0,
        0,
        0,
        0,
        0,
        0,
        0,
        0,
        0,
        0,
        0,
        0,
        0,
        0,
        0,
        0,
        0,
        0,
        0,
        0,
        0,
        0,
        0,
        0,
        0,
        0,
        0,
        0,
        0,
        0,
        0,
        0,
        0,
        0,
        0,
        0,
        0,
        0,
        0,
        0,
        0,
        0,
        0,
        0,
        0,
        0,
        0,
        0,
        0,
        0,
        0,
        0,
        0,
        0,
        0,
        0,
        0,
        0,
        0,
        0,
        0,
        0,
        0,
        0,
        0,
        0,
        0,
        0,
        0,
        0,
        0,
        0,
        0,
        0,
        0,
        0,
        0,
        0,
        0,
        0,
        0,
        0,
        0,
        0,
        0,
        0,
        0,
        0,
        0,
        0,
        0,
        0,
        0,
        0,
        0,
        0,
        0,
        0,
        0,
        0,
        0,
        0,
        0,
        0,
        0,
        0,
        0,
        0,
        0,
        0,
        0,
        0,
        0,
        0,
        0,
        0,
        0,
        0,
        0,
        0,
        0,
        0,
        0,
        0,
        0,
        0,
        0,
        0,
        0,
        0,
        0,
        0,
        0,
        0,
        0,
        0,
        0,
        0,
        0,
        0,
        0,
        0,
        0,
        0,
        0,
        0,
        0,
        0,
        0,
        0,
        0,
        0,
        0,
        0,
        0,
        0,
        0,
        0,
        0,
        0,
        0,
        0,
        0,
        0,
        0,
        0,
        0,
        0,
        0,
        0,
        0,
        0,
        0,
        0,
        0,
        0,
        0,
        0,
        0,
        0,
        0,
        0,
        0,
        0,
        0,
        0,
        0,
        0,
        0,
        0,
        0,
        0,
        0,
        0,
        0,
        0,
        0,
        0,
        0,
        0,
        0,
        0,
        0,
        0,
        0,
        0,
        0,
        0,
        0,
        0,
        0,
        0,
        0,
        0,
        0,
        0,
        0,
        0,
        0,
        0,
        0,
        0,
        0,
        0,
        0,
        0,
        0,
        0,
        0,
        0,
        0,
        0,
        0,
        0,
        0,
        0,
        0,
        0,
        0,
        0,
        0,
        0,
        0,
        0,
        0,
        0,
        0,
        0,
        0,
        0,
        0,
        0,
        0,
        0,
        0,
        0,
        0,
        0,
        0,
        0,
        0,
        0,
        0,
        0,
        0,
        0,
        0,
        0,
        0,
        0,
        0,
        0,
        0,
        0,
        0,
        0,
        0,
        0,
        0,
        0,
        0,
        0,
        0,
        0,
        0,
        0,
        0,
        0,
        0,
        0,
        0,
        0,
        0,
        0,
        0,
        0,
        0,
        0,
        0,
        0,
        0,
        0,
        0,
        0,
        0,
        0,
        0,
        0,
        0,
        0,
        0,
        0,
        0,
        0,
        0,
        0,
        0,
        0,
        0,
        0,
        0,
        0,
        0,
        0,
        0,
        0,
        0,
        0,
        0,
        0,
        0,
        0,
        0,
        0,
        0,
        0,
        0,
        0,
        0,
        0,
        0,
        0,
        0,
        0,
        0,
        0,
        0,
        0,
        0,
        0,
        0,
        0,
        0,
        0,
        0,
        0,
        0,
        0,
        0,
        0,
        0,
        0,
        0,
        0,
        0,
        0,
        0,
        0,
        0,
        0,
        0,
        0,
        0,
        0,
        0,
        0,
        0,
        0,
        0,
        0,
        0,
        0,
        0,
        0,
        0,
        0,
        0,
        0,
        0,
        0,
        0,
        0,
        0,
        0,
        0,
        0,
        0,
        0,
        0,
        0,
        0,
        0,
        0,
        0,
        0,
        0,
        0,
        0,
        0,
        0,
        0,
        0,
        0,
        0,
        0,
        0,
        0,
        0,
        0,
        0,
        0,
        0,
        0,
        0,
        0,
        0,
        0,
        0,
        0,
        0,
        0,
        0,
        0,
        0,
        0,
        0,
        0,
        0,
        0,
        0,
        0,
        0,
        0,
        0,
        0,
        0,
        0,
        0,
        0,
        0,
        0,
        0,
        0,
        0,
        0,
        0,
        0,
        0,
        0,
        0,
        0,
        0,
        0,
        0,
        0,
        0,
        0,
        0,
        0,
        0,
        0,
        0,
        0,
        0,
        0,
        0,
        0,
        0,
        0,
        0,
        0,
        0,
        0,
        0,
        0,
        0,
        0,
        0,
        0,
        0,
        0,
        0,
        0,
        0,
        0,
        0,
        0,
        0,
        0,
        0,
        0,
        0,
        0,
        0,
        0,
        0,
        0,
        0,
        0,
        0,
        0,
        0,
        0,
        0,
        0,
        0,
        0,
        0,
        0,
        0,
        0,
        0,
        0,
        0,
        0,
        0,
        0,
        0,
        0,
        0,
        0,
        0,
        0,
        0,
        0,
        0,
        0,
        0,
        0,
        0,
        0,
        0,
        0,
        0,
        0,
        0,
        0,
        0,
        0,
        0,
        0,
        0,
        0,
        0,
        0,
        0,
        0,
        0,
        0,
        0,
        0,
        0,
        0,
        0,
        0,
        0,
        0,
        0,
        0,
        0,
        0,
        0,
        0,
        0,
        0,
        0,
        0,
        0,
        0,
        0,
        0,
        0,
        0,
        0,
        0,
        0,
        0,
        0,
        0,
        0,
        0,
        0,
        0,
        0,
        0,
        0,
        0,
        0,
        0,
        0,
        0,
        0,
        0,
        0,
        0,
        0,
        0,
        0,
        0,
        0,
        0,
        0,
        0,
        0,
        0,
        0,
        0,
        0,
        0,
        0,
        0,
        0,
        0,
        0,
        0,
        0,
        0,
        0,
        0,
        0,
        0,
        0,
        0,
        0,
        0,
        0,
        0,
        0,
        0,
        0,
        0,
        0,
        0,
        0,
        0,
        0,
        0,
        0,
        0,
        0,
        0,
        0,
        0,
        0,
        0,
        0,
        0,
        0,
        0,
        0,
        0,
        0,
        0,
        0,
        0,
        0,
        0,
        0,
        0,
        0,
        0,
        0,
        0,
        0,
        0,
        0,
        0,
        0,
        0,
        0,
        0,
        0,
        0,
        0,
        0,
        0,
        0,
        0,
        0,
        0,
        0,
        0,
        0,
        0,
        0,
        0,
        0,
        0,
        0,
        0,
        0,
        0,
        0,
        0,
        0,
        0,
        0,
        0,
        0,
        0,
        0,
        0,
        0,
        0,
        0,
        0,
        0,
        0,
        0,
        0,
        0,
        0,
        0,
        0,
        0,
        0,
        0,
        0,
        0,
        0,
        0,
        0,
        0,
        0,
        0,
        0,
        0,
        0,
        0,
        0,
        0,
        0,
        0,
        0,
        0,
        0,
        0,
        0,
        0,
        0,
        0,
        0,
        0,
        0,
        0,
        0,
        0,
        0,
        0,
        0,
        0,
        0,
        0,
        0,
        0,
        0,
        0,
        0,
        0,
        0,
        0,
        0,
        0,
        0,
        0,
        0,
        0,
        0,
        0,
        0,
        0,
        0,
        0,
        0,
        0,
        0,
        0,
        0,
        0,
        0,
        0,
        0,
        0,
        0,
        0,
        0,
        0,
        0,
        0,
        0,
        0,
        0,
        0,
        0,
        0,
        0,
        0,
        0,
        0,
        0,
        0,
        0,
        0,
        0,
        0,
        0,
        0,
        0,
        0,
        0,
        0,
        0,
        0,
        0,
        0,
        0,
        0,
        0,
        0,
        0,
        0,
        0,
        0,
        0,
        0,
        0,
        0,
        0,
        0,
        0,
        0,
        0,
        0,
        0,
        0,
        0,
        0,
        0,
        0,
        0,
        0,
        0,
        0,
        0,
        0,
        0,
        0,
        0,
        0,
        0,
        0,
        0,
        0,
        0,
        0,
        0,
        0,
        0,
        0,
        0,
        0,
        0,
        0,
        0,
        0,
        0,
        0,
        0,
        0,
        0,
        0,
        0,
        0,
        0,
        0,
        0,
        0,
        0,
        0,
        0,
        0,
        0,
        0,
        0,
        0,
        0,
        0,
        0,
        0,
        0,
        0,
        0,
        0,
        0,
        0,
        0,
        0,
        0,
        0,
        0,
        0,
        0,
        0,
        0,
        0,
        0,
        0,
        0,
        0,
        0,
        0,
        0,
        0,
        0,
        0,
        0,
        0,
        0,
        0,
        0,
        0,
        0,
        0,
        0,
        0,
        0,
        0,
        0,
        0,
        0,
        0,
        0,
        0,
        0,
        0,
        0,
        0,
        0,
        0,
        0,
        0,
        0,
        0,
        0,
        0,
        0,
        0,
        0,
        0,
        0,
        0,
        0,
        0,
        0,
        0,
        0,
        0,
        0,
        0,
        0,
        0,
        0,
        0,
        0,
        0,
        0,
        0,
        0,
        0,
        0,
        0,
        0,
        0,
        0,
        0,
        0,
        0,
        0,
        0,
        0,
        0,
        0,
        0,
        0,
        0,
        0,
        0,
        0,
        0,
        0,
        0,
        0,
        0,
        0,
        0,
        0,
        0,
        0,
        0,
        0,
        0,
        0,
        0,
        0,
        0,
        0,
        0,
        0,
        0,
        0,
        0,
        0,
        0,
        0,
        0,
        0,
        0,
        0,
        0,
        0,
        0,
        0,
        0,
        0,
        0,
        0,
        0,
        0,
        0,
        0,
        0,
        0,
        0,
        0,
        0,
        0,
        0,
        0,
        0,
        0,
        0,
        0,
        0,
        0,
        0,
        0,
        0,
        0,
        0,
        0,
        0,
        0,
        0,
        0,
        0,
        0,
        0,
        0,
        0,
        0,
        0,
        0,
        0,
        0,
        0,
        0,
        0,
        0,
        0,
        0,
        0,
        0,
        0,
        0,
        0,
        0,
        0,
        0,
        0,
        0,
        0,
        0,
        0,
        0,
        0,
        0,
        0,
        0,
        0,
        0,
        0,
        0,
        0,
        0,
        0,
        0,
        0,
        0,
        0,
        0,
        0,
        0,
        0,
        0,
        0,
        0,
        0,
        0,
        0,
        0,
        0,
        0,
        0,
        0,
        0,
        0,
        0,
        0,
        0,
        0,
        0,
        0,
        1,
        2,
        2,
        2,
        2,
        2,
        2,
        2,
        2,
        2,
        2,
        2,
        2,
        2,
        2,
        2,
        2,
        2,
        2,
        2,
        2,
        2,
        2,
        2,
        2,
        2,
        2,
        2,
        2,
        2,
        2,
        2,
        2,
        2,
        2,
        2,
        2,
        2,
        2,
        2,
        2,
        2,
        2,
        2,
        2,
        2,
        2,
        3,
        17,
        18,
        18,
        18,
        18,
        18,
        18,
        18,
        18,
        18,
        18,
        18,
        18,
        18,
        18,
        18,
        18,
        18,
        18,
        18,
        18,
        18,
        18,
        18,
        18,
        18,
        18,
        18,
        18,
        18,
        18,
        18,
        18,
        18,
        18,
        18,
        18,
        18,
        18,
        18,
        18,
        18,
        18,
        18,
        18,
        18,
        18,
        19
      ]
    },
    {
      "id": 3,
      "name": "Platforms",
      "type": "tilelayer",
      "x": 0,
      "y": 0,
      "width": 48,
      "height": 26,
      "opacity": 1,
      "visible": true,
      "data": [
        0,
        0,
        0,
        0,
        0,
        0,
        0,
        0,
        0,
        0,
        0,
        0,
        0,
        0,
        0,
        0,
        0,
        0,
        0,
        0,
        0,
        0,
        0,
        0,
        0,
        0,
        0,
        0,
        0,
        0,
        0,
        0,
        0,
        0,
        0,
        0,
        0,
        0,
        0,
        0,
        0,
        0,
        0,
        0,
        0,
        0,
        0,
        0,
        0,
        0,
        0,
        0,
        0,
        0,
        0,
        0,
        0,
        0,
        0,
        0,
        0,
        0,
        0,
        0,
        0,
        0,
        0,
        0,
        0,
        0,
        0,
        0,
        0,
        0,
        0,
        0,
        0,
        0,
        0,
        0,
        0,
        0,
        0,
        0,
        0,
        0,
        0,
        0,
        0,
        0,
        0,
        0,
        0,
        0,
        0,
        0,
        0,
        0,
        0,
        0,
        0,
        0,
        0,
        0,
        0,
        0,
        0,
        0,
        0,
        0,
        0,
        0,
        0,
        0,
        0,
        0,
        0,
        0,
        0,
        0,
        0,
        0,
        0,
        0,
        0,
        0,
        0,
        0,
        0,
        0,
        0,
        0,
        0,
        0,
        0,
        0,
        0,
        0,
        0,
        0,
        0,
        0,
        0,
        0,
        0,
        0,
        0,
        0,
        0,
        0,
        0,
        0,
        0,
        0,
        0,
        0,
        0,
        0,
        0,
        0,
        0,
        0,
        0,
        0,
        0,
        0,
        0,
        0,
        0,
        0,
        0,
        0,
        0,
        0,
        0,
        0,
        0,
        0,
        0,
        0,
        0,
        0,
        0,
        0,
        0,
        0,
        0,
        0,
        0,
        0,
        0,
        0,
        0,
        0,
        0,
        0,
        0,
        0,
        0,
        0,
        0,
        0,
        0,
        0,
        0,
        0,
        0,
        0,
        0,
        0,
        0,
        0,
        0,
        0,
        0,
        0,
        0,
        0,
        0,
        0,
        0,
        0,
        0,
        0,
        0,
        0,
        0,
        0,
        0,
        0,
        0,
        0,
        25,
        26,
        26,
        26,
        27,
        0,
        0,
        0,
        0,
        0,
        0,
        0,
        0,
        0,
        0,
        0,
        0,
        0,
        0,
        0,
        0,
        0,
        0,
        0,
        0,
        0,
        25,
        26,
        26,
        26,
        26,
        26,
        27,
        0,
        0,
        0,
        0,
        0,
        0,
        0,
        0,
        0,
        0,
        0,
        0,
        0,
        0,
        0,
        0,
        0,
        0,
        0,
        0,
        0,
        0,
        0,
        0,
        0,
        0,
        0,
        0,
        0,
        0,
        0,
        0,
        0,
        0,
        0,
        0,
        0,
        0,
        0,
        0,
        0,
        0,
        0,
        0,
        0,
        0,
        0,
        0,
        0,
        0,
        0,
        0,
        0,
        0,
        0,
        0,
        0,
        0,
        0,
        0,
        0,
        0,
        0,
        0,
        0,
        0,
        0,
        0,
        0,
        0,
        0,
        0,
        0,
        0,
        0,
        0,
        25,
        26,
        26,
        26,
        26,
        26,
        27,
        0,
        0,
        0,
        0,
        0,
        0,
        0,
        0,
        0,
        0,
        0,
        0,
        0,
        0,
        0,
        0,
        0,
        0,
        0,
        25,
        26,
        26,
        26,
        26,
        26,
        27,
        0,
        0,
        0,
        0,
        0,
        0,
        0,
        0,
        0,
        0,
        0,
        0,
        0,
        0,
        0,
        0,
        0,
        0,
        0,
        0,
        0,
        0,
        0,
        0,
        0,
        0,
        0,
        0,
        0,
        0,
        0,
        0,
        0,
        0,
        0,
        0,
        0,
        0,
        0,
        0,
        0,
        0,
        0,
        0,
        0,
        0,
        0,
        0,
        0,
        0,
        0,
        0,
        0,
        0,
        0,
        0,
        0,
        0,
        0,
        0,
        0,
        0,
        0,
        0,
        0,
        0,
        0,
        0,
        0,
        0,
        0,
        0,
        0,
        0,
        0,
        0,
        0,
        0,
        0,
        0,
        0,
        0,
        0,
        25,
        26,
        26,
        26,
        26,
        26,
        27,
        0,
        0,
        0,
        0,
        0,
        0,
        0,
        0,
        0,
        0,
        0,
        0,
        0,
        0,
        0,
        0,
        0,
        0,
        0,
        0,
        0,
        0,
        0,
        0,
        0,
        0,
        0,
        0,
        0,
        0,
        0,
        0,
        0,
        0,
        0,
        0,
        0,
        0,
        0,
        0,
        0,
        0,
        0,
        0,
        0,
        0,
        0,
        0,
        0,
        0,
        0,
        0,
        0,
        0,
        0,
        0,
        0,
        0,
        0,
        0,
        0,
        0,
        0,
        0,
        0,
        0,
        0,
        0,
        0,
        0,
        0,
        0,
        0,
        0,
        0,
        25,
        26,
        26,
        26,
        26,
        26,
        27,
        0,
        0,
        0,
        0,
        0,
        0,
        0,
        0,
        0,
        0,
        0,
        0,
        0,
        0,
        0,
        0,
        0,
        0,
        0,
        25,
        26,
        26,
        26,
        26,
        26,
        27,
        0,
        0,
        0,
        0,
        0,
        0,
        0,
        0,
        0,
        0,
        0,
        0,
        0,
        0,
        0,
        0,
        0,
        0,
        0,
        0,
        0,
        0,
        0,
        0,
        0,
        0,
        0,
        0,
        0,
        0,
        0,
        0,
        0,
        0,
        0,
        0,
        0,
        0,
        0,
        0,
        0,
        0,
        0,
        0,
        0,
        0,
        0,
        0,
        0,
        0,
        0,
        0,
        0,
        0,
        0,
        0,
        0,
        0,
        0,
        0,
        0,
        0,
        0,
        0,
        0,
        0,
        0,
        0,
        0,
        0,
        0,
        0,
        0,
        0,
        0,
        0,
        0,
        0,
        0,
        0,
        0,
        0,
        0,
        0,
        0,
        0,
        0,
        0,
        0,
        0,
        0,
        0,
        0,
        0,
        0,
        0,
        0,
        0,
        0,
        0,
        0,
        0,
        0,
        0,
        0,
        0,
        0,
        0,
        0,
        0,
        0,
        0,
        0,
        0,
        0,
        0,
        0,
        0,
        0,
        0,
        25,
        26,
        26,
        26,
        26,
        26,
        27,
        0,
        0,
        0,
        0,
        0,
        0,
        0,
        0,
        0,
        0,
        0,
        0,
        0,
        0,
        0,
        0,
        0,
        0,
        0,
        0,
        0,
        0,
        0,
        0,
        0,
        0,
        0,
        0,
        0,
        0,
        0,
        0,
        0,
        0,
        0,
        0,
        0,
        0,
        0,
        0,
        0,
        0,
        0,
        0,
        0,
        0,
        0,
        0,
        0,
        0,
        0,
        0,
        0,
        0,
        0,
        0,
        0,
        0,
        0,
        0,
        0,
        0,
        0,
        0,
        0,
        0,
        0,
        0,
        0,
        0,
        0,
        0,
        0,
        0,
        0,
        0,
        25,
        26,
        26,
        26,
        26,
        26,
        27,
        0,
        0,
        0,
        0,
        0,
        0,
        0,
        0,
        0,
        0,
        0,
        0,
        0,
        0,
        0,
        0,
        0,
        0,
        25,
        26,
        26,
        26,
        26,
        26,
        27,
        0,
        0,
        0,
        0,
        0,
        0,
        0,
        0,
        0,
        0,
        0,
        0,
        0,
        0,
        0,
        0,
        0,
        0,
        0,
        0,
        0,
        0,
        0,
        0,
        0,
        0,
        0,
        0,
        0,
        0,
        0,
        0,
        0,
        0,
        0,
        0,
        0,
        0,
        0,
        0,
        0,
        0,
        0,
        0,
        0,
        0,
        0,
        0,
        0,
        0,
        0,
        0,
        0,
        0,
        0,
        0,
        0,
        0,
        0,
        0,
        0,
        0,
        0,
        0,
        0,
        0,
        0,
        0,
        0,
        0,
        0,
        0,
        0,
        0,
        0,
        0,
        0,
        0,
        0,
        0,
        0,
        0,
        0,
        0,
        0,
        0,
        0,
        0,
        0,
        0,
        0,
        0,
        0,
        0,
        0,
        25,
        26,
        26,
        26,
        26,
        26,
        27,
        0,
        0,
        0,
        0,
        0,
        0,
        0,
        0,
        0,
        0,
        0,
        0,
        0,
        0,
        0,
        0,
        0,
        0,
        25,
        26,
        26,
        26,
        26,
        26,
        27,
        0,
        0,
        0,
        0,
        0,
        0,
        0,
        0,
        0,
        0,
        0,
        0,
        0,
        0,
        0,
        0,
        0,
        0,
        0,
        0,
        0,
        0,
        0,
        0,
        0,
        0,
        0,
        0,
        0,
        0,
        0,
        0,
        0,
        0,
        0,
        0,
        0,
        0,
        0,
        0,
        0,
        0,
        0,
        0,
        0,
        0,
        0,
        0,
        0,
        0,
        0,
        0,
        0,
        0,
        0,
        0,
        0,
        0,
        0,
        0,
        0,
        0,
        0,
        0,
        0,
        0,
        0,
        0,
        0,
        0,
        0,
        0,
        0,
        0,
        0,
        0,
        0,
        0,
        25,
        26,
        26,
        26,
        26,
        26,
        27,
        0,
        0,
        0,
        0,
        0,
        0,
        0,
        0,
        0,
        0,
        0,
        0,
        0,
        0,
        0,
        0,
        0,
        25,
        26,
        26,
        26,
        26,
        26,
        26,
        27,
        0,
        0,
        0,
        0,
        0,
        0,
        0,
        0,
        0,
        0,
        0,
        0,
        0,
        0,
        0,
        0,
        0,
        0,
        0,
        0,
        0,
        0,
        0,
        0,
        0,
        0,
        0,
        0,
        0,
        0,
        0,
        0,
        0,
        0,
        0,
        0,
        0,
        0,
        0,
        0,
        0,
        0,
        0,
        0,
        0,
        0,
        0,
        0,
        0,
        0,
        0,
        0,
        0,
        0,
        0,
        0,
        0,
        0,
        0,
        0,
        0,
        0,
        0,
        0,
        0,
        0,
        0,
        0,
        0,
        0,
        0,
        0,
        0,
        0,
        0,
        0,
        0,
        0,
        0,
        0,
        0,
        0,
        0,
        0,
        0,
        0,
        0,
        0,
        0,
        0,
        0,
        0,
        0,
        0,
        0,
        0,
        0,
        0,
        0,
        0,
        0,
        0,
        0,
        0,
        0,
        0,
        0,
        0,
        0,
        0,
        0,
        0,
        0,
        0,
        0,
        0,
        0,
        0,
        0,
        0,
        0,
        0,
        0,
        0,
        0,
        0,
        0,
        0,
        0,
        0,
        0,
        0,
        0,
        0,
        0,
        0,
        0,
        0,
        0,
        0,
        0,
        0,
        0,
        0,
        0,
        0,
        0,
        0,
        0,
        0,
        0,
        0,
        0,
        0,
        0,
        0,
        0,
        0,
        0,
        0,
        0,
        0,
        0,
        0,
        0,
        0,
        0,
        0,
        0,
        0,
        0,
        0,
        0,
        0,
        0,
        0,
        0,
        0,
        0,
        0,
        0,
        0,
        0,
        0,
        0,
        0,
        0,
        0,
        0,
        0,
        0,
        0,
        0,
        0,
        0,
        0,
        0,
        0,
        0,
        0,
        0,
        0,
        0,
        0
      ]
    },
    {
      "id": 4,
      "name": "Decorations",
      "type": "tilelayer",
      "x": 0,
      "y": 0,
      "width": 48,
      "height": 26,
      "opacity": 1,
      "visible": true,
      "data": [
        0,
        0,
        0,
        0,
        0,
        0,
        0,
        0,
        0,
        0,
        0,
        0,
        0,
        0,
        0,
        0,
        0,
        0,
        0,
        0,
        0,
        0,
        0,
        0,
        0,
        0,
        0,
        0,
        0,
        0,
        0,
        0,
        0,
        0,
        0,
        0,
        0,
        0,
        0,
        0,
        0,
        0,
        0,
        0,
        0,
        0,
        0,
        0,
        0,
        0,
        0,
        0,
        0,
        0,
        0,
        0,
        0,
        0,
        0,
        0,
        0,
        0,
        0,
        0,
        0,
        0,
        0,
        0,
        0,
        0,
        0,
        0,
        0,
        0,
        0,
        0,
        0,
        0,
        0,
        0,
        0,
        0,
        0,
        0,
        0,
        0,
        0,
        0,
        0,
        0,
        0,
        0,
        0,
        0,
        0,
        0,
        0,
        0,
        0,
        0,
        0,
        0,
        0,
        0,
        0,
        0,
        0,
        0,
        0,
        0,
        0,
        0,
        0,
        0,
        0,
        0,
        0,
        0,
        0,
        0,
        0,
        0,
        0,
        0,
        0,
        0,
        0,
        0,
        0,
        0,
        0,
        0,
        0,
        0,
        0,
        0,
        0,
        0,
        0,
        0,
        0,
        0,
        0,
        0,
        0,
        0,
        0,
        0,
        0,
        0,
        0,
        43,
        41,
        41,
        41,
        41,
        41,
        41,
        41,
        41,
        41,
        41,
        41,
        41,
        41,
        41,
        41,
        41,
        48,
        41,
        41,
        41,
        41,
        41,
        41,
        41,
        41,
        41,
        41,
        41,
        41,
        41,
        41,
        41,
        44,
        0,
        0,
        0,
        0,
        0,
        0,
        0,
        0,
        0,
        0,
        0,
        0,
        0,
        0,
        42,
        0,
        0,
        0,
        0,
        0,
        0,
        0,
        0,
        0,
        0,
        0,
        0,
        34,
        0,
        0,
        0,
        0,
        0,
        0,
        0,
        0,
        0,
        0,
        0,
        0,
        0,
        0,
        0,
        0,
        0,
        0,
        0,
        42,
        0,
        28,
        0,
        0,
        0,
        0,
        0,
        0,
        0,
        0,
        0,
        0,
        0,
        0,
        0,
        0,
        0,
        0,
        0,
        0,
        0,
        0,
        0,
        0,
        0,
        0,
        0,
        0,
        28,
        0,
        0,
        0,
        0,
        0,
        0,
        0,
        0,
        0,
        0,
        0,
        0,
        0,
        0,
        0,
        0,
        0,
        0,
        0,
        0,
        28,
        0,
        0,
        0,
        0,
        0,
        0,
        0,
        0,
        0,
        0,
        0,
        33,
        0,
        0,
        0,
        0,
        0,
        0,
        0,
        0,
        0,
        0,
        0,
        0,
        0,
        0,
        28,
        0,
        0,
        0,
        0,
        0,
        0,
        0,
        0,
        0,
        0,
        0,
        0,
        0,
        0,
        0,
        0,
        0,
        0,
        0,
        0,
        28,
        0,
        0,
        0,
        0,
        0,
        0,
        0,
        0,
        0,
        0,
        0,
        0,
        0,
        28,
        0,
        0,
        0,
        0,
        0,
        0,
        0,
        0,
        0,
        0,
        0,
        0,
        28,
        0,
        0,
        0,
        0,
        0,
        0,
        0,
        0,
        0,
        0,
        0,
        0,
        28,
        0,
        0,
        0,
        0,
        0,
        0,
        0,
        28,
        0,
        0,
        0,
        0,
        0,
        0,
        0,
        0,
        0,
        0,
        0,
        0,
        0,
        28,
        0,
        0,
        0,
        0,
        0,
        0,
        0,
        0,
        0,
        0,
        0,
        0,
        28,
        0,
        0,
        0,
        0,
        0,
        0,
        0,
        0,
        0,
        36,
        0,
        0,
        28,
        0,
        0,
        0,
        0,
        0,
        0,
        0,
        28,
        0,
        0,
        0,
        0,
        0,
        0,
        0,
        0,
        0,
        0,
        0,
        0,
        0,
        28,
        0,
        0,
        0,
        0,
        0,
        0,
        0,
        0,
        0,
        0,
        0,
        0,
        28,
        0,
        0,
        0,
        0,
        0,
        0,
        28,
        0,
        0,
        0,
        0,
        0,
        28,
        0,
        0,
        0,
        0,
        0,
        0,
        0,
        28,
        0,
        0,
        0,
        0,
        0,
        0,
        0,
        0,
        0,
        0,
        0,
        0,
        0,
        28,
        0,
        0,
        0,
        0,
        0,
        0,
        0,
        0,
        0,
        0,
        35,
        0,
        28,
        0,
        0,
        0,
        0,
        0,
        0,
        28,
        0,
        0,
        0,
        0,
        0,
        28,
        0,
        0,
        0,
        0,
        0,
        0,
        0,
        28,
        0,
        0,
        0,
        0,
        0,
        0,
        0,
        0,
        0,
        0,
        0,
        0,
        0,
        28,
        0,
        0,
        0,
        0,
        0,
        28,
        0,
        0,
        0,
        0,
        0,
        0,
        28,
        0,
        0,
        0,
        0,
        0,
        0,
        28,
        0,
        0,
        0,
        0,
        0,
        28,
        0,
        0,
        0,
        0,
        0,
        28,
        0,
        0,
        0,
        0,
        0,
        0,
        0,
        0,
        0,
        0,
        0,
        0,
        0,
        0,
        0,
        28,
        0,
        0,
        0,
        0,
        0,
        28,
        0,
        0,
        0,
        0,
        0,
        0,
        28,
        0,
        0,
        0,
        0,
        0,
        0,
        28,
        0,
        0,
        0,
        0,
        0,
        28,
        0,
        0,
        0,
        0,
        0,
        28,
        0,
        0,
        0,
        0,
        0,
        0,
        0,
        0,
        0,
        0,
        0,
        0,
        0,
        0,
        0,
        28,
        0,
        0,
        0,
        0,
        0,
        28,
        0,
        0,
        0,
        0,
        0,
        0,
        28,
        0,
        0,
        0,
        0,
        37,
        0,
        28,
        0,
        0,
        0,
        0,
        0,
        28,
        0,
        0,
        0,
        0,
        0,
        28,
        0,
        0,
        0,
        0,
        0,
        0,
        0,
        0,
        0,
        0,
        0,
        0,
        0,
        0,
        0,
        28,
        0,
        0,
        0,
        33,
        0,
        28,
        0,
        0,
        0,
        0,
        0,
        0,
        0,
        0,
        28,
        0,
        0,
        0,
        0,
        28,
        0,
        0,
        0,
        0,
        34,
        28,
        0,
        0,
        0,
        0,
        0,
        28,
        0,
        0,
        0,
        0,
        0,
        0,
        0,
        0,
        0,
        0,
        0,
        0,
        0,
        0,
        0,
        28,
        0,
        0,
        0,
        0,
        0,
        28,
        0,
        0,
        0,
        0,
        0,
        0,
        0,
        0,
        28,
        0,
        0,
        0,
        0,
        28,
        0,
        0,
        0,
        0,
        0,
        28,
        0,
        0,
        0,
        36,
        0,
        28,
        0,
        0,
        0,
        0,
        0,
        0,
        0,
        0,
        0,
        0,
        0,
        0,
        0,
        0,
        0,
        0,
        0,
        28,
        0,
        0,
        0,
        28,
        0,
        0,
        0,
        0,
        0,
        0,
        0,
        0,
        28,
        0,
        0,
        0,
        0,
        28,
        0,
        0,
        0,
        0,
        0,
        0,
        28,
        0,
        0,
        0,
        0,
        28,
        0,
        0,
        0,
        0,
        0,
        0,
        0,
        0,
        0,
        0,
        0,
        0,
        0,
        0,
        0,
        0,
        0,
        28,
        0,
        0,
        0,
        28,
        0,
        0,
        0,
        0,
        0,
        0,
        0,
        0,
        28,
        0,
        0,
        0,
        0,
        28,
        0,
        0,
        0,
        0,
        0,
        0,
        28,
        0,
        0,
        0,
        0,
        28,
        0,
        0,
        0,
        0,
        0,
        0,
        0,
        0,
        0,
        0,
        0,
        0,
        0,
        0,
        0,
        0,
        0,
        28,
        0,
        0,
        0,
        28,
        0,
        0,
        0,
        34,
        0,
        0,
        0,
        0,
        28,
        0,
        0,
        0,
        0,
        28,
        35,
        0,
        0,
        0,
        0,
        0,
        28,
        0,
        0,
        0,
        0,
        0,
        28,
        0,
        0,
        0,
        0,
        0,
        0,
        0,
        0,
        0,
        0,
        0,
        0,
        0,
        0,
        0,
        0,
        28,
        0,
        0,
        0,
        28,
        0,
        0,
        0,
        28,
        0,
        0,
        0,
        0,
        28,
        0,
        0,
        0,
        0,
        28,
        0,
        0,
        0,
        0,
        0,
        0,
        28,
        0,
        0,
        0,
        0,
        0,
        28,
        0,
        0,
        0,
        0,
        0,
        0,
        0,
        0,
        0,
        0,
        0,
        0,
        0,
        0,
        0,
        0,
        28,
        0,
        0,
        0,
        28,
        0,
        0,
        0,
        28,
        0,
        0,
        0,
        0,
        28,
        0,
        0,
        0,
        0,
        28,
        0,
        0,
        0,
        0,
        0,
        0,
        28,
        0,
        0,
        0,
        0,
        0,
        28,
        0,
        0,
        0,
        0,
        0,
        0,
        0,
        0,
        0,
        0,
        0,
        0,
        0,
        28,
        0,
        0,
        0,
        0,
        0,
        0,
        28,
        0,
        0,
        0,
        28,
        0,
        0,
        0,
        0,
        28,
        0,
        0,
        0,
        0,
        0,
        0,
        0,
        0,
        28,
        0,
        0,
        0,
        0,
        0,
        0,
        0,
        0,
        28,
        0,
        0,
        0,
        0,
        0,
        0,
        0,
        0,
        0,
        0,
        33,
        34,
        0,
        28,
        0,
        0,
        0,
        0,
        0,
        0,
        28,
        0,
        0,
        36,
        28,
        0,
        0,
        0,
        37,
        28,
        0,
        0,
        0,
        0,
        0,
        0,
        0,
        33,
        28,
        0,
        0,
        0,
        0,
        0,
        0,
        0,
        0,
        28,
        35,
        36,
        0,
        0,
        0,
        0,
        0,
        0,
        0,
        0,
        0,
        0,
        0,
        28,
        0,
        0,
        0,
        0,
        0,
        0,
        28,
        0,
        0,
        0,
        28,
        0,
        0,
        0,
        0,
        28,
        0,
        0,
        0,
        0,
        0,
        0,
        0,
        0,
        28,
        0,
        0,
        0,
        0,
        0,
        0,
        0,
        0,
        28,
        0,
        0,
        0,
        0,
        0,
        0,
        0,
        0,
        0,
        0,
        0,
        0,
        0,
        0,
        0,
        0,
        0,
        0,
        0,
        0,
        0,
        0,
        0,
        0,
        0,
        0,
        0,
        0,
        0,
        0,
        0,
        0,
        0,
        0,
        0,
        0,
        0,
        0,
        0,
        0,
        0,
        0,
        0,
        0,
        0,
        0,
        0,
        0,
        0,
        0,
        0,
        0,
        0,
        0,
        0,
        0,
        0,
        0,
        0,
        0,
        0,
        0,
        0,
        0,
        0,
        0,
        0,
        0,
        0,
        0,
        0,
        0,
        0,
        0,
        0,
        0,
        0,
        0,
        0,
        0,
        0,
        0,
        0,
        0,
        0,
        0,
        0,
        0,
        0,
        0,
        0,
        0,
        0,
        0,
        0,
        0,
        0,
        0,
        0,
        0,
        0,
        0
      ]
    },
    {
      "id": 5,
      "name": "Spawns",
      "type": "objectgroup",
      "opacity": 1,
      "visible": true,
      "x": 0,
      "y": 0,
      "draworder": "topdown",
      "objects": [
        {
          "id": 1,
          "name": "Player",
          "type": "",
          "point": true,
          "x": 64,
          "y": 360,
          "width": 0,
          "height": 0,
          "rotation": 0,
          "visible": true
        },
        {
          "id": 2,
          "name": "Zombie",
          "type": "",
          "point": true,
          "x": 144,
          "y": 370,
          "width": 0,
          "height": 0,
          "rotation": 0,
          "visible": true
        },
        {
          "id": 3,
          "name": "Zombie",
          "type": "",
          "point": true,
          "x": 288,
          "y": 370,
          "width": 0,
          "height": 0,
          "rotation": 0,
          "visible": true
        },
        {
          "id": 4,
          "name": "Zombie",
          "type": "",
          "point": true,
          "x": 464,
          "y": 370,
          "width": 0,
          "height": 0,
          "rotation": 0,
          "visible": true
        },
        {
          "id": 5,
          "name": "Zombie",
          "type": "",
          "point": true,
          "x": 624,
          "y": 370,
          "width": 0,
          "height": 0,
          "rotation": 0,
          "visible": true
        }
      ]
    }
  ],
  "tilesets": [
    {
      "type": "tileset",
      "version": "1.10",
      "name": "scifi-base-16",
      "tilewidth": 16,
      "tileheight": 16,
      "columns": 8,
      "tilecount": 48,
      "spacing": 0,
      "margin": 0,
      "image": "../tilesets/scifi-base-16.png",
      "imagewidth": 128,
      "imageheight": 96,
      "tiles": [
        {
          "id": 0,
          "properties": [
            {
              "name": "name",
              "type": "string",
              "value": "floor_top_left"
            },
            {
              "name": "category",
              "type": "string",
              "value": "solid"
            },
            {
              "name": "collides",
              "type": "bool",
              "value": true
            }
          ]
        },
        {
          "id": 1,
          "properties": [
            {
              "name": "name",
              "type": "string",
              "value": "floor_top_middle"
            },
            {
              "name": "category",
              "type": "string",
              "value": "solid"
            },
            {
              "name": "collides",
              "type": "bool",
              "value": true
            }
          ]
        },
        {
          "id": 2,
          "properties": [
            {
              "name": "name",
              "type": "string",
              "value": "floor_top_right"
            },
            {
              "name": "category",
              "type": "string",
              "value": "solid"
            },
            {
              "name": "collides",
              "type": "bool",
              "value": true
            }
          ]
        },
        {
          "id": 3,
          "properties": [
            {
              "name": "name",
              "type": "string",
              "value": "wall_top_left"
            },
            {
              "name": "category",
              "type": "string",
              "value": "background"
            },
            {
              "name": "collides",
              "type": "bool",
              "value": false
            }
          ]
        },
        {
          "id": 4,
          "properties": [
            {
              "name": "name",
              "type": "string",
              "value": "wall_top_middle"
            },
            {
              "name": "category",
              "type": "string",
              "value": "background"
            },
            {
              "name": "collides",
              "type": "bool",
              "value": false
            }
          ]
        },
        {
          "id": 5,
          "properties": [
            {
              "name": "name",
              "type": "string",
              "value": "wall_top_right"
            },
            {
              "name": "category",
              "type": "string",
              "value": "background"
            },
            {
              "name": "collides",
              "type": "bool",
              "value": false
            }
          ]
        },
        {
          "id": 6,
          "properties": [
            {
              "name": "name",
              "type": "string",
              "value": "wall_vent"
            },
            {
              "name": "category",
              "type": "string",
              "value": "background"
            },
            {
              "name": "collides",
              "type": "bool",
              "value": false
            }
          ]
        },
        {
          "id": 7,
          "properties": [
            {
              "name": "name",
              "type": "string",
              "value": "wall_terminal"
            },
            {
              "name": "category",
              "type": "string",
              "value": "background"
            },
            {
              "name": "collides",
              "type": "bool",
              "value": false
            }
          ]
        },
        {
          "id": 8,
          "properties": [
            {
              "name": "name",
              "type": "string",
              "value": "floor_middle_left"
            },
            {
              "name": "category",
              "type": "string",
              "value": "solid"
            },
            {
              "name": "collides",
              "type": "bool",
              "value": true
            }
          ]
        },
        {
          "id": 9,
          "properties": [
            {
              "name": "name",
              "type": "string",
              "value": "floor_middle_middle"
            },
            {
              "name": "category",
              "type": "string",
              "value": "solid"
            },
            {
              "name": "collides",
              "type": "bool",
              "value": true
            }
          ]
        },
        {
          "id": 10,
          "properties": [
            {
              "name": "name",
              "type": "string",
              "value": "floor_middle_right"
            },
            {
              "name": "category",
              "type": "string",
              "value": "solid"
            },
            {
              "name": "collides",
              "type": "bool",
              "value": true
            }
          ]
        },
        {
          "id": 11,
          "properties": [
            {
              "name": "name",
              "type": "string",
              "value": "wall_middle_left"
            },
            {
              "name": "category",
              "type": "string",
              "value": "background"
            },
            {
              "name": "collides",
              "type": "bool",
              "value": false
            }
          ]
        },
        {
          "id": 12,
          "properties": [
            {
              "name": "name",
              "type": "string",
              "value": "wall_middle_middle"
            },
            {
              "name": "category",
              "type": "string",
              "value": "background"
            },
            {
              "name": "collides",
              "type": "bool",
              "value": false
            }
          ]
        },
        {
          "id": 13,
          "properties": [
            {
              "name": "name",
              "type": "string",
              "value": "wall_middle_right"
            },
            {
              "name": "category",
              "type": "string",
              "value": "background"
            },
            {
              "name": "collides",
              "type": "bool",
              "value": false
            }
          ]
        },
        {
          "id": 14,
          "properties": [
            {
              "name": "name",
              "type": "string",
              "value": "wall_light"
            },
            {
              "name": "category",
              "type": "string",
              "value": "background"
            },
            {
              "name": "collides",
              "type": "bool",
              "value": false
            }
          ]
        },
        {
          "id": 15,
          "properties": [
            {
              "name": "name",
              "type": "string",
              "value": "wall_warning"
            },
            {
              "name": "category",
              "type": "string",
              "value": "background"
            },
            {
              "name": "collides",
              "type": "bool",
              "value": false
            }
          ]
        },
        {
          "id": 16,
          "properties": [
            {
              "name": "name",
              "type": "string",
              "value": "floor_bottom_left"
            },
            {
              "name": "category",
              "type": "string",
              "value": "solid"
            },
            {
              "name": "collides",
              "type": "bool",
              "value": true
            }
          ]
        },
        {
          "id": 17,
          "properties": [
            {
              "name": "name",
              "type": "string",
              "value": "floor_bottom_middle"
            },
            {
              "name": "category",
              "type": "string",
              "value": "solid"
            },
            {
              "name": "collides",
              "type": "bool",
              "value": true
            }
          ]
        },
        {
          "id": 18,
          "properties": [
            {
              "name": "name",
              "type": "string",
              "value": "floor_bottom_right"
            },
            {
              "name": "category",
              "type": "string",
              "value": "solid"
            },
            {
              "name": "collides",
              "type": "bool",
              "value": true
            }
          ]
        },
        {
          "id": 19,
          "properties": [
            {
              "name": "name",
              "type": "string",
              "value": "wall_bottom_left"
            },
            {
              "name": "category",
              "type": "string",
              "value": "background"
            },
            {
              "name": "collides",
              "type": "bool",
              "value": false
            }
          ]
        },
        {
          "id": 20,
          "properties": [
            {
              "name": "name",
              "type": "string",
              "value": "wall_bottom_middle"
            },
            {
              "name": "category",
              "type": "string",
              "value": "background"
            },
            {
              "name": "collides",
              "type": "bool",
              "value": false
            }
          ]
        },
        {
          "id": 21,
          "properties": [
            {
              "name": "name",
              "type": "string",
              "value": "wall_bottom_right"
            },
            {
              "name": "category",
              "type": "string",
              "value": "background"
            },
            {
              "name": "collides",
              "type": "bool",
              "value": false
            }
          ]
        },
        {
          "id": 22,
          "properties": [
            {
              "name": "name",
              "type": "string",
              "value": "wall_conduit"
            },
            {
              "name": "category",
              "type": "string",
              "value": "background"
            },
            {
              "name": "collides",
              "type": "bool",
              "value": false
            }
          ]
        },
        {
          "id": 23,
          "properties": [
            {
              "name": "name",
              "type": "string",
              "value": "wall_access_panel"
            },
            {
              "name": "category",
              "type": "string",
              "value": "background"
            },
            {
              "name": "collides",
              "type": "bool",
              "value": false
            }
          ]
        },
        {
          "id": 24,
          "properties": [
            {
              "name": "name",
              "type": "string",
              "value": "platform_left"
            },
            {
              "name": "category",
              "type": "string",
              "value": "one_way"
            },
            {
              "name": "collides",
              "type": "bool",
              "value": false
            }
          ]
        },
        {
          "id": 25,
          "properties": [
            {
              "name": "name",
              "type": "string",
              "value": "platform_middle"
            },
            {
              "name": "category",
              "type": "string",
              "value": "one_way"
            },
            {
              "name": "collides",
              "type": "bool",
              "value": false
            }
          ]
        },
        {
          "id": 26,
          "properties": [
            {
              "name": "name",
              "type": "string",
              "value": "platform_right"
            },
            {
              "name": "category",
              "type": "string",
              "value": "one_way"
            },
            {
              "name": "collides",
              "type": "bool",
              "value": false
            }
          ]
        },
        {
          "id": 27,
          "properties": [
            {
              "name": "name",
              "type": "string",
              "value": "ladder"
            },
            {
              "name": "category",
              "type": "string",
              "value": "ladder"
            },
            {
              "name": "collides",
              "type": "bool",
              "value": false
            }
          ]
        },
        {
          "id": 28,
          "properties": [
            {
              "name": "name",
              "type": "string",
              "value": "beam_vertical"
            },
            {
              "name": "category",
              "type": "string",
              "value": "decoration"
            },
            {
              "name": "collides",
              "type": "bool",
              "value": false
            }
          ]
        },
        {
          "id": 29,
          "properties": [
            {
              "name": "name",
              "type": "string",
              "value": "beam_horizontal"
            },
            {
              "name": "category",
              "type": "string",
              "value": "decoration"
            },
            {
              "name": "collides",
              "type": "bool",
              "value": false
            }
          ]
        },
        {
          "id": 30,
          "properties": [
            {
              "name": "name",
              "type": "string",
              "value": "brace_left"
            },
            {
              "name": "category",
              "type": "string",
              "value": "decoration"
            },
            {
              "name": "collides",
              "type": "bool",
              "value": false
            }
          ]
        },
        {
          "id": 31,
          "properties": [
            {
              "name": "name",
              "type": "string",
              "value": "brace_right"
            },
            {
              "name": "category",
              "type": "string",
              "value": "decoration"
            },
            {
              "name": "collides",
              "type": "bool",
              "value": false
            }
          ]
        },
        {
          "id": 32,
          "properties": [
            {
              "name": "name",
              "type": "string",
              "value": "crate_steel"
            },
            {
              "name": "category",
              "type": "string",
              "value": "decoration"
            },
            {
              "name": "collides",
              "type": "bool",
              "value": false
            }
          ]
        },
        {
          "id": 33,
          "properties": [
            {
              "name": "name",
              "type": "string",
              "value": "crate_cargo"
            },
            {
              "name": "category",
              "type": "string",
              "value": "decoration"
            },
            {
              "name": "collides",
              "type": "bool",
              "value": false
            }
          ]
        },
        {
          "id": 34,
          "properties": [
            {
              "name": "name",
              "type": "string",
              "value": "barrel_energy"
            },
            {
              "name": "category",
              "type": "string",
              "value": "decoration"
            },
            {
              "name": "collides",
              "type": "bool",
              "value": false
            }
          ]
        },
        {
          "id": 35,
          "properties": [
            {
              "name": "name",
              "type": "string",
              "value": "server"
            },
            {
              "name": "category",
              "type": "string",
              "value": "decoration"
            },
            {
              "name": "collides",
              "type": "bool",
              "value": false
            }
          ]
        },
        {
          "id": 36,
          "properties": [
            {
              "name": "name",
              "type": "string",
              "value": "console"
            },
            {
              "name": "category",
              "type": "string",
              "value": "decoration"
            },
            {
              "name": "collides",
              "type": "bool",
              "value": false
            }
          ]
        },
        {
          "id": 37,
          "properties": [
            {
              "name": "name",
              "type": "string",
              "value": "ceiling_lamp"
            },
            {
              "name": "category",
              "type": "string",
              "value": "decoration"
            },
            {
              "name": "collides",
              "type": "bool",
              "value": false
            }
          ]
        },
        {
          "id": 38,
          "properties": [
            {
              "name": "name",
              "type": "string",
              "value": "door_top"
            },
            {
              "name": "category",
              "type": "string",
              "value": "background"
            },
            {
              "name": "collides",
              "type": "bool",
              "value": false
            }
          ]
        },
        {
          "id": 39,
          "properties": [
            {
              "name": "name",
              "type": "string",
              "value": "door_bottom"
            },
            {
              "name": "category",
              "type": "string",
              "value": "background"
            },
            {
              "name": "collides",
              "type": "bool",
              "value": false
            }
          ]
        },
        {
          "id": 40,
          "properties": [
            {
              "name": "name",
              "type": "string",
              "value": "pipe_horizontal"
            },
            {
              "name": "category",
              "type": "string",
              "value": "decoration"
            },
            {
              "name": "collides",
              "type": "bool",
              "value": false
            }
          ]
        },
        {
          "id": 41,
          "properties": [
            {
              "name": "name",
              "type": "string",
              "value": "pipe_vertical"
            },
            {
              "name": "category",
              "type": "string",
              "value": "decoration"
            },
            {
              "name": "collides",
              "type": "bool",
              "value": false
            }
          ]
        },
        {
          "id": 42,
          "properties": [
            {
              "name": "name",
              "type": "string",
              "value": "pipe_elbow_right_down"
            },
            {
              "name": "category",
              "type": "string",
              "value": "decoration"
            },
            {
              "name": "collides",
              "type": "bool",
              "value": false
            }
          ]
        },
        {
          "id": 43,
          "properties": [
            {
              "name": "name",
              "type": "string",
              "value": "pipe_elbow_left_down"
            },
            {
              "name": "category",
              "type": "string",
              "value": "decoration"
            },
            {
              "name": "collides",
              "type": "bool",
              "value": false
            }
          ]
        },
        {
          "id": 44,
          "properties": [
            {
              "name": "name",
              "type": "string",
              "value": "pipe_elbow_right_up"
            },
            {
              "name": "category",
              "type": "string",
              "value": "decoration"
            },
            {
              "name": "collides",
              "type": "bool",
              "value": false
            }
          ]
        },
        {
          "id": 45,
          "properties": [
            {
              "name": "name",
              "type": "string",
              "value": "pipe_elbow_left_up"
            },
            {
              "name": "category",
              "type": "string",
              "value": "decoration"
            },
            {
              "name": "collides",
              "type": "bool",
              "value": false
            }
          ]
        },
        {
          "id": 46,
          "properties": [
            {
              "name": "name",
              "type": "string",
              "value": "pipe_junction"
            },
            {
              "name": "category",
              "type": "string",
              "value": "decoration"
            },
            {
              "name": "collides",
              "type": "bool",
              "value": false
            }
          ]
        },
        {
          "id": 47,
          "properties": [
            {
              "name": "name",
              "type": "string",
              "value": "pipe_valve"
            },
            {
              "name": "category",
              "type": "string",
              "value": "decoration"
            },
            {
              "name": "collides",
              "type": "bool",
              "value": false
            }
          ]
        }
      ],
      "firstgid": 1
    }
  ]
}
